cube/test.CUBE
#Generated by wwww.onlinelutcreator.com 
LUT_3D_SIZE 5 
DOMAIN_MIN 0.000000 0.000000 0.000000
DOMAIN_MAX 0.903226 0.903226 0.903226
0.000000 0.000000 0.000000
0.156863 0.000000 0.000000
0.996078 0.000000 0.000000
0.996078 0.000000 0.007843
0.996078 0.023529 0.211765
0.000000 0.450980 0.000000
0.490196 0.470588 0.007843
0.996078 0.352941 0.003922
0.996078 0.254902 0.000000
1.000000 0.352941 0.305882
0.000000 0.984314 0.000000
0.423529 0.964706 0.000000
0.941176 0.945098 0.000000
1.000000 0.811765 0.278431
1.000000 0.745098 0.525490
0.572549 1.000000 0.643137
0.662745 1.000000 0.643137
0.803922 1.000000 0.658824
1.000000 1.000000 0.615686
1.000000 0.933333 0.643137
0.811765 1.000000 0.850980
0.811765 1.000000 0.835294
0.823529 1.000000 0.847059
0.905882 1.000000 0.850980
1.000000 0.992157 0.843137
0.003922 0.000000 0.305882
0.203922 0.000000 0.349020
0.996078 0.000000 0.352941
0.996078 0.000000 0.454902
0.996078 0.529412 0.615686
0.003922 0.356863 0.462745
0.466667 0.392157 0.478431
0.996078 0.431373 0.521569
1.000000 0.533333 0.580392
1.000000 0.592157 0.619608
0.462745 0.949020 0.611765
0.650980 0.941176 0.631373
0.917647 0.925490 0.631373
1.000000 0.862745 0.705882
1.000000 0.827451 0.745098
0.733333 1.000000 0.768627
0.772549 1.000000 0.772549
0.862745 1.000000 0.780392
1.000000 0.996078 0.784314
0.996078 0.949020 0.792157
0.866667 1.000000 0.870588
0.854902 1.000000 0.858824
0.878431 1.000000 0.858824
0.945098 1.000000 0.882353
1.000000 1.000000 0.882353
0.000000 0.003922 0.925490
0.003922 0.003922 0.937255
0.917647 0.000000 0.968627
1.000000 0.282353 0.847059
1.000000 0.729412 0.862745
0.000000 0.329412 0.956863
0.517647 0.474510 0.945098
0.960784 0.549020 0.952941
0.996078 0.698039 0.878431
1.000000 0.800000 0.866667
0.596078 0.933333 0.921569
0.760784 0.925490 0.921569
0.925490 0.925490 0.917647
1.000000 0.917647 0.925490
0.996078 0.917647 0.913725
0.862745 1.000000 0.913725
0.874510 0.996078 0.925490
0.925490 0.992157 0.921569
0.996078 0.988235 0.937255
0.996078 0.972549 0.925490
0.921569 1.000000 0.945098
0.917647 1.000000 0.941176
0.949020 0.996078 0.941176
0.976471 1.000000 0.952941
1.000000 1.000000 0.952941
0.000000 0.003922 0.996078
0.003922 0.035294 1.000000
0.725490 0.270588 0.996078
0.996078 0.490196 0.996078
1.000000 0.721569 0.972549
0.337255 0.490196 1.000000
0.611765 0.588235 1.000000
0.839216 0.666667 1.000000
1.000000 0.717647 1.000000
1.000000 0.803922 0.972549
0.796078 0.890196 0.984314
0.850980 0.909804 1.000000
0.917647 0.921569 0.992157
0.992157 0.925490 0.988235
1.000000 0.929412 0.976471
0.874510 0.984314 0.988235
0.909804 0.988235 0.992157
0.952941 0.984314 0.992157
0.988235 0.980392 0.984314
1.000000 0.984314 0.980392
0.952941 0.996078 0.972549
0.964706 1.000000 0.988235
0.976471 1.000000 0.984314
0.992157 1.000000 0.988235
1.000000 1.000000 0.984314
0.000000 0.250980 0.996078
0.278431 0.317647 1.000000
0.678431 0.482353 1.000000
0.901961 0.647059 1.000000
1.000000 0.760784 0.996078
0.494118 0.545098 0.992157
0.631373 0.615686 0.996078
0.776471 0.678431 0.996078
0.921569 0.749020 0.996078
1.000000 0.811765 1.000000
0.866667 0.905882 1.000000
0.886275 0.917647 1.000000
0.913725 0.917647 1.000000
0.956863 0.921569 1.000000
1.000000 0.925490 1.000000
0.913725 0.964706 0.996078
0.933333 0.968627 1.000000
0.960784 0.980392 1.000000
0.988235 0.984314 1.000000
0.996078 0.988235 1.000000
0.960784 1.000000 0.996078
0.976471 1.000000 1.000000
0.984314 1.000000 0.996078
0.996078 1.000000 1.000000
1.000000 1.000000 1.000000
