cube/test.CUBE
#Generated by wwww.onlinelutcreator.com 
LUT_3D_SIZE 8 
DOMAIN_MIN 0.000000 0.000000 0.000000
DOMAIN_MAX 0.903226 0.903226 0.903226
0.000000 0.000000 0.000000
0.000000 0.000000 0.000000
0.317647 0.000000 0.000000
0.874510 0.000000 0.003922
0.996078 0.000000 0.000000
0.996078 0.000000 0.000000
0.996078 0.000000 0.000000
0.996078 0.023529 0.211765
0.000000 0.000000 0.000000
0.007843 0.015686 0.003922
0.529412 0.000000 0.000000
0.960784 0.000000 0.000000
0.996078 0.000000 0.000000
0.996078 0.000000 0.000000
0.996078 0.000000 0.094118
1.000000 0.215686 0.266667
0.000000 0.513725 0.011765
0.003922 0.529412 0.000000
0.521569 0.556863 0.000000
0.917647 0.560784 0.000000
1.000000 0.474510 0.003922
1.000000 0.388235 0.007843
0.996078 0.423529 0.231373
1.000000 0.490196 0.407843
0.000000 0.941176 0.011765
0.000000 0.913725 0.003922
0.509804 0.917647 0.003922
0.862745 0.898039 0.000000
1.000000 0.819608 0.003922
0.996078 0.733333 0.047059
1.000000 0.698039 0.415686
1.000000 0.674510 0.509804
0.007843 0.968627 0.007843
0.168627 0.968627 0.000000
0.443137 0.976471 0.003922
0.698039 0.976471 0.000000
0.945098 0.960784 0.000000
0.996078 0.898039 0.058824
0.996078 0.843137 0.431373
1.000000 0.815686 0.596078
0.509804 1.000000 0.603922
0.560784 0.996078 0.592157
0.627451 1.000000 0.607843
0.733333 1.000000 0.611765
0.858824 1.000000 0.584314
0.996078 0.996078 0.549020
1.000000 0.960784 0.588235
0.992157 0.909804 0.647059
0.768627 0.996078 0.756863
0.768627 1.000000 0.749020
0.760784 1.000000 0.768627
0.760784 0.996078 0.784314
0.807843 0.996078 0.792157
0.894118 1.000000 0.776471
0.988235 1.000000 0.792157
0.996078 0.980392 0.796078
0.811765 1.000000 0.850980
0.815686 1.000000 0.839216
0.803922 1.000000 0.843137
0.815686 1.000000 0.854902
0.843137 1.000000 0.839216
0.894118 1.000000 0.854902
0.945098 1.000000 0.843137
1.000000 0.992157 0.843137
0.000000 0.000000 0.000000
0.000000 0.000000 0.000000
0.309804 0.000000 0.000000
0.854902 0.000000 0.003922
1.000000 0.003922 0.003922
1.000000 0.000000 0.086275
1.000000 0.003922 0.247059
1.000000 0.125490 0.403922
0.000000 0.007843 0.035294
0.019608 0.027451 0.023529
0.462745 0.000000 0.000000
0.960784 0.000000 0.000000
0.992157 0.000000 0.078431
0.992157 0.000000 0.211765
1.000000 0.000000 0.337255
1.000000 0.282353 0.403922
0.000000 0.521569 0.000000
0.000000 0.537255 0.007843
0.545098 0.556863 0.003922
0.929412 0.556863 0.000000
1.000000 0.478431 0.003922
1.000000 0.474510 0.286275
1.000000 0.529412 0.462745
1.000000 0.596078 0.568627
0.011765 0.929412 0.007843
0.000000 0.913725 0.000000
0.541176 0.905882 0.000000
0.862745 0.894118 0.000000
1.000000 0.815686 0.239216
1.000000 0.756863 0.447059
1.000000 0.745098 0.580392
1.000000 0.733333 0.619608
0.290196 0.960784 0.309804
0.360784 0.964706 0.337255
0.521569 0.972549 0.364706
0.717647 0.964706 0.372549
0.941176 0.945098 0.341176
0.992157 0.901961 0.447059
0.996078 0.862745 0.584314
1.000000 0.835294 0.678431
0.607843 1.000000 0.662745
0.650980 1.000000 0.647059
0.694118 1.000000 0.662745
0.768627 1.000000 0.678431
0.870588 1.000000 0.674510
0.992157 0.992157 0.654902
0.992157 0.960784 0.666667
1.000000 0.917647 0.721569
0.788235 1.000000 0.788235
0.788235 1.000000 0.796078
0.772549 0.996078 0.796078
0.788235 1.000000 0.796078
0.843137 0.996078 0.811765
0.921569 1.000000 0.800000
0.988235 1.000000 0.784314
1.000000 0.988235 0.811765
0.827451 1.000000 0.850980
0.839216 0.996078 0.850980
0.819608 1.000000 0.839216
0.843137 1.000000 0.847059
0.874510 1.000000 0.847059
0.917647 1.000000 0.839216
0.960784 1.000000 0.862745
0.996078 0.996078 0.862745
0.007843 0.000000 0.454902
0.003922 0.000000 0.470588
0.360784 0.000000 0.486275
0.882353 0.000000 0.501961
1.000000 0.000000 0.431373
0.992157 0.003922 0.478431
1.000000 0.435294 0.619608
0.996078 0.596078 0.690196
0.007843 0.094118 0.564706
0.000000 0.003922 0.568627
0.494118 0.000000 0.560784
0.968627 0.000000 0.529412
0.996078 0.000000 0.529412
1.000000 0.396078 0.600000
1.000000 0.560784 0.658824
1.000000 0.615686 0.686275
0.000000 0.549020 0.537255
0.003922 0.552941 0.541176
0.537255 0.584314 0.537255
0.858824 0.615686 0.564706
1.000000 0.627451 0.611765
0.996078 0.658824 0.662745
0.996078 0.705882 0.709804
0.996078 0.745098 0.749020
0.000000 0.909804 0.600000
0.474510 0.894118 0.619608
0.654902 0.890196 0.647059
0.862745 0.882353 0.654902
0.996078 0.850980 0.686275
1.000000 0.819608 0.733333
1.000000 0.819608 0.760784
0.996078 0.811765 0.772549
0.576471 0.949020 0.631373
0.619608 0.949020 0.654902
0.674510 0.949020 0.662745
0.788235 0.949020 0.674510
0.941176 0.945098 0.678431
1.000000 0.917647 0.721569
0.996078 0.894118 0.764706
1.000000 0.882353 0.800000
0.737255 1.000000 0.788235
0.752941 1.000000 0.776471
0.788235 0.996078 0.784314
0.847059 1.000000 0.792157
0.913725 0.992157 0.784314
0.992157 0.992157 0.788235
0.996078 0.968627 0.803922
1.000000 0.941176 0.819608
0.819608 1.000000 0.811765
0.819608 1.000000 0.815686
0.815686 1.000000 0.819608
0.847059 1.000000 0.823529
0.878431 1.000000 0.827451
0.925490 1.000000 0.831373
1.000000 1.000000 0.850980
0.996078 0.984314 0.862745
0.866667 1.000000 0.886275
0.858824 0.996078 0.866667
0.862745 0.996078 0.858824
0.882353 1.000000 0.878431
0.917647 0.996078 0.886275
0.937255 0.996078 0.874510
0.976471 1.000000 0.890196
1.000000 1.000000 0.898039
0.011765 0.000000 0.847059
0.003922 0.000000 0.854902
0.200000 0.000000 0.850980
0.807843 0.000000 0.870588
1.000000 0.000000 0.807843
1.000000 0.000000 0.745098
1.000000 0.556863 0.760784
1.000000 0.713725 0.827451
0.003922 0.066667 0.890196
0.000000 0.035294 0.886275
0.325490 0.000000 0.894118
0.870588 0.000000 0.905882
0.992157 0.000000 0.835294
1.000000 0.505882 0.796078
1.000000 0.662745 0.800000
1.000000 0.749020 0.827451
0.000000 0.517647 0.850980
0.015686 0.552941 0.835294
0.556863 0.615686 0.847059
0.831373 0.650980 0.843137
0.996078 0.694118 0.819608
1.000000 0.760784 0.823529
0.996078 0.811765 0.850980
0.992157 0.850980 0.866667
0.227451 0.898039 0.874510
0.525490 0.886275 0.866667
0.713725 0.882353 0.854902
0.850980 0.874510 0.858824
0.964706 0.870588 0.862745
1.000000 0.878431 0.882353
1.000000 0.882353 0.882353
0.996078 0.878431 0.878431
0.666667 0.945098 0.811765
0.690196 0.949020 0.807843
0.764706 0.945098 0.835294
0.862745 0.937255 0.850980
0.929412 0.937255 0.854902
0.996078 0.929412 0.858824
1.000000 0.933333 0.894118
1.000000 0.925490 0.898039
0.819608 0.992157 0.886275
0.839216 0.980392 0.870588
0.850980 0.984314 0.886275
0.886275 0.988235 0.890196
0.933333 0.988235 0.890196
0.984314 0.980392 0.898039
1.000000 0.972549 0.901961
1.000000 0.956863 0.901961
0.870588 1.000000 0.886275
0.866667 0.996078 0.882353
0.878431 0.996078 0.894118
0.898039 1.000000 0.882353
0.929412 1.000000 0.898039
0.960784 1.000000 0.905882
1.000000 0.992157 0.917647
1.000000 0.988235 0.921569
0.925490 0.996078 0.933333
0.901961 1.000000 0.913725
0.913725 0.996078 0.921569
0.917647 1.000000 0.925490
0.933333 1.000000 0.925490
0.964706 1.000000 0.933333
0.976471 1.000000 0.933333
0.996078 1.000000 0.937255
0.003922 0.000000 0.984314
0.003922 0.000000 0.984314
0.007843 0.000000 0.988235
0.611765 0.000000 0.996078
0.984314 0.000000 1.000000
1.000000 0.000000 0.968627
0.992157 0.588235 0.898039
1.000000 0.737255 0.890196
0.000000 0.035294 0.996078
0.000000 0.094118 0.996078
0.239216 0.160784 0.996078
0.729412 0.192157 0.992157
0.996078 0.227451 0.988235
1.000000 0.478431 0.960784
0.992157 0.674510 0.901961
1.000000 0.768627 0.898039
0.313725 0.584314 0.949020
0.443137 0.619608 0.952941
0.611765 0.682353 0.941176
0.792157 0.694118 0.952941
0.952941 0.717647 0.968627
1.000000 0.760784 0.925490
1.000000 0.827451 0.925490
0.992157 0.858824 0.921569
0.627451 0.847059 0.952941
0.705882 0.850980 0.952941
0.784314 0.866667 0.949020
0.878431 0.870588 0.952941
0.956863 0.882353 0.956863
1.000000 0.898039 0.949020
1.000000 0.898039 0.941176
1.000000 0.917647 0.937255
0.686275 0.941176 0.925490
0.713725 0.945098 0.937255
0.796078 0.937255 0.937255
0.874510 0.937255 0.937255
0.945098 0.937255 0.941176
0.992157 0.945098 0.945098
1.000000 0.949020 0.945098
0.996078 0.949020 0.956863
0.835294 0.996078 0.941176
0.858824 0.984314 0.925490
0.890196 0.980392 0.941176
0.913725 0.980392 0.941176
0.960784 0.980392 0.956863
0.984314 0.984314 0.945098
1.000000 0.976471 0.952941
1.000000 0.972549 0.949020
0.886275 0.996078 0.941176
0.894118 1.000000 0.933333
0.913725 1.000000 0.949020
0.933333 0.996078 0.945098
0.949020 0.996078 0.949020
0.972549 0.996078 0.949020
0.996078 0.996078 0.964706
0.996078 0.996078 0.964706
0.952941 1.000000 0.976471
0.933333 1.000000 0.960784
0.937255 1.000000 0.956863
0.960784 1.000000 0.964706
0.960784 1.000000 0.964706
0.972549 1.000000 0.960784
0.988235 1.000000 0.972549
1.000000 1.000000 0.968627
0.000000 0.000000 0.996078
0.003922 0.000000 0.996078
0.000000 0.003922 0.988235
0.560784 0.141176 0.996078
0.862745 0.247059 1.000000
1.000000 0.384314 1.000000
1.000000 0.580392 0.996078
1.000000 0.725490 0.960784
0.000000 0.184314 0.996078
0.000000 0.247059 1.000000
0.415686 0.309804 0.996078
0.705882 0.411765 1.000000
0.901961 0.517647 1.000000
1.000000 0.568627 1.000000
0.988235 0.658824 0.996078
1.000000 0.764706 0.964706
0.545098 0.670588 0.996078
0.596078 0.686275 0.992157
0.701961 0.717647 1.000000
0.800000 0.741176 0.996078
0.894118 0.772549 0.996078
0.992157 0.796078 0.996078
1.000000 0.827451 0.996078
1.000000 0.858824 0.968627
0.752941 0.854902 1.000000
0.784314 0.858824 0.988235
0.831373 0.874510 0.992157
0.886275 0.886275 0.988235
0.933333 0.894118 0.992157
0.988235 0.894118 0.988235
1.000000 0.901961 0.984314
1.000000 0.913725 0.964706
0.784314 0.925490 0.988235
0.807843 0.921569 0.984314
0.858824 0.925490 0.988235
0.898039 0.937255 0.976471
0.945098 0.945098 0.976471
0.976471 0.949020 0.980392
0.996078 0.960784 0.980392
1.000000 0.956863 0.972549
0.862745 0.980392 0.980392
0.866667 0.992157 0.988235
0.898039 0.984314 0.976471
0.929412 0.984314 0.988235
0.960784 0.980392 0.992157
0.980392 0.980392 0.980392
1.000000 0.984314 0.984314
1.000000 0.984314 0.980392
0.909804 1.000000 0.968627
0.913725 0.996078 0.976471
0.921569 0.996078 0.980392
0.952941 1.000000 0.976471
0.972549 1.000000 0.972549
0.980392 1.000000 0.984314
1.000000 0.988235 0.984314
1.000000 0.996078 0.988235
0.952941 1.000000 0.976471
0.952941 0.996078 0.972549
0.960784 1.000000 0.980392
0.972549 0.996078 0.980392
0.980392 1.000000 0.984314
0.980392 1.000000 0.976471
0.996078 1.000000 0.980392
1.000000 1.000000 0.992157
0.007843 0.121569 1.000000
0.000000 0.168627 1.000000
0.211765 0.247059 0.996078
0.600000 0.341176 1.000000
0.803922 0.486275 1.000000
0.945098 0.600000 1.000000
1.000000 0.654902 0.996078
1.000000 0.721569 1.000000
0.003922 0.290196 1.000000
0.341176 0.360784 0.996078
0.533333 0.423529 0.992157
0.690196 0.529412 1.000000
0.839216 0.603922 0.988235
0.952941 0.662745 1.000000
0.992157 0.701961 0.996078
0.996078 0.760784 1.000000
0.670588 0.725490 1.000000
0.690196 0.733333 0.992157
0.745098 0.749020 1.000000
0.811765 0.776471 0.992157
0.882353 0.803922 1.000000
0.956863 0.827451 1.000000
1.000000 0.839216 1.000000
0.996078 0.854902 1.000000
0.819608 0.870588 0.996078
0.839216 0.882353 1.000000
0.858824 0.886275 1.000000
0.890196 0.894118 1.000000
0.925490 0.890196 0.996078
0.964706 0.901961 1.000000
0.996078 0.901961 1.000000
1.000000 0.905882 1.000000
0.854902 0.921569 1.000000
0.870588 0.929412 1.000000
0.898039 0.933333 1.000000
0.921569 0.952941 1.000000
0.956863 0.956863 1.000000
0.980392 0.956863 1.000000
1.000000 0.952941 1.000000
0.996078 0.956863 0.992157
0.890196 0.972549 0.992157
0.898039 0.964706 0.992157
0.925490 0.976471 1.000000
0.941176 0.976471 0.996078
0.960784 0.980392 0.996078
0.984314 0.980392 1.000000
1.000000 0.980392 1.000000
1.000000 0.980392 0.996078
0.925490 0.996078 1.000000
0.917647 0.988235 0.988235
0.937255 1.000000 1.000000
0.960784 0.992157 1.000000
0.976471 1.000000 0.992157
0.984314 1.000000 0.996078
0.996078 0.996078 0.996078
1.000000 0.996078 1.000000
0.956863 0.996078 1.000000
0.956863 1.000000 0.988235
0.964706 1.000000 0.988235
0.976471 1.000000 0.992157
0.980392 0.996078 0.992157
0.996078 0.996078 0.996078
0.996078 0.996078 0.988235
1.000000 0.996078 1.000000
0.000000 0.250980 0.996078
0.003922 0.270588 1.000000
0.360784 0.329412 1.000000
0.592157 0.419608 1.000000
0.752941 0.537255 0.996078
0.878431 0.627451 1.000000
0.972549 0.694118 1.000000
1.000000 0.760784 0.996078
0.003922 0.317647 0.996078
0.403922 0.403922 0.992157
0.537255 0.454902 0.992157
0.654902 0.533333 1.000000
0.780392 0.607843 0.992157
0.886275 0.670588 1.000000
0.968627 0.725490 0.988235
1.000000 0.780392 0.996078
0.721569 0.752941 1.000000
0.729412 0.764706 0.996078
0.764706 0.772549 0.996078
0.815686 0.788235 0.992157
0.858824 0.803922 1.000000
0.917647 0.827451 1.000000
0.968627 0.843137 0.996078
1.000000 0.862745 0.996078
0.831373 0.874510 1.000000
0.858824 0.886275 1.000000
0.862745 0.882353 1.000000
0.882353 0.886275 1.000000
0.905882 0.890196 0.996078
0.933333 0.894118 0.992157
0.972549 0.901961 0.996078
1.000000 0.909804 0.996078
0.917647 0.929412 1.000000
0.909804 0.945098 1.000000
0.925490 0.949020 0.996078
0.941176 0.949020 1.000000
0.952941 0.949020 1.000000
0.968627 0.952941 1.000000
0.996078 0.956863 1.000000
1.000000 0.952941 1.000000
0.909804 0.964706 1.000000
0.917647 0.968627 1.000000
0.933333 0.968627 1.000000
0.952941 0.968627 1.000000
0.968627 0.980392 1.000000
0.984314 0.980392 1.000000
0.992157 0.984314 1.000000
0.988235 0.980392 1.000000
0.941176 0.984314 0.992157
0.949020 0.976471 1.000000
0.952941 0.992157 1.000000
0.972549 0.992157 1.000000
0.976471 0.988235 1.000000
0.992157 0.996078 1.000000
1.000000 1.000000 1.000000
1.000000 1.000000 1.000000
0.960784 1.000000 0.996078
0.964706 0.996078 1.000000
0.968627 1.000000 1.000000
0.980392 1.000000 1.000000
0.980392 0.996078 1.000000
0.996078 1.000000 1.000000
1.000000 0.996078 1.000000
1.000000 1.000000 1.000000
