cube/test.CUBE
#Generated by wwww.onlinelutcreator.com 
LUT_3D_SIZE 32 
0.000000 0.000000 0.000000
0.003922 0.003922 0.003922
0.000000 0.003922 0.000000
0.003922 0.003922 0.000000
0.000000 0.000000 0.000000
0.000000 0.000000 0.007843
0.003922 0.000000 0.000000
0.156863 0.000000 0.000000
0.317647 0.000000 0.000000
0.470588 0.000000 0.003922
0.631373 0.000000 0.000000
0.760784 0.000000 0.003922
0.874510 0.000000 0.003922
0.960784 0.000000 0.000000
0.996078 0.000000 0.000000
0.996078 0.000000 0.000000
0.996078 0.000000 0.000000
0.996078 0.000000 0.000000
1.000000 0.003922 0.003922
0.996078 0.000000 0.000000
0.996078 0.000000 0.000000
0.996078 0.000000 0.007843
0.992157 0.000000 0.000000
0.996078 0.000000 0.000000
0.996078 0.000000 0.000000
0.996078 0.000000 0.000000
1.000000 0.000000 0.094118
0.992157 0.000000 0.180392
0.996078 0.023529 0.211765
1.000000 0.149020 0.270588
1.000000 0.188235 0.274510
0.996078 0.349020 0.333333
0.000000 0.000000 0.000000
0.000000 0.003922 0.000000
0.000000 0.000000 0.000000
0.000000 0.000000 0.000000
0.000000 0.007843 0.003922
0.000000 0.000000 0.000000
0.043137 0.000000 0.000000
0.203922 0.003922 0.000000
0.368627 0.000000 0.000000
0.509804 0.000000 0.000000
0.662745 0.000000 0.000000
0.788235 0.003922 0.003922
0.894118 0.000000 0.000000
0.976471 0.003922 0.003922
0.996078 0.000000 0.000000
0.996078 0.000000 0.007843
0.996078 0.000000 0.000000
0.996078 0.000000 0.000000
0.996078 0.000000 0.007843
0.996078 0.000000 0.000000
0.996078 0.000000 0.007843
0.996078 0.000000 0.000000
0.996078 0.000000 0.000000
0.996078 0.000000 0.000000
0.996078 0.000000 0.000000
1.000000 0.000000 0.043137
0.992157 0.007843 0.145098
0.992157 0.003922 0.196078
1.000000 0.086275 0.231373
0.996078 0.172549 0.278431
1.000000 0.243137 0.325490
1.000000 0.388235 0.352941
0.003922 0.000000 0.000000
0.000000 0.003922 0.000000
0.000000 0.000000 0.007843
0.000000 0.000000 0.000000
0.003922 0.000000 0.000000
0.000000 0.000000 0.000000
0.109804 0.000000 0.000000
0.266667 0.000000 0.003922
0.411765 0.000000 0.000000
0.556863 0.000000 0.000000
0.705882 0.000000 0.000000
0.823529 0.000000 0.003922
0.921569 0.000000 0.003922
0.996078 0.000000 0.000000
1.000000 0.003922 0.000000
0.996078 0.000000 0.000000
0.996078 0.000000 0.000000
0.996078 0.000000 0.000000
0.996078 0.000000 0.000000
0.996078 0.000000 0.000000
0.996078 0.000000 0.000000
0.996078 0.000000 0.007843
1.000000 0.003922 0.003922
0.996078 0.000000 0.007843
0.996078 0.000000 0.000000
1.000000 0.000000 0.101961
1.000000 0.000000 0.156863
1.000000 0.000000 0.192157
0.996078 0.094118 0.235294
0.992157 0.176471 0.270588
1.000000 0.235294 0.313725
1.000000 0.415686 0.380392
0.000000 0.003922 0.000000
0.003922 0.000000 0.000000
0.000000 0.000000 0.000000
0.000000 0.000000 0.007843
0.000000 0.003922 0.000000
0.011765 0.000000 0.000000
0.180392 0.000000 0.000000
0.317647 0.000000 0.003922
0.470588 0.000000 0.000000
0.607843 0.000000 0.007843
0.741176 0.000000 0.000000
0.858824 0.000000 0.000000
0.949020 0.000000 0.000000
0.996078 0.000000 0.000000
0.996078 0.000000 0.000000
0.996078 0.000000 0.000000
0.996078 0.000000 0.007843
0.996078 0.003922 0.000000
0.996078 0.000000 0.000000
1.000000 0.003922 0.011765
0.996078 0.000000 0.000000
1.000000 0.003922 0.003922
1.000000 0.003922 0.003922
0.996078 0.000000 0.000000
1.000000 0.000000 0.031373
0.996078 0.000000 0.133333
1.000000 0.000000 0.188235
1.000000 0.070588 0.203922
0.988235 0.149020 0.243137
1.000000 0.207843 0.282353
1.000000 0.254902 0.313725
0.992157 0.435294 0.388235
0.000000 0.000000 0.000000
0.003922 0.000000 0.000000
0.000000 0.003922 0.007843
0.000000 0.003922 0.000000
0.007843 0.015686 0.003922
0.098039 0.003922 0.000000
0.239216 0.000000 0.000000
0.388235 0.003922 0.007843
0.529412 0.000000 0.000000
0.658824 0.000000 0.000000
0.796078 0.000000 0.000000
0.894118 0.000000 0.003922
0.960784 0.000000 0.000000
0.996078 0.000000 0.000000
0.996078 0.000000 0.000000
0.996078 0.000000 0.007843
0.996078 0.000000 0.000000
0.996078 0.000000 0.000000
0.996078 0.000000 0.007843
0.996078 0.000000 0.000000
0.996078 0.000000 0.000000
0.996078 0.000000 0.000000
1.000000 0.003922 0.003922
0.996078 0.000000 0.000000
0.996078 0.000000 0.094118
1.000000 0.003922 0.145098
1.000000 0.113725 0.207843
0.996078 0.172549 0.223529
1.000000 0.215686 0.266667
1.000000 0.247059 0.298039
1.000000 0.294118 0.329412
0.996078 0.427451 0.407843
0.000000 0.149020 0.003922
0.007843 0.156863 0.000000
0.000000 0.160784 0.003922
0.003922 0.172549 0.000000
0.000000 0.172549 0.003922
0.141176 0.164706 0.000000
0.274510 0.160784 0.000000
0.439216 0.156863 0.007843
0.580392 0.141176 0.000000
0.698039 0.101961 0.007843
0.815686 0.039216 0.000000
0.913725 0.000000 0.000000
0.988235 0.000000 0.007843
0.996078 0.000000 0.000000
0.996078 0.000000 0.000000
0.996078 0.003922 0.000000
0.996078 0.000000 0.000000
0.996078 0.000000 0.000000
0.996078 0.000000 0.007843
0.996078 0.000000 0.000000
1.000000 0.007843 0.000000
0.996078 0.000000 0.000000
1.000000 0.003922 0.003922
1.000000 0.019608 0.039216
0.996078 0.109804 0.125490
1.000000 0.149020 0.180392
1.000000 0.192157 0.223529
1.000000 0.227451 0.254902
1.000000 0.254902 0.282353
1.000000 0.282353 0.313725
0.992157 0.325490 0.337255
1.000000 0.407843 0.415686
0.003922 0.286275 0.000000
0.000000 0.309804 0.000000
0.000000 0.313725 0.000000
0.000000 0.317647 0.003922
0.003922 0.325490 0.003922
0.152941 0.313725 0.003922
0.305882 0.321569 0.000000
0.454902 0.317647 0.000000
0.600000 0.317647 0.000000
0.721569 0.317647 0.007843
0.843137 0.294118 0.000000
0.929412 0.270588 0.000000
0.988235 0.247059 0.000000
0.992157 0.223529 0.000000
0.996078 0.188235 0.000000
1.000000 0.160784 0.000000
1.000000 0.137255 0.000000
1.000000 0.121569 0.000000
1.000000 0.109804 0.011765
0.992157 0.090196 0.000000
1.000000 0.109804 0.000000
1.000000 0.137255 0.003922
0.996078 0.168627 0.000000
1.000000 0.188235 0.101961
1.000000 0.215686 0.160784
1.000000 0.243137 0.207843
0.996078 0.262745 0.243137
1.000000 0.286275 0.282353
0.996078 0.309804 0.290196
1.000000 0.333333 0.325490
1.000000 0.364706 0.356863
1.000000 0.415686 0.439216
0.000000 0.450980 0.000000
0.000000 0.466667 0.007843
0.000000 0.462745 0.000000
0.003922 0.462745 0.003922
0.000000 0.462745 0.000000
0.168627 0.462745 0.000000
0.345098 0.470588 0.000000
0.490196 0.470588 0.007843
0.635294 0.458824 0.000000
0.745098 0.466667 0.011765
0.854902 0.439216 0.000000
0.949020 0.419608 0.000000
1.000000 0.396078 0.003922
1.000000 0.372549 0.000000
0.996078 0.352941 0.003922
0.996078 0.325490 0.003922
1.000000 0.301961 0.000000
0.996078 0.278431 0.003922
0.996078 0.254902 0.003922
1.000000 0.247059 0.000000
1.000000 0.250980 0.007843
0.996078 0.254902 0.000000
0.992157 0.270588 0.035294
0.996078 0.274510 0.133333
1.000000 0.286275 0.192157
0.996078 0.305882 0.215686
0.992157 0.321569 0.250980
0.992157 0.333333 0.282353
1.000000 0.352941 0.305882
1.000000 0.360784 0.325490
0.996078 0.376471 0.341176
0.996078 0.392157 0.360784
0.000000 0.513725 0.011765
0.007843 0.517647 0.000000
0.000000 0.525490 0.000000
0.000000 0.529412 0.011765
0.003922 0.529412 0.000000
0.000000 0.541176 0.000000
0.203922 0.552941 0.000000
0.392157 0.552941 0.003922
0.521569 0.556863 0.000000
0.635294 0.564706 0.000000
0.752941 0.572549 0.000000
0.835294 0.568627 0.000000
0.917647 0.560784 0.000000
0.976471 0.545098 0.000000
1.000000 0.525490 0.003922
0.996078 0.513725 0.003922
1.000000 0.474510 0.003922
1.000000 0.447059 0.007843
1.000000 0.427451 0.000000
1.000000 0.407843 0.000000
1.000000 0.388235 0.007843
1.000000 0.384314 0.000000
1.000000 0.396078 0.003922
1.000000 0.403922 0.137255
0.996078 0.423529 0.231373
1.000000 0.443137 0.286275
1.000000 0.462745 0.321569
1.000000 0.478431 0.372549
1.000000 0.490196 0.407843
1.000000 0.501961 0.427451
0.996078 0.505882 0.427451
1.000000 0.505882 0.470588
0.000000 0.713725 0.003922
0.000000 0.694118 0.003922
0.003922 0.686275 0.000000
0.003922 0.678431 0.000000
0.003922 0.686275 0.000000
0.000000 0.686275 0.007843
0.196078 0.694118 0.000000
0.392157 0.709804 0.000000
0.533333 0.701961 0.003922
0.647059 0.705882 0.003922
0.752941 0.705882 0.000000
0.839216 0.701961 0.003922
0.909804 0.686275 0.000000
0.972549 0.666667 0.000000
1.000000 0.635294 0.000000
1.000000 0.615686 0.000000
1.000000 0.584314 0.003922
1.000000 0.552941 0.000000
1.000000 0.525490 0.003922
0.996078 0.505882 0.000000
0.996078 0.498039 0.000000
1.000000 0.490196 0.003922
1.000000 0.490196 0.113725
1.000000 0.494118 0.227451
1.000000 0.501961 0.286275
0.996078 0.525490 0.329412
1.000000 0.533333 0.396078
1.000000 0.541176 0.423529
1.000000 0.549020 0.443137
0.992157 0.556863 0.447059
1.000000 0.576471 0.474510
0.996078 0.552941 0.537255
0.000000 0.835294 0.003922
0.003922 0.819608 0.003922
0.000000 0.815686 0.007843
0.000000 0.807843 0.000000
0.003922 0.800000 0.000000
0.000000 0.800000 0.000000
0.231373 0.811765 0.003922
0.407843 0.807843 0.000000
0.537255 0.811765 0.000000
0.639216 0.807843 0.007843
0.745098 0.803922 0.000000
0.827451 0.803922 0.000000
0.905882 0.780392 0.000000
0.968627 0.760784 0.007843
0.996078 0.729412 0.003922
1.000000 0.705882 0.000000
1.000000 0.674510 0.000000
1.000000 0.650980 0.015686
1.000000 0.615686 0.007843
1.000000 0.596078 0.000000
0.996078 0.580392 0.000000
1.000000 0.576471 0.062745
1.000000 0.572549 0.200000
0.996078 0.572549 0.290196
1.000000 0.580392 0.337255
0.988235 0.596078 0.392157
1.000000 0.592157 0.415686
1.000000 0.588235 0.439216
1.000000 0.592157 0.454902
1.000000 0.588235 0.462745
1.000000 0.603922 0.486275
1.000000 0.600000 0.584314
0.000000 0.901961 0.000000
0.003922 0.886275 0.000000
0.000000 0.882353 0.003922
0.000000 0.878431 0.000000
0.000000 0.878431 0.000000
0.003922 0.874510 0.000000
0.266667 0.870588 0.000000
0.423529 0.874510 0.000000
0.521569 0.874510 0.003922
0.619608 0.870588 0.003922
0.725490 0.866667 0.003922
0.800000 0.862745 0.000000
0.886275 0.850980 0.007843
0.964706 0.831373 0.003922
0.992157 0.803922 0.000000
1.000000 0.784314 0.003922
1.000000 0.752941 0.003922
1.000000 0.725490 0.003922
0.996078 0.694118 0.000000
0.996078 0.674510 0.007843
1.000000 0.666667 0.003922
0.996078 0.650980 0.156863
0.996078 0.643137 0.266667
0.996078 0.639216 0.329412
1.000000 0.643137 0.380392
0.992157 0.643137 0.407843
1.000000 0.639216 0.439216
1.000000 0.639216 0.454902
1.000000 0.639216 0.478431
1.000000 0.631373 0.498039
1.000000 0.643137 0.521569
1.000000 0.643137 0.623529
0.000000 0.941176 0.011765
0.007843 0.925490 0.000000
0.000000 0.925490 0.000000
0.007843 0.917647 0.000000
0.000000 0.913725 0.003922
0.094118 0.909804 0.000000
0.290196 0.917647 0.007843
0.400000 0.921569 0.000000
0.509804 0.917647 0.003922
0.600000 0.909804 0.003922
0.698039 0.909804 0.000000
0.776471 0.905882 0.000000
0.862745 0.898039 0.000000
0.949020 0.878431 0.000000
0.992157 0.866667 0.000000
1.000000 0.843137 0.000000
1.000000 0.819608 0.003922
1.000000 0.792157 0.000000
0.996078 0.760784 0.000000
0.996078 0.741176 0.003922
0.996078 0.733333 0.047059
1.000000 0.709804 0.219608
0.992157 0.705882 0.301961
0.992157 0.694118 0.356863
1.000000 0.698039 0.415686
0.996078 0.682353 0.435294
1.000000 0.674510 0.462745
1.000000 0.678431 0.494118
1.000000 0.674510 0.509804
0.996078 0.678431 0.509804
0.992157 0.682353 0.521569
1.000000 0.666667 0.627451
0.000000 0.960784 0.000000
0.000000 0.949020 0.000000
0.000000 0.945098 0.000000
0.000000 0.949020 0.007843
0.003922 0.941176 0.000000
0.192157 0.941176 0.015686
0.313725 0.937255 0.003922
0.403922 0.941176 0.000000
0.490196 0.941176 0.000000
0.580392 0.933333 0.000000
0.670588 0.933333 0.000000
0.749020 0.933333 0.000000
0.831373 0.929412 0.000000
0.909804 0.917647 0.000000
0.968627 0.913725 0.007843
1.000000 0.886275 0.000000
1.000000 0.866667 0.000000
1.000000 0.847059 0.007843
1.000000 0.823529 0.000000
0.992157 0.803922 0.003922
0.992157 0.784314 0.133333
1.000000 0.772549 0.262745
1.000000 0.752941 0.337255
0.996078 0.741176 0.372549
0.996078 0.733333 0.415686
1.000000 0.729412 0.447059
0.996078 0.713725 0.482353
1.000000 0.717647 0.509804
1.000000 0.709804 0.517647
0.996078 0.709804 0.541176
0.992157 0.705882 0.545098
1.000000 0.698039 0.619608
0.000000 0.984314 0.000000
0.000000 0.972549 0.003922
0.007843 0.972549 0.000000
0.137255 0.960784 0.000000
0.211765 0.968627 0.000000
0.278431 0.968627 0.003922
0.352941 0.964706 0.000000
0.423529 0.964706 0.000000
0.498039 0.968627 0.007843
0.568627 0.968627 0.000000
0.643137 0.964706 0.000000
0.721569 0.956863 0.000000
0.796078 0.956863 0.007843
0.866667 0.949020 0.003922
0.941176 0.945098 0.000000
1.000000 0.933333 0.000000
0.996078 0.917647 0.000000
1.000000 0.898039 0.000000
1.000000 0.870588 0.000000
0.996078 0.850980 0.015686
1.000000 0.827451 0.184314
1.000000 0.811765 0.278431
0.996078 0.796078 0.333333
0.996078 0.784314 0.392157
0.996078 0.772549 0.423529
1.000000 0.760784 0.458824
1.000000 0.756863 0.486275
1.000000 0.752941 0.513725
1.000000 0.745098 0.525490
1.000000 0.741176 0.552941
0.988235 0.733333 0.568627
0.992157 0.729412 0.615686
0.000000 0.996078 0.000000
0.266667 0.984314 0.011765
0.266667 0.988235 0.000000
0.270588 0.976471 0.007843
0.301961 0.980392 0.007843
0.337255 0.976471 0.000000
0.396078 0.980392 0.000000
0.458824 0.976471 0.000000
0.505882 0.988235 0.000000
0.564706 0.984314 0.000000
0.627451 0.984314 0.000000
0.698039 0.980392 0.000000
0.772549 0.976471 0.003922
0.835294 0.968627 0.000000
0.894118 0.968627 0.000000
0.960784 0.960784 0.003922
0.992157 0.952941 0.000000
0.996078 0.937255 0.000000
1.000000 0.913725 0.000000
1.000000 0.890196 0.086275
1.000000 0.866667 0.207843
1.000000 0.850980 0.274510
1.000000 0.835294 0.333333
1.000000 0.815686 0.384314
0.996078 0.807843 0.423529
1.000000 0.796078 0.458824
1.000000 0.788235 0.498039
1.000000 0.776471 0.525490
0.996078 0.764706 0.529412
0.996078 0.764706 0.537255
1.000000 0.756863 0.556863
1.000000 0.749020 0.576471
0.007843 0.968627 0.007843
0.000000 0.972549 0.000000
0.011765 0.976471 0.007843
0.078431 0.976471 0.000000
0.168627 0.968627 0.000000
0.243137 0.972549 0.000000
0.305882 0.972549 0.003922
0.372549 0.976471 0.003922
0.443137 0.976471 0.003922
0.498039 0.976471 0.003922
0.564706 0.980392 0.007843
0.627451 0.976471 0.000000
0.698039 0.976471 0.000000
0.768627 0.972549 0.000000
0.831373 0.964706 0.000000
0.894118 0.964706 0.000000
0.945098 0.960784 0.000000
0.984314 0.949020 0.000000
1.000000 0.929412 0.000000
1.000000 0.909804 0.007843
0.996078 0.898039 0.058824
1.000000 0.878431 0.207843
1.000000 0.866667 0.294118
1.000000 0.858824 0.376471
0.996078 0.843137 0.431373
1.000000 0.827451 0.494118
0.996078 0.827451 0.521569
1.000000 0.811765 0.552941
1.000000 0.815686 0.596078
1.000000 0.803922 0.611765
0.996078 0.796078 0.611765
0.996078 0.784314 0.643137
0.000000 1.000000 0.184314
0.278431 0.992157 0.180392
0.250980 0.992157 0.113725
0.258824 0.988235 0.070588
0.282353 0.992157 0.062745
0.333333 0.988235 0.094118
0.360784 0.988235 0.117647
0.423529 0.992157 0.141176
0.470588 0.996078 0.168627
0.513725 0.992157 0.180392
0.568627 0.992157 0.176471
0.627451 0.988235 0.168627
0.694118 0.984314 0.164706
0.749020 0.984314 0.152941
0.807843 0.984314 0.149020
0.858824 0.980392 0.137255
0.921569 0.976471 0.125490
0.968627 0.972549 0.117647
1.000000 0.960784 0.129412
1.000000 0.945098 0.172549
0.996078 0.929412 0.231373
0.996078 0.917647 0.286275
1.000000 0.901961 0.364706
1.000000 0.890196 0.419608
1.000000 0.874510 0.482353
1.000000 0.866667 0.525490
1.000000 0.858824 0.568627
1.000000 0.850980 0.588235
0.996078 0.831373 0.596078
1.000000 0.831373 0.623529
1.000000 0.835294 0.647059
0.992157 0.815686 0.662745
0.239216 1.000000 0.400000
0.407843 0.996078 0.403922
0.400000 0.996078 0.368627
0.403922 1.000000 0.360784
0.411765 0.996078 0.352941
0.439216 0.996078 0.360784
0.462745 0.996078 0.360784
0.490196 1.000000 0.372549
0.525490 1.000000 0.384314
0.564706 1.000000 0.396078
0.596078 1.000000 0.396078
0.650980 1.000000 0.396078
0.698039 1.000000 0.388235
0.745098 0.996078 0.384314
0.792157 1.000000 0.384314
0.843137 1.000000 0.376471
0.890196 0.992157 0.360784
0.933333 0.992157 0.345098
0.984314 0.988235 0.349020
1.000000 0.976471 0.349020
1.000000 0.964706 0.349020
0.996078 0.945098 0.392157
1.000000 0.933333 0.415686
1.000000 0.921569 0.470588
1.000000 0.901961 0.521569
1.000000 0.898039 0.568627
0.996078 0.882353 0.576471
0.988235 0.870588 0.588235
1.000000 0.862745 0.603922
1.000000 0.850980 0.635294
1.000000 0.847059 0.647059
0.992157 0.839216 0.678431
0.411765 0.996078 0.525490
0.505882 0.996078 0.525490
0.486275 0.996078 0.501961
0.478431 1.000000 0.501961
0.494118 1.000000 0.494118
0.513725 1.000000 0.501961
0.525490 1.000000 0.494118
0.537255 1.000000 0.517647
0.584314 1.000000 0.513725
0.607843 1.000000 0.521569
0.631373 1.000000 0.521569
0.678431 0.996078 0.521569
0.690196 1.000000 0.521569
0.749020 1.000000 0.521569
0.788235 1.000000 0.521569
0.819608 1.000000 0.513725
0.878431 1.000000 0.501961
0.909804 1.000000 0.482353
0.949020 1.000000 0.482353
0.988235 0.996078 0.462745
1.000000 0.984314 0.458824
1.000000 0.972549 0.474510
1.000000 0.960784 0.498039
1.000000 0.952941 0.513725
0.996078 0.941176 0.560784
1.000000 0.925490 0.568627
0.996078 0.909804 0.576471
1.000000 0.894118 0.603922
1.000000 0.886275 0.611765
0.992157 0.874510 0.639216
0.992157 0.870588 0.658824
1.000000 0.862745 0.698039
0.509804 1.000000 0.603922
0.568627 1.000000 0.603922
0.564706 1.000000 0.596078
0.556863 1.000000 0.600000
0.560784 0.996078 0.592157
0.580392 1.000000 0.596078
0.592157 0.996078 0.584314
0.615686 1.000000 0.603922
0.627451 1.000000 0.607843
0.650980 0.996078 0.603922
0.674510 0.996078 0.603922
0.694118 1.000000 0.611765
0.733333 1.000000 0.611765
0.760784 1.000000 0.596078
0.796078 1.000000 0.596078
0.819608 0.996078 0.584314
0.858824 1.000000 0.584314
0.890196 0.996078 0.576471
0.933333 1.000000 0.572549
0.968627 1.000000 0.560784
0.996078 0.996078 0.549020
1.000000 0.988235 0.556863
1.000000 0.984314 0.552941
1.000000 0.976471 0.568627
1.000000 0.960784 0.588235
1.000000 0.949020 0.603922
1.000000 0.929412 0.600000
0.992157 0.917647 0.615686
0.992157 0.909804 0.647059
0.996078 0.901961 0.658824
0.996078 0.890196 0.682353
0.996078 0.886275 0.701961
0.572549 1.000000 0.643137
0.627451 0.996078 0.650980
0.627451 1.000000 0.647059
0.623529 1.000000 0.647059
0.643137 0.996078 0.650980
0.631373 1.000000 0.643137
0.647059 0.996078 0.635294
0.662745 1.000000 0.643137
0.674510 1.000000 0.654902
0.686275 1.000000 0.658824
0.701961 1.000000 0.654902
0.725490 1.000000 0.654902
0.741176 1.000000 0.654902
0.768627 0.996078 0.654902
0.803922 1.000000 0.658824
0.823529 0.996078 0.662745
0.858824 1.000000 0.654902
0.878431 0.996078 0.643137
0.909804 1.000000 0.635294
0.945098 1.000000 0.627451
0.972549 1.000000 0.615686
1.000000 1.000000 0.615686
1.000000 0.996078 0.592157
1.000000 0.988235 0.607843
1.000000 0.980392 0.611765
1.000000 0.968627 0.611765
1.000000 0.960784 0.639216
0.992157 0.937255 0.643137
1.000000 0.933333 0.643137
1.000000 0.917647 0.670588
1.000000 0.917647 0.701961
0.996078 0.901961 0.721569
0.635294 1.000000 0.686275
0.682353 1.000000 0.701961
0.674510 1.000000 0.694118
0.682353 1.000000 0.690196
0.670588 1.000000 0.686275
0.678431 1.000000 0.678431
0.690196 1.000000 0.682353
0.705882 0.996078 0.686275
0.705882 1.000000 0.678431
0.717647 1.000000 0.686275
0.733333 0.996078 0.686275
0.749020 1.000000 0.694118
0.764706 0.992157 0.690196
0.788235 1.000000 0.694118
0.807843 0.996078 0.698039
0.819608 1.000000 0.705882
0.850980 1.000000 0.698039
0.874510 1.000000 0.694118
0.894118 1.000000 0.690196
0.921569 0.996078 0.674510
0.956863 1.000000 0.682353
0.980392 0.996078 0.662745
1.000000 1.000000 0.662745
1.000000 1.000000 0.647059
0.996078 0.996078 0.643137
0.996078 0.988235 0.654902
1.000000 0.972549 0.647059
1.000000 0.952941 0.654902
0.992157 0.952941 0.674510
0.996078 0.941176 0.701961
1.000000 0.921569 0.705882
1.000000 0.917647 0.725490
0.678431 1.000000 0.709804
0.713725 1.000000 0.713725
0.701961 1.000000 0.717647
0.698039 1.000000 0.717647
0.701961 1.000000 0.713725
0.713725 1.000000 0.713725
0.717647 0.996078 0.721569
0.721569 1.000000 0.717647
0.737255 1.000000 0.721569
0.741176 1.000000 0.721569
0.760784 1.000000 0.725490
0.772549 0.996078 0.725490
0.780392 0.996078 0.729412
0.803922 1.000000 0.733333
0.823529 1.000000 0.729412
0.839216 1.000000 0.733333
0.854902 1.000000 0.729412
0.874510 1.000000 0.733333
0.894118 1.000000 0.713725
0.913725 1.000000 0.713725
0.929412 0.996078 0.717647
0.956863 0.996078 0.709804
0.984314 1.000000 0.690196
1.000000 1.000000 0.686275
0.996078 1.000000 0.674510
1.000000 0.996078 0.674510
1.000000 0.988235 0.670588
1.000000 0.976471 0.670588
0.996078 0.964706 0.678431
1.000000 0.956863 0.698039
1.000000 0.945098 0.713725
0.992157 0.933333 0.717647
0.768627 0.996078 0.756863
0.760784 0.996078 0.752941
0.756863 1.000000 0.752941
0.764706 1.000000 0.764706
0.768627 1.000000 0.749020
0.760784 1.000000 0.768627
0.768627 1.000000 0.768627
0.756863 1.000000 0.752941
0.760784 1.000000 0.768627
0.756863 0.996078 0.764706
0.741176 1.000000 0.760784
0.745098 1.000000 0.772549
0.760784 0.996078 0.784314
0.760784 0.996078 0.784314
0.768627 1.000000 0.780392
0.792157 1.000000 0.780392
0.807843 0.996078 0.792157
0.827451 1.000000 0.788235
0.847059 1.000000 0.792157
0.878431 0.996078 0.800000
0.894118 1.000000 0.776471
0.921569 1.000000 0.792157
0.945098 1.000000 0.792157
0.964706 1.000000 0.792157
0.988235 1.000000 0.792157
1.000000 1.000000 0.776471
1.000000 1.000000 0.780392
1.000000 1.000000 0.788235
0.996078 0.980392 0.796078
0.992157 0.976471 0.792157
1.000000 0.964706 0.811765
1.000000 0.945098 0.811765
0.749020 1.000000 0.796078
0.780392 1.000000 0.815686
0.776471 1.000000 0.784314
0.776471 1.000000 0.792157
0.780392 0.996078 0.780392
0.772549 0.996078 0.788235
0.776471 1.000000 0.792157
0.768627 1.000000 0.788235
0.768627 0.996078 0.796078
0.768627 0.996078 0.800000
0.760784 0.996078 0.796078
0.764706 1.000000 0.796078
0.772549 1.000000 0.803922
0.776471 1.000000 0.815686
0.780392 1.000000 0.807843
0.807843 0.996078 0.807843
0.819608 1.000000 0.807843
0.831373 1.000000 0.811765
0.854902 1.000000 0.827451
0.874510 0.996078 0.823529
0.894118 1.000000 0.823529
0.913725 1.000000 0.815686
0.929412 1.000000 0.811765
0.949020 1.000000 0.819608
0.968627 1.000000 0.811765
0.988235 1.000000 0.807843
1.000000 0.996078 0.807843
1.000000 1.000000 0.811765
1.000000 0.992157 0.815686
1.000000 0.988235 0.819608
0.988235 0.976471 0.815686
1.000000 0.968627 0.823529
0.776471 1.000000 0.823529
0.796078 1.000000 0.823529
0.803922 0.996078 0.819608
0.788235 1.000000 0.807843
0.780392 1.000000 0.807843
0.788235 0.996078 0.815686
0.792157 0.996078 0.807843
0.776471 1.000000 0.807843
0.772549 1.000000 0.811765
0.776471 1.000000 0.815686
0.776471 0.996078 0.811765
0.780392 1.000000 0.819608
0.796078 1.000000 0.819608
0.784314 1.000000 0.827451
0.800000 1.000000 0.823529
0.819608 0.996078 0.827451
0.823529 1.000000 0.839216
0.839216 1.000000 0.827451
0.854902 1.000000 0.831373
0.874510 1.000000 0.827451
0.894118 1.000000 0.854902
0.913725 1.000000 0.831373
0.933333 1.000000 0.835294
0.941176 1.000000 0.827451
0.964706 1.000000 0.823529
0.984314 0.992157 0.835294
0.996078 1.000000 0.827451
0.996078 1.000000 0.819608
1.000000 1.000000 0.811765
0.992157 0.996078 0.831373
1.000000 0.992157 0.839216
1.000000 0.976471 0.835294
0.796078 1.000000 0.839216
0.811765 1.000000 0.835294
0.803922 1.000000 0.835294
0.796078 0.996078 0.827451
0.803922 0.996078 0.811765
0.803922 0.996078 0.819608
0.796078 1.000000 0.815686
0.796078 1.000000 0.831373
0.792157 1.000000 0.827451
0.792157 1.000000 0.835294
0.796078 0.996078 0.835294
0.800000 1.000000 0.831373
0.811765 1.000000 0.835294
0.811765 1.000000 0.843137
0.819608 1.000000 0.847059
0.827451 1.000000 0.843137
0.839216 1.000000 0.843137
0.843137 1.000000 0.831373
0.858824 1.000000 0.843137
0.878431 1.000000 0.839216
0.898039 1.000000 0.847059
0.917647 1.000000 0.847059
