iCamera/Lut/JS - Deep Green.cube
LUT_3D_SIZE 16
0.058489 0.060904 0.061208
0.074037 0.060675 0.061288
0.130339 0.054934 0.056851
0.209221 0.044133 0.048296
0.296602 0.007655 0.027966
0.385809 -0.047971 -0.042255
0.474667 -0.068505 -0.064942
0.559176 -0.084135 -0.081445
0.636498 -0.094723 -0.092486
0.707028 -0.097727 -0.095686
0.771953 -0.091786 -0.089683
0.834389 -0.092310 -0.090346
0.891943 -0.099968 -0.098343
0.939765 -0.106232 -0.104863
0.982219 -0.112323 -0.111079
1.017460 -0.111572 -0.112246
0.047731 0.068609 0.050652
0.064660 0.070327 0.052604
0.123496 0.074758 0.052528
0.206628 0.076470 0.044684
0.295771 0.072745 0.015280
0.385392 0.062394 -0.047054
0.474432 0.037489 -0.068035
0.559223 -0.048517 -0.084446
0.636816 -0.069848 -0.095954
0.707911 -0.079194 -0.101559
0.772981 -0.073492 -0.096669
0.834431 -0.068541 -0.092380
0.891955 -0.080119 -0.099592
0.939698 -0.089719 -0.105947
0.982339 -0.098692 -0.111980
1.017449 -0.099241 -0.112485
0.035521 0.111184 0.038545
0.051814 0.111548 0.039342
0.109676 0.121797 0.040544
0.196879 0.140691 0.027739
0.291322 0.151952 -0.037519
0.382901 0.155558 -0.058846
0.472745 0.154539 -0.076164
0.558279 0.149456 -0.091367
0.636514 0.141435 -0.103012
0.708751 0.132878 -0.110650
0.774830 0.128780 -0.110536
0.835566 0.130416 -0.102493
0.891662 0.126449 -0.101490
0.939614 0.115382 -0.107592
0.981999 0.100441 -0.113346
1.017402 0.087490 -0.113711
0.026499 0.184182 0.031709
0.054627 0.177966 0.037501
0.106396 0.191195 0.018267
0.187340 0.205982 -0.038767
0.283480 0.225307 -0.059565
0.379052 0.237005 -0.075765
0.470156 0.241422 -0.089828
0.556388 0.240681 -0.102768
0.635303 0.236043 -0.113238
0.708221 0.229774 -0.120571
0.775541 0.223814 -0.123300
0.836723 0.220743 -0.116456
0.891868 0.217492 -0.108358
0.939304 0.209297 -0.110873
0.981560 0.197502 -0.116118
1.017303 0.183800 -0.116180
-0.031272 0.271915 -0.032168
0.067832 0.260043 0.030214
0.106044 0.267899 -0.027328
0.183922 0.286137 -0.059970
0.277267 0.301178 -0.079251
0.372943 0.314802 -0.094077
0.466921 0.324035 -0.106911
0.553871 0.325849 -0.117769
0.633378 0.322497 -0.126335
0.706673 0.316663 -0.132401
0.774928 0.310063 -0.135275
0.837016 0.304377 -0.129825
0.892127 0.298900 -0.119789
0.938885 0.290467 -0.115994
0.980998 0.277501 -0.120396
1.017143 0.260433 -0.119981
-0.047267 0.363695 -0.052679
0.075073 0.349523 0.032256
0.118526 0.351340 0.016867
0.176457 0.364432 -0.061527
0.270572 0.383602 -0.093156
0.369306 0.396848 -0.112821
0.461992 0.404414 -0.125297
0.550827 0.408672 -0.134866
0.630813 0.406031 -0.141295
0.704631 0.400171 -0.145574
0.773358 0.393011 -0.147166
0.836232 0.385639 -0.141498
0.891965 0.378028 -0.131017
0.938567 0.367725 -0.124096
0.980308 0.353069 -0.126107
1.016902 0.332364 -0.125092
-0.040380 0.454588 -0.052545
0.090675 0.440708 0.057194
0.140475 0.439708 0.055360
0.178476 0.446047 -0.033661
0.257898 0.461374 -0.090038
0.360261 0.478844 -0.123978
0.459906 0.489119 -0.142981
0.546778 0.490057 -0.151719
0.627826 0.487900 -0.156492
0.702058 0.481748 -0.158744
0.771121 0.473958 -0.157896
0.834365 0.465395 -0.150606
0.890762 0.455793 -0.140108
0.937905 0.443395 -0.132764
0.979545 0.426481 -0.133135
1.016577 0.402159 -0.131432
0.074604 0.540319 0.066417
0.121146 0.527787 0.100596
0.165610 0.526388 0.094700
0.191266 0.528441 0.079929
0.250218 0.536859 -0.036791
0.343083 0.552821 -0.112252
0.447793 0.567254 -0.148130
0.544666 0.574294 -0.164667
0.624299 0.568680 -0.169366
0.699211 0.562162 -0.169291
0.768133 0.553581 -0.164384
0.831981 0.543836 -0.155687
0.889070 0.532482 -0.146197
0.936892 0.518011 -0.140744
0.978630 0.498693 -0.141320
1.016166 0.470701 -0.138840
0.128053 0.619249 0.125259
0.162933 0.608167 0.151478
0.191508 0.607002 0.146889
0.211248 0.607816 0.135116
0.254715 0.611601 0.114585
0.328939 0.621885 0.037124
0.427750 0.636160 -0.123209
0.529234 0.646589 -0.158600
0.622050 0.651156 -0.169903
0.695628 0.641656 -0.169643
0.765165 0.632218 -0.163783
0.829454 0.621292 -0.156350
0.887371 0.608280 -0.150709
0.935799 0.591756 -0.149675
0.977666 0.569911 -0.150437
1.015655 0.538412 -0.147171
0.147598 0.694518 0.144436
0.185851 0.684981 0.175992
0.215267 0.683592 0.180364
0.233072 0.683587 0.179286
0.268755 0.684863 0.172667
0.326314 0.690111 0.151952
0.410729 0.700564 0.093407
0.509664 0.711814 -0.108652
0.605855 0.718983 -0.148550
0.694420 0.722300 -0.159196
0.762859 0.709914 -0.160041
0.827453 0.697728 -0.158937
0.885941 0.683288 -0.159990
0.934703 0.664870 -0.160563
0.976628 0.640702 -0.160366
1.015038 0.605579 -0.156271
0.164504 0.766543 0.160829
0.204917 0.758666 0.195620
0.233546 0.757611 0.200285
0.250682 0.757663 0.200030
0.281712 0.757920 0.199287
0.329744 0.759835 0.192462
0.399530 0.765627 0.166265
0.489660 0.774396 0.101922
0.586035 0.782405 -0.111124
0.677359 0.786905 -0.154412
0.762544 0.789287 -0.169626
0.826287 0.773935 -0.171894
0.884704 0.757669 -0.172387
0.933519 0.737503 -0.172042
0.975652 0.710935 -0.170932
1.014316 0.672189 -0.165995
0.180748 0.834489 0.176634
0.223362 0.828537 0.214459
0.249035 0.827739 0.219395
0.267955 0.827769 0.219086
0.294371 0.827750 0.218983
0.335609 0.828263 0.216854
0.393386 0.830827 0.203402
0.471523 0.836166 0.164099
0.563405 0.842659 0.066788
0.656675 0.847696 -0.138527
0.743797 0.850256 -0.173078
0.826390 0.852229 -0.185184
0.883596 0.832476 -0.185463
0.932261 0.809704 -0.184139
0.974179 0.780709 -0.182036
1.013482 0.738545 -0.176249
0.196107 0.896790 0.191612
0.240815 0.892610 0.232220
0.264004 0.892074 0.237437
0.284715 0.892243 0.237156
0.306738 0.892144 0.237028
0.342794 0.892301 0.236880
0.392176 0.893040 0.231080
0.458208 0.895527 0.207913
0.540981 0.899444 0.154646
0.631858 0.903511 -0.073766
0.721031 0.906258 -0.161475
0.804096 0.907434 -0.189018
0.884340 0.909410 -0.198754
0.931311 0.882468 -0.196812
0.972942 0.850246 -0.193609
1.012535 0.804454 -0.186935
0.209735 0.950579 0.204929
0.256288 0.948115 0.247939
0.277345 0.947812 0.253432
0.299749 0.947829 0.253111
0.317584 0.947862 0.252901
0.348820 0.947901 0.253224
0.391993 0.948192 0.251721
0.448022 0.948980 0.240103
0.519721 0.950781 0.206258
0.603702 0.952958 0.137839
0.691426 0.954863 -0.114643
0.776094 0.955728 -0.178738
0.855164 0.956345 -0.201526
0.932774 0.958749 -0.210094
0.971990 0.921017 -0.205883
1.011469 0.870468 -0.198064
0.213070 0.988057 0.208068
0.260908 0.986843 0.252729
0.280740 0.986635 0.258555
0.305883 0.986642 0.258372
0.321177 0.986817 0.258072
0.349298 0.986619 0.258325
0.388406 0.986881 0.258436
0.437890 0.987114 0.253537
0.499642 0.987711 0.233516
0.574264 0.988507 0.188983
0.656508 0.989353 0.096642
0.739883 0.989831 -0.146744
0.819088 0.989904 -0.193617
0.893897 0.990133 -0.211418
0.974887 0.993548 -0.218900
1.011244 0.937966 -0.209950
0.173068 1.033351 0.166272
0.224139 1.032510 0.215400
0.244251 1.032401 0.221843
0.270732 1.032440 0.221968
0.296958 1.032450 0.221804
0.327877 1.032442 0.221872
0.368112 1.032449 0.222102
0.415860 1.032523 0.220177
0.471102 1.032779 0.208045
0.535387 1.033303 0.173395
0.607649 1.033860 0.094110
0.684092 1.034282 -0.138253
0.760293 1.034410 -0.191024
0.833978 1.034233 -0.214511
0.903853 1.034727 -0.222924
1.010136 1.035745 -0.227645
0.092887 -0.347600 0.108006
0.096120 -0.347815 0.101792
0.136364 -0.349001 0.101196
0.204945 -0.349912 0.103099
0.286468 -0.350763 0.102875
0.372329 -0.351778 0.100104
0.459407 -0.353057 0.094607
0.542949 -0.354098 0.086170
0.621168 -0.354478 0.077179
0.694695 -0.353314 0.072776
0.765884 -0.352328 0.071770
0.835175 -0.353878 0.059575
0.896704 -0.355998 0.025683
0.945491 -0.357773 -0.051448
0.986209 -0.359179 -0.071212
1.019090 -0.357597 -0.062909
0.052323 0.072906 0.073826
0.067012 0.071947 0.073108
0.126453 0.069112 0.072511
0.214825 0.058452 0.066408
0.305485 0.036809 0.054099
0.394359 -0.041845 0.022647
0.481930 -0.066443 -0.052439
0.564906 -0.083006 -0.073145
0.641137 -0.093712 -0.085653
0.711030 -0.096365 -0.088920
0.775848 -0.090200 -0.082349
0.838423 -0.091389 -0.084080
0.896017 -0.099638 -0.093582
0.943675 -0.106271 -0.101175
0.990001 -0.113826 -0.109365
1.017076 -0.102773 -0.104266
0.037510 0.115354 0.061791
0.045653 0.115320 0.053500
0.109972 0.122251 0.055445
0.201914 0.138855 0.049179
0.299296 0.147130 0.017924
0.391838 0.147910 -0.049983
0.481357 0.144339 -0.071295
0.565953 0.136856 -0.088124
0.643308 0.126851 -0.100411
0.714682 0.116771 -0.108168
0.779804 0.113227 -0.107011
0.839848 0.115758 -0.098773
0.895884 0.110195 -0.099660
0.943160 0.097623 -0.105900
0.989460 0.077648 -0.112866
1.016904 0.082254 -0.105746
0.030674 0.184807 0.061577
0.040571 0.180062 0.051052
0.101283 0.191689 0.041474
0.186759 0.205864 -0.012465
0.286627 0.224966 -0.051461
0.384324 0.235544 -0.070941
0.476065 0.238637 -0.086505
0.562103 0.236705 -0.100289
0.640701 0.231182 -0.111250
0.713221 0.224278 -0.118831
0.780019 0.218001 -0.121412
0.840754 0.214894 -0.114160
0.895578 0.211613 -0.106149
0.942628 0.203196 -0.109262
0.988565 0.190784 -0.115634
1.016841 0.182008 -0.108464
-0.024092 0.271680 0.070735
0.036618 0.261458 0.047655
0.100393 0.268441 0.027185
0.180486 0.286081 -0.051927
0.276809 0.301047 -0.074683
0.375009 0.314807 -0.091056
0.470239 0.323468 -0.104636
0.557625 0.324557 -0.115938
0.637204 0.320523 -0.124824
0.710528 0.314198 -0.131096
0.778559 0.307257 -0.134073
0.840482 0.301373 -0.128511
0.895460 0.295841 -0.118227
0.941936 0.287337 -0.114489
0.987317 0.274102 -0.119925
1.016713 0.259327 -0.112640
-0.044346 0.363456 0.063912
0.044775 0.350993 0.047229
0.114855 0.352259 0.037191
0.172289 0.364591 -0.053825
0.268315 0.383559 -0.089505
0.369181 0.396914 -0.110516
0.463432 0.404536 -0.123647
0.553062 0.408432 -0.133566
0.633437 0.405260 -0.140215
0.707570 0.399056 -0.144658
0.776366 0.391610 -0.146432
0.839115 0.384074 -0.140862
0.894765 0.376185 -0.130203
0.941183 0.365998 -0.122950
0.985791 0.351144 -0.125669
1.016526 0.331549 -0.118203
-0.044607 0.454599 0.061746
0.069857 0.442044 0.066358
0.138510 0.440735 0.061533
0.175035 0.446504 0.005029
0.255040 0.461587 -0.086316
0.358904 0.479028 -0.122006
0.459788 0.489208 -0.141723
0.547853 0.490170 -0.150850
0.629518 0.487796 -0.155836
0.704022 0.481377 -0.158244
0.773320 0.473298 -0.157685
0.836847 0.464617 -0.150513
0.893232 0.454893 -0.139809
0.940091 0.442449 -0.132001
0.984171 0.425438 -0.132743
1.016265 0.401543 -0.125037
0.058822 0.540604 0.086456
0.112249 0.528673 0.109456
0.159180 0.527322 0.097575
0.188571 0.529242 0.082979
0.247558 0.537372 -0.024199
0.341102 0.553081 -0.110150
0.446857 0.567477 -0.147094
0.544671 0.574408 -0.164156
0.625028 0.568814 -0.169102
0.700298 0.561981 -0.169374
0.769771 0.553412 -0.164767
0.833806 0.543534 -0.156058
0.891108 0.532119 -0.146200
0.938671 0.517542 -0.140148
0.982526 0.498169 -0.140950
1.015914 0.470270 -0.132954
0.122122 0.619468 0.134895
0.156937 0.609005 0.155938
0.189034 0.607799 0.148861
0.208949 0.608506 0.136117
0.252300 0.612174 0.115537
0.326619 0.622287 0.042503
0.426199 0.636302 -0.122586
0.528698 0.646758 -0.158812
0.622196 0.651337 -0.170559
0.696415 0.641800 -0.170403
0.766034 0.632131 -0.164548
0.830710 0.621207 -0.156806
0.888806 0.608197 -0.150531
0.937155 0.591544 -0.148820
0.980653 0.569819 -0.150105
1.015450 0.538143 -0.141778
0.148011 0.694383 0.157248
0.179658 0.685851 0.177948
0.212543 0.684329 0.181258
0.231211 0.684468 0.180203
0.266737 0.685524 0.173396
0.324281 0.690543 0.152823
0.409010 0.700980 0.094594
0.508561 0.712128 -0.108739
0.605456 0.719107 -0.149146
0.694382 0.722314 -0.159634
0.763202 0.710011 -0.160193
0.828202 0.697711 -0.158486
0.886952 0.683255 -0.159219
0.935712 0.664826 -0.159798
0.978931 0.640712 -0.160072
1.014884 0.605253 -0.151320
0.164808 0.766438 0.171584
0.199814 0.759392 0.197329
0.228670 0.758201 0.200982
0.249090 0.758240 0.200783
0.279994 0.758497 0.200127
0.328057 0.760219 0.193542
0.398006 0.765890 0.167882
0.488437 0.774601 0.105000
0.585363 0.782479 -0.108936
0.677130 0.787071 -0.153384
0.762494 0.789349 -0.168871
0.826680 0.774062 -0.171199
0.885282 0.757759 -0.171717
0.934355 0.737464 -0.171429
0.977093 0.710964 -0.170651
1.014200 0.672016 -0.161482
0.180987 0.834367 0.185748
0.219122 0.829257 0.215997
0.244771 0.828342 0.220009
0.266706 0.828396 0.219786
0.292886 0.828513 0.219678
0.334204 0.828954 0.217654
0.392061 0.831185 0.204403
0.470357 0.836511 0.165737
0.562620 0.842878 0.071769
0.656207 0.847828 -0.137053
0.743632 0.850484 -0.172241
0.826501 0.852179 -0.184520
0.883882 0.832596 -0.184885
0.932739 0.809817 -0.183552
0.975362 0.780910 -0.181779
1.013398 0.738114 -0.172098
0.196316 0.896774 0.199429
0.237283 0.893262 0.233614
0.260296 0.892686 0.237993
0.283738 0.892787 0.237747
0.305422 0.892731 0.237603
0.341439 0.892755 0.237420
0.390917 0.893471 0.231784
0.457079 0.895896 0.209049
0.540043 0.899827 0.156415
0.631268 0.903784 -0.069263
0.720650 0.906445 -0.160343
0.803989 0.907627 -0.188328
0.884330 0.909428 -0.198223
0.931588 0.882670 -0.196313
0.973846 0.850336 -0.193375
1.012478 0.804188 -0.183139
0.209944 0.950506 0.211636
0.253336 0.948654 0.249218
0.274136 0.948370 0.253951
0.299141 0.948457 0.253684
0.316466 0.948411 0.253409
0.347648 0.948415 0.253733
0.390858 0.948464 0.252237
0.446952 0.949387 0.240865
0.518802 0.951013 0.207383
0.603021 0.953136 0.139758
0.691040 0.955099 -0.112543
0.775934 0.955987 -0.177968
0.855219 0.956570 -0.201021
0.932832 0.958986 -0.209646
0.972637 0.921040 -0.205662
1.011431 0.870336 -0.194585
0.213590 0.987911 0.214411
0.258596 0.987351 0.254214
0.277914 0.987110 0.259120
0.304605 0.987248 0.258896
0.320125 0.987117 0.258508
0.348242 0.987209 0.258817
0.387443 0.987249 0.258916
0.436953 0.987395 0.254114
0.498871 0.988095 0.234405
0.573576 0.988942 0.190213
0.656107 0.989710 0.099269
0.739758 0.990003 -0.145650
0.818922 0.990147 -0.193083
0.893879 0.990328 -0.210964
0.974994 0.993699 -0.218714
1.011230 0.937948 -0.206735
0.174013 1.033329 0.168668
0.221397 1.032726 0.212962
0.241663 1.032619 0.219540
0.268431 1.032642 0.219810
0.295878 1.032648 0.220002
0.326837 1.032629 0.220348
0.367227 1.032618 0.220795
0.415197 1.032673 0.219369
0.470546 1.032934 0.207475
0.534947 1.033397 0.172938
0.607359 1.034034 0.093116
0.683808 1.034414 -0.138913
0.760363 1.034510 -0.191490
0.833984 1.034294 -0.214828
0.903938 1.034850 -0.223421
1.010131 1.035736 -0.225107
0.094818 -0.348239 0.157010
0.100186 -0.348459 0.151227
0.137675 -0.349291 0.145626
0.204351 -0.350067 0.153356
0.286106 -0.350890 0.160175
0.372206 -0.351947 0.163344
0.459307 -0.353201 0.163399
0.542963 -0.354237 0.160440
0.621313 -0.354738 0.156281
0.695066 -0.353857 0.153637
0.766124 -0.352670 0.152924
0.835194 -0.353979 0.149498
0.896661 -0.356064 0.142746
0.945494 -0.357795 0.133418
0.986126 -0.359223 0.120208
1.019085 -0.357642 0.114851
0.053506 0.079695 0.137282
0.069860 0.074798 0.139107
0.129705 0.068319 0.136500
0.213339 0.057058 0.145813
0.303283 0.035837 0.150618
0.392184 -0.041021 0.150737
0.479782 -0.065175 0.147414
0.563094 -0.082172 0.140881
0.639738 -0.093796 0.132463
0.710471 -0.099691 0.125047
0.775595 -0.095101 0.124267
0.837196 -0.090322 0.123540
0.894646 -0.097820 0.113767
0.942524 -0.105278 0.100769
0.989145 -0.115914 0.076807
1.016844 -0.105254 0.069460
0.039883 0.126945 0.122937
0.050628 0.125984 0.121822
0.111607 0.124590 0.120936
0.207448 0.121380 0.118882
0.313299 0.109761 0.108695
0.413196 0.089446 0.090530
0.505543 0.057897 0.063853
0.589538 -0.049282 -0.035410
0.665087 -0.075784 -0.067603
0.733917 -0.084401 -0.076743
0.796792 -0.078351 -0.069354
0.857037 -0.078489 -0.069409
0.912907 -0.089139 -0.081854
0.960842 -0.098496 -0.092155
1.002458 -0.072970 -0.079698
1.016180 0.078860 0.044654
0.011138 0.194826 0.120011
0.035979 0.187937 0.109324
0.077672 0.194578 0.090290
0.181993 0.203659 0.088967
0.294253 0.218545 0.080678
0.399177 0.223664 0.057078
0.494066 0.221405 -0.042714
0.580699 0.214750 -0.075583
0.659007 0.205600 -0.093814
0.730559 0.196149 -0.104764
0.796434 0.188910 -0.107551
0.855982 0.186388 -0.098615
0.910225 0.182522 -0.092589
0.958343 0.171955 -0.100886
1.001600 0.172310 -0.087111
1.015830 0.179735 0.016469
-0.032549 0.274031 0.121033
0.040336 0.262045 0.109556
0.076518 0.270497 0.083322
0.162635 0.284308 0.068573
0.272852 0.299432 0.032983
0.381829 0.313089 -0.060552
0.481955 0.318979 -0.084491
0.571319 0.317003 -0.100950
0.651563 0.310449 -0.113184
0.724991 0.302195 -0.121550
0.793012 0.293973 -0.125698
0.854434 0.287501 -0.119807
0.908692 0.281764 -0.108473
0.955731 0.272706 -0.106805
1.001378 0.263819 -0.096688
1.015655 0.257944 -0.037841
-0.045038 0.363485 0.128216
0.052261 0.350245 0.123441
0.076019 0.355913 0.087716
0.153611 0.365204 0.058980
0.257913 0.383449 -0.059814
0.367604 0.396637 -0.093885
0.468885 0.404390 -0.111768
0.561742 0.406531 -0.124297
0.643734 0.401534 -0.132628
0.718703 0.393858 -0.138299
0.788047 0.385222 -0.141021
0.851108 0.376851 -0.136211
0.906411 0.368582 -0.124534
0.952867 0.358068 -0.116540
1.001152 0.344554 -0.108448
1.015396 0.330564 -0.056154
-0.051306 0.454575 0.137090
0.068798 0.441709 0.141460
0.088744 0.445267 0.093794
0.159886 0.449263 0.068053
0.242234 0.462501 -0.059637
0.352337 0.479500 -0.109368
0.459192 0.489338 -0.133655
0.551987 0.490376 -0.145008
0.636026 0.486938 -0.151130
0.712047 0.479504 -0.154343
0.782244 0.470414 -0.154986
0.846476 0.460961 -0.148674
0.903022 0.450768 -0.137053
0.949653 0.438149 -0.127654
1.000760 0.421323 -0.121732
1.015128 0.400717 -0.072931
0.025340 0.540960 0.149895
0.098201 0.529095 0.163021
0.118199 0.531343 0.119304
0.176906 0.532527 0.097799
0.235521 0.539286 0.059526
0.331920 0.553864 -0.097253
0.442572 0.568071 -0.140605
0.544587 0.574755 -0.160452
0.628384 0.569190 -0.166605
0.705584 0.561728 -0.168072
0.776341 0.552446 -0.164900
0.841368 0.541990 -0.156327
0.898981 0.530161 -0.145206
0.946236 0.515423 -0.136967
1.000712 0.495838 -0.136315
1.014922 0.469430 -0.089931
0.103714 0.620189 0.171072
0.143219 0.609649 0.188086
0.162256 0.611269 0.163422
0.199698 0.611837 0.143051
0.241674 0.614685 0.121769
0.316805 0.623447 0.063723
0.419436 0.637176 -0.117286
0.525998 0.647685 -0.157955
0.622495 0.651875 -0.172008
0.699149 0.642179 -0.172558
0.770416 0.632205 -0.166722
0.836048 0.620826 -0.157977
0.894689 0.607588 -0.149512
0.942930 0.590827 -0.145071
0.996411 0.568923 -0.147876
1.014606 0.537398 -0.104234
0.147865 0.694386 0.193675
0.180726 0.685473 0.212530
0.187648 0.687634 0.187874
0.223425 0.687362 0.184872
0.257889 0.688245 0.176876
0.315514 0.692397 0.156090
0.401427 0.702060 0.099579
0.503903 0.713188 -0.107853
0.603743 0.720035 -0.150825
0.694736 0.722732 -0.161276
0.765488 0.710606 -0.160972
0.831563 0.698024 -0.157137
0.890999 0.683414 -0.155416
0.940174 0.664752 -0.155945
0.990443 0.640687 -0.157980
1.014130 0.604762 -0.116428
0.164940 0.766446 0.208543
0.200695 0.759153 0.229657
0.207349 0.761221 0.206422
0.242793 0.760916 0.204482
0.272488 0.760763 0.203800
0.321031 0.762259 0.198148
0.391560 0.767259 0.174858
0.483414 0.775694 0.116804
0.582475 0.783447 -0.098661
0.676280 0.787770 -0.148254
0.762941 0.789635 -0.165114
0.828446 0.774592 -0.167818
0.887980 0.758115 -0.168415
0.937489 0.737899 -0.168127
0.985606 0.711304 -0.168797
1.013620 0.671549 -0.129833
0.181088 0.834371 0.218455
0.219845 0.829070 0.243918
0.226434 0.831017 0.224586
0.261952 0.830907 0.222950
0.286321 0.830871 0.222737
0.327865 0.831008 0.220953
0.386201 0.832978 0.208989
0.465297 0.837916 0.172947
0.558914 0.843972 0.090277
0.654303 0.848904 -0.129861
0.743066 0.851255 -0.168305
0.826818 0.852636 -0.181477
0.885328 0.833110 -0.182019
0.934741 0.810281 -0.180716
0.981129 0.781432 -0.180127
1.012993 0.737927 -0.143878
0.196413 0.896776 0.228160
0.237800 0.892958 0.257688
0.244536 0.895173 0.241942
0.279945 0.895038 0.240463
0.299764 0.895057 0.240281
0.335768 0.894790 0.240096
0.385690 0.895375 0.235131
0.452238 0.897391 0.214031
0.536112 0.901071 0.164112
0.628718 0.904805 -0.040422
0.719167 0.907301 -0.155243
0.803733 0.908321 -0.185241
0.884745 0.909900 -0.195676
0.932790 0.882975 -0.193807
0.977533 0.850940 -0.191905
1.012217 0.804091 -0.157734
0.210006 0.950505 0.236813
0.253762 0.948471 0.270045
0.260661 0.950726 0.257464
0.291252 0.950645 0.256034
0.311771 0.950523 0.255794
0.342567 0.950517 0.256074
0.386098 0.950381 0.254778
0.442602 0.950967 0.244330
0.514975 0.952527 0.212599
0.600022 0.954387 0.148076
0.689196 0.956122 -0.102572
0.775084 0.956763 -0.174268
0.855218 0.957200 -0.198515
0.933118 0.959171 -0.207383
0.974730 0.921621 -0.204348
1.011283 0.870169 -0.171589
0.213717 0.987907 0.237270
0.259044 0.987279 0.272931
0.265931 0.989094 0.262401
0.293382 0.989032 0.261002
0.315933 0.988935 0.260751
0.343492 0.988830 0.260948
0.383015 0.988774 0.261051
0.433039 0.988844 0.256773
0.495272 0.989298 0.238273
0.570659 0.990010 0.195583
0.653907 0.990568 0.110045
0.738476 0.990877 -0.140180
0.818424 0.990719 -0.190227
0.893901 0.990806 -0.208752
0.975777 0.993839 -0.217497
1.011151 0.937913 -0.185912
0.174703 1.033333 0.188721
0.222759 1.032663 0.228857
0.230460 1.033476 0.219675
0.259296 1.033441 0.220739
0.291735 1.033444 0.221518
0.322620 1.033394 0.221917
0.363457 1.033402 0.222389
0.411948 1.033408 0.220898
0.467826 1.033609 0.209721
0.532722 1.034077 0.176382
0.605585 1.034578 0.100418
0.682729 1.034959 -0.135330
0.759849 1.034998 -0.189754
0.833873 1.034686 -0.213578
0.904187 1.035086 -0.222829
1.010105 1.035710 -0.207632
0.093526 -0.349097 0.237845
0.102901 -0.349222 0.230998
0.149997 -0.349902 0.224191
0.206775 -0.350546 0.218245
0.285747 -0.351340 0.228505
0.372139 -0.352351 0.236412
0.459179 -0.353539 0.239812
0.542775 -0.354533 0.239075
0.621086 -0.354963 0.235941
0.695060 -0.354063 0.233229
0.766084 -0.352946 0.231834
0.835079 -0.354182 0.229389
0.896616 -0.356249 0.224445
0.945474 -0.358004 0.216626
0.986117 -0.359383 0.204181
1.019073 -0.357713 0.191576
0.049316 0.084177 0.224610
0.066426 0.072621 0.234278
0.144312 0.063953 0.230363
0.214496 0.053460 0.222388
0.301635 0.030322 0.231051
0.390941 -0.044260 0.236291
0.479035 -0.066925 0.237395
0.562655 -0.083413 0.234724
0.639480 -0.094975 0.229212
0.710513 -0.101486 0.223056
0.776002 -0.098073 0.218999
0.837247 -0.092314 0.215535
0.894666 -0.098177 0.208400
0.942314 -0.105581 0.198908
0.988997 -0.116138 0.185133
1.016838 -0.105508 0.173374
0.031972 0.147273 0.213080
0.046836 0.148162 0.221573
0.116235 0.131150 0.225101
0.211760 0.119742 0.221110
0.312431 0.106194 0.226568
0.411244 0.085947 0.227086
0.503425 0.053096 0.222915
0.587583 -0.053504 0.215445
0.663506 -0.078998 0.206247
0.732923 -0.090841 0.197398
0.796418 -0.088115 0.192352
0.855539 -0.081060 0.188784
0.911165 -0.088683 0.180629
0.959589 -0.099402 0.169827
1.002082 -0.081909 0.162581
1.016184 0.052113 0.161915
-0.038283 0.211511 0.203300
-0.028732 0.210775 0.202087
0.084748 0.210906 0.201583
0.183937 0.206875 0.196660
0.294687 0.204506 0.194544
0.403802 0.196678 0.186758
0.505592 0.181511 0.171548
0.597324 0.161378 0.151583
0.678600 0.139045 0.129419
0.751796 0.117058 0.107568
0.817281 0.104475 0.096076
0.876844 0.102100 0.095699
0.932444 0.085736 0.079571
0.975695 0.108570 0.096748
1.000543 0.174778 0.158011
1.015781 0.199155 0.181047
-0.059030 0.290404 0.201714
-0.045653 0.283611 0.191933
0.064423 0.284117 0.178496
0.140494 0.285756 0.157402
0.262631 0.294155 0.157881
0.384258 0.304059 0.154388
0.492896 0.304716 0.139913
0.586179 0.297378 0.119143
0.668720 0.286413 0.092111
0.743895 0.274619 0.053770
0.812726 0.263618 -0.049078
0.874441 0.255650 -0.050723
0.928427 0.249708 -0.007897
0.974351 0.245680 0.066553
1.000110 0.262897 0.149173
1.015653 0.267611 0.175628
-0.060005 0.369011 0.196747
0.027126 0.357197 0.183683
0.071307 0.358524 0.167127
0.120861 0.364311 0.134083
0.229054 0.375745 0.126780
0.358047 0.391924 0.114291
0.474419 0.400720 0.091927
0.572963 0.399350 0.052192
0.657735 0.391065 -0.061855
0.734469 0.380718 -0.088122
0.805096 0.369994 -0.101556
0.869261 0.359886 -0.103960
0.924661 0.350944 -0.090189
0.974505 0.340977 -0.071791
1.000779 0.342090 0.133885
1.016286 0.336072 0.168800
-0.057164 0.455038 0.199333
0.064285 0.442246 0.189802
0.086367 0.444425 0.174172
