iCamera/Lut/JS - Deep Green.cube
LUT_3D_SIZE 6
0.058489 0.060904 0.061208
0.209221 0.044133 0.048296
0.474667 -0.068505 -0.064942
0.707028 -0.097727 -0.095686
0.891943 -0.099968 -0.098343
1.017460 -0.111572 -0.112246
0.026499 0.184182 0.031709
0.187340 0.205982 -0.038767
0.470156 0.241422 -0.089828
0.708221 0.229774 -0.120571
0.891868 0.217492 -0.108358
1.017303 0.183800 -0.116180
-0.040380 0.454588 -0.052545
0.178476 0.446047 -0.033661
0.459906 0.489119 -0.142981
0.702058 0.481748 -0.158744
0.890762 0.455793 -0.140108
1.016577 0.402159 -0.131432
0.147598 0.694518 0.144436
0.233072 0.683587 0.179286
0.410729 0.700564 0.093407
0.694420 0.722300 -0.159196
0.885941 0.683288 -0.159990
1.015038 0.605579 -0.156271
0.196107 0.896790 0.191612
0.284715 0.892243 0.237156
0.392176 0.893040 0.231080
0.631858 0.903511 -0.073766
0.884340 0.909410 -0.198754
1.012535 0.804454 -0.186935
0.173068 1.033351 0.166272
0.270732 1.032440 0.221968
0.368112 1.032449 0.222102
0.535387 1.033303 0.173395
0.760293 1.034410 -0.191024
1.010136 1.035745 -0.227645
0.093526 -0.349097 0.237845
0.206775 -0.350546 0.218245
0.459179 -0.353539 0.239812
0.695060 -0.354063 0.233229
0.896616 -0.356249 0.224445
1.019073 -0.357713 0.191576
-0.038283 0.211511 0.203300
0.183937 0.206875 0.196660
0.505592 0.181511 0.171548
0.751796 0.117058 0.107568
0.932444 0.085736 0.079571
1.015781 0.199155 0.181047
-0.057164 0.455038 0.199333
0.133294 0.451073 0.142084
0.456138 0.488541 -0.069397
0.724174 0.473582 -0.126140
0.918984 0.440694 -0.118936
1.017144 0.403627 0.157493
0.139549 0.694904 0.232018
0.199048 0.692496 0.203635
0.384819 0.704173 0.118492
0.695133 0.723663 -0.163049
0.898185 0.682726 -0.146562
1.016162 0.605690 0.113979
0.196459 0.896799 0.262659
0.250105 0.899424 0.249890
0.374859 0.898676 0.244128
0.622926 0.906687 0.087305
0.885277 0.910402 -0.187388
1.011743 0.804824 0.101085
0.174868 1.033345 0.226692
0.253396 1.033511 0.247337
0.359751 1.033526 0.245401
0.529141 1.034403 0.201407
0.758394 1.035618 -0.183774
1.010057 1.035620 -0.127284
0.082126 -0.350803 0.503345
0.229996 -0.351639 0.489775
0.455345 -0.353466 0.476785
0.685240 -0.351363 0.463166
0.891440 -0.355478 0.447484
1.018963 -0.358064 0.394986
-0.071083 0.249061 0.488566
0.183458 0.211065 0.527538
0.502712 0.163939 0.516200
0.747117 0.099340 0.481068
0.929800 0.071276 0.439682
1.015758 0.189165 0.389652
-0.136407 0.491761 0.476634
-0.063051 0.495862 0.479621
0.440461 0.479970 0.460747
0.737521 0.466217 0.450287
0.941191 0.443390 0.427334
1.023953 0.478880 0.460431
-0.035694 0.702364 0.434838
0.142967 0.698757 0.403983
0.324005 0.700249 0.357092
0.681603 0.718557 0.355159
0.925916 0.679008 0.333329
1.021508 0.640852 0.447220
0.197309 0.896797 0.423466
0.251501 0.898755 0.403450
0.331298 0.910855 0.351753
0.571515 0.910361 0.320431
0.885935 0.912304 0.247501
1.016223 0.819089 0.433382
0.174947 1.033351 0.367980
0.251454 1.033496 0.369605
0.417528 1.033344 0.435568
0.551710 1.034752 0.423043
0.755151 1.036363 0.388124
1.009851 1.036043 0.419032
0.051704 -0.349182 0.727446
0.217545 -0.349257 0.719824
0.440283 -0.350020 0.712705
0.681249 -0.351137 0.707687
0.880875 -0.352942 0.668091
1.018520 -0.358594 0.594524
-0.081837 0.243774 0.726575
0.165967 0.193867 0.784423
0.480130 0.150684 0.774421
0.735520 0.113512 0.749388
0.925953 0.050936 0.693715
1.015587 0.187722 0.594385
-0.140006 0.486759 0.719435
-0.089533 0.488451 0.753198
0.450699 0.482003 0.759663
0.733577 0.457336 0.748856
0.939889 0.434834 0.696781
1.024124 0.475697 0.630338
-0.175830 0.724158 0.710441
-0.176059 0.729908 0.716127
0.354123 0.729267 0.714975
0.676462 0.713309 0.698937
0.920793 0.704974 0.691884
1.019057 0.716933 0.701970
0.064459 0.903246 0.655321
0.160572 0.906034 0.645394
0.310041 0.913585 0.611506
0.577444 0.908837 0.625313
0.875875 0.908598 0.625699
1.014789 0.851440 0.693628
0.165191 1.033510 0.555537
0.244842 1.033774 0.549639
0.403210 1.035395 0.577856
0.643678 1.037626 0.663148
0.794833 1.037183 0.657681
1.008892 1.035470 0.683751
0.046936 -0.350569 0.922515
0.211880 -0.350476 0.919101
0.414727 -0.350155 0.912697
0.653392 -0.354106 0.912276
0.894403 -0.360134 0.911987
1.018261 -0.359776 0.797480
-0.067483 0.230401 0.909948
0.164086 0.191263 0.958479
0.441843 0.157885 0.957789
0.690659 0.103606 0.954227
0.921471 -0.046444 0.936589
1.015337 0.185177 0.797659
-0.107698 0.461089 0.906686
0.052067 0.460437 0.954508
0.445464 0.476509 0.961094
0.690330 0.457844 0.958031
0.935870 0.424734 0.951791
1.023003 0.474843 0.816154
-0.146514 0.685626 0.902274
-0.137622 0.691652 0.923112
0.371238 0.697339 0.948749
0.687955 0.715984 0.940433
0.918257 0.698314 0.933833
1.018683 0.714638 0.844204
-0.185633 0.909854 0.899424
-0.174654 0.913865 0.903711
0.242534 0.922388 0.912861
0.622980 0.916713 0.908096
0.881449 0.905838 0.896487
1.011924 0.905759 0.894338
-0.164002 1.034963 0.772662
-0.067153 1.035855 0.771443
0.388596 1.037443 0.778343
0.647276 1.037607 0.816330
0.867713 1.035978 0.876335
1.007949 1.033966 0.888250
0.064893 -0.350054 1.023047
0.198792 -0.350809 1.022831
0.384564 -0.351625 1.022192
0.579280 -0.353299 1.021053
0.782831 -0.356626 1.019403
1.020491 -0.361765 1.016697
-0.067255 0.203818 1.016351
0.189720 0.218988 1.016267
0.384324 0.203912 1.016093
0.586195 0.199445 1.015653
0.788466 0.191771 1.014920
1.020453 0.177499 1.013672
-0.095024 0.410540 1.015540
0.175013 0.413756 1.015556
0.456657 0.488508 1.024298
0.622618 0.483264 1.024445
0.806435 0.479289 1.022643
1.023317 0.476188 1.016805
-0.130277 0.611884 1.013909
0.136300 0.613328 1.016573
0.440751 0.647889 1.023221
0.692099 0.721471 1.020104
0.833304 0.716784 1.018862
1.022491 0.712852 1.016477
-0.167954 0.810243 1.011330
0.071405 0.810978 1.012324
0.421885 0.826127 1.018010
0.680805 0.855731 1.015498
0.881306 0.907760 1.011277
1.014380 0.903851 1.009612
-0.206451 1.005866 1.007691
-0.108158 1.005709 1.007647
0.398788 1.007550 1.009916
0.669027 1.005759 1.008843
0.873899 1.002531 1.006902
1.008260 1.000021 1.005193
