iCamera/Resource/Lut/FB Basic Daily.cube
LUT_3D_SIZE 4
0.000000 0.000000 0.000000
0.294118 0.000000 0.000000
1.000000 0.000000 0.000000
1.000000 0.000000 0.000000
0.000000 0.313725 0.000000
0.278431 0.227451 0.000000
1.000000 0.027451 0.000000
1.000000 0.000000 0.000000
0.000000 0.956863 0.000000
0.121569 0.839216 0.000000
0.870588 0.721569 0.019608
1.000000 0.639216 0.000000
0.000000 1.000000 0.000000
0.000000 1.000000 0.000000
0.639216 1.000000 0.039216
1.000000 0.984314 0.000000
0.000000 0.000000 0.298039
0.337255 0.000000 0.380392
0.960784 0.000000 0.301961
1.000000 0.000000 0.301961
0.000000 0.313725 0.254902
0.188235 0.219608 0.227451
1.000000 0.074510 0.129412
1.000000 0.011765 0.113725
0.000000 0.968627 0.000000
0.031373 0.831373 0.000000
0.831373 0.725490 0.082353
1.000000 0.647059 0.172549
0.000000 1.000000 0.000000
0.000000 1.000000 0.000000
0.576471 1.000000 0.035294
1.000000 0.984314 0.000000
0.000000 0.000000 0.972549
0.278431 0.000000 1.000000
1.000000 0.000000 1.000000
1.000000 0.000000 1.000000
0.000000 0.286275 1.000000
0.082353 0.156863 1.000000
0.980392 0.043137 1.000000
1.000000 0.003922 0.972549
0.023529 0.901961 0.827451
0.043137 0.792157 0.752941
0.729412 0.729412 0.780392
1.000000 0.650980 0.737255
0.011765 1.000000 0.552941
0.000000 1.000000 0.403922
0.317647 1.000000 0.278431
1.000000 1.000000 0.384314
0.000000 0.000000 1.000000
0.290196 0.000000 1.000000
1.000000 0.000000 1.000000
1.000000 0.000000 1.000000
0.000000 0.207843 1.000000
0.094118 0.047059 1.000000
0.992157 0.000000 1.000000
1.000000 0.000000 1.000000
0.000000 0.898039 1.000000
0.000000 0.800000 1.000000
0.705882 0.705882 1.000000
1.000000 0.580392 1.000000
0.000000 1.000000 0.972549
0.000000 1.000000 0.972549
0.223529 1.000000 0.992157
1.000000 1.000000 1.000000
