iCamera/Resource/Lut/FB Basic Daily.cube
LUT_3D_SIZE 8
0.000000 0.000000 0.000000
0.007843 0.000000 0.000000
0.215686 0.000000 0.000000
0.498039 0.000000 0.000000
0.815686 0.000000 0.000000
1.000000 0.000000 0.000000
1.000000 0.000000 0.000000
1.000000 0.000000 0.000000
0.000000 0.015686 0.000000
0.003922 0.003922 0.000000
0.274510 0.000000 0.000000
0.588235 0.000000 0.000000
0.901961 0.000000 0.000000
1.000000 0.000000 0.000000
1.000000 0.000000 0.000000
1.000000 0.000000 0.000000
0.000000 0.223529 0.000000
0.000000 0.196078 0.000000
0.192157 0.156863 0.000000
0.592157 0.086275 0.000000
1.000000 0.015686 0.000000
1.000000 0.000000 0.000000
1.000000 0.000000 0.000000
1.000000 0.000000 0.000000
0.000000 0.505882 0.000000
0.000000 0.494118 0.000000
0.109804 0.431373 0.000000
0.450980 0.376471 0.000000
0.874510 0.301961 0.000000
1.000000 0.168627 0.000000
1.000000 0.125490 0.000000
1.000000 0.109804 0.000000
0.000000 0.792157 0.000000
0.000000 0.768627 0.000000
0.015686 0.709804 0.000000
0.396078 0.643137 0.000000
0.701961 0.584314 0.019608
1.000000 0.513725 0.000000
1.000000 0.458824 0.000000
1.000000 0.439216 0.000000
0.000000 1.000000 0.000000
0.000000 1.000000 0.000000
0.015686 0.929412 0.000000
0.380392 0.870588 0.007843
0.682353 0.831373 0.035294
0.960784 0.792157 0.019608
1.000000 0.752941 0.000000
1.000000 0.729412 0.000000
0.000000 1.000000 0.000000
0.000000 1.000000 0.000000
0.031373 1.000000 0.000000
0.341176 1.000000 0.011765
0.643137 1.000000 0.043137
0.945098 1.000000 0.015686
1.000000 0.984314 0.000000
1.000000 0.984314 0.000000
0.000000 1.000000 0.000000
0.000000 1.000000 0.000000
0.000000 1.000000 0.000000
0.000000 1.000000 0.000000
0.360784 1.000000 0.015686
0.776471 1.000000 0.062745
1.000000 0.988235 0.000000
1.000000 0.984314 0.000000
0.000000 0.000000 0.027451
0.007843 0.000000 0.015686
0.235294 0.000000 0.007843
0.505882 0.000000 0.003922
0.835294 0.000000 0.000000
1.000000 0.000000 0.003922
1.000000 0.000000 0.003922
1.000000 0.000000 0.007843
0.000000 0.015686 0.000000
0.000000 0.003922 0.000000
0.211765 0.000000 0.000000
0.521569 0.000000 0.000000
0.894118 0.000000 0.000000
1.000000 0.000000 0.000000
1.000000 0.000000 0.000000
1.000000 0.000000 0.000000
0.000000 0.227451 0.000000
0.000000 0.200000 0.000000
0.164706 0.152941 0.000000
0.596078 0.070588 0.000000
1.000000 0.019608 0.000000
1.000000 0.000000 0.000000
1.000000 0.000000 0.000000
1.000000 0.000000 0.000000
0.000000 0.529412 0.000000
0.000000 0.513725 0.000000
0.090196 0.423529 0.000000
0.435294 0.364706 0.000000
0.858824 0.290196 0.000000
1.000000 0.168627 0.000000
1.000000 0.137255 0.000000
1.000000 0.125490 0.000000
0.000000 0.796078 0.000000
0.000000 0.764706 0.000000
0.011765 0.698039 0.000000
0.380392 0.631373 0.000000
0.686275 0.576471 0.019608
1.000000 0.509804 0.000000
1.000000 0.458824 0.000000
1.000000 0.439216 0.000000
0.000000 1.000000 0.000000
0.000000 1.000000 0.000000
0.015686 0.921569 0.000000
0.360784 0.866667 0.007843
0.670588 0.831373 0.035294
0.952941 0.792157 0.019608
1.000000 0.756863 0.000000
1.000000 0.725490 0.000000
0.000000 1.000000 0.000000
0.000000 1.000000 0.000000
0.015686 1.000000 0.000000
0.317647 1.000000 0.011765
0.615686 1.000000 0.039216
0.917647 1.000000 0.011765
1.000000 0.984314 0.000000
1.000000 0.984314 0.000000
0.000000 1.000000 0.000000
0.000000 1.000000 0.000000
0.000000 1.000000 0.000000
0.000000 1.000000 0.000000
0.329412 1.000000 0.011765
0.749020 1.000000 0.058824
1.000000 0.988235 0.000000
1.000000 0.984314 0.000000
0.000000 0.000000 0.223529
0.000000 0.000000 0.215686
0.200000 0.000000 0.235294
0.552941 0.000000 0.266667
0.862745 0.000000 0.235294
1.000000 0.000000 0.223529
1.000000 0.000000 0.235294
1.000000 0.000000 0.235294
0.000000 0.011765 0.211765
0.000000 0.000000 0.207843
0.176471 0.000000 0.211765
0.552941 0.000000 0.219608
0.925490 0.000000 0.188235
1.000000 0.000000 0.172549
1.000000 0.000000 0.160784
1.000000 0.000000 0.160784
0.000000 0.227451 0.168627
0.000000 0.200000 0.156863
0.113725 0.152941 0.149020
0.474510 0.094118 0.113725
0.886275 0.031373 0.070588
1.000000 0.000000 0.035294
1.000000 0.000000 0.031373
1.000000 0.000000 0.039216
0.000000 0.498039 0.035294
0.000000 0.478431 0.023529
0.019608 0.427451 0.011765
0.396078 0.364706 0.027451
0.913725 0.262745 0.003922
1.000000 0.203922 0.011765
1.000000 0.188235 0.023529
1.000000 0.184314 0.043137
0.000000 0.811765 0.000000
0.000000 0.780392 0.000000
0.000000 0.713725 0.000000
0.341176 0.623529 0.000000
0.658824 0.576471 0.047059
1.000000 0.517647 0.027451
1.000000 0.478431 0.098039
1.000000 0.458824 0.117647
0.000000 1.000000 0.000000
0.000000 1.000000 0.000000
0.000000 0.937255 0.000000
0.333333 0.858824 0.003922
0.639216 0.823529 0.031373
0.941176 0.796078 0.011765
1.000000 0.756863 0.054902
1.000000 0.721569 0.000000
0.000000 1.000000 0.000000
0.000000 1.000000 0.000000
0.000000 1.000000 0.000000
0.274510 1.000000 0.007843
0.580392 1.000000 0.035294
0.901961 1.000000 0.011765
1.000000 0.984314 0.000000
1.000000 0.988235 0.000000
0.000000 1.000000 0.000000
0.000000 1.000000 0.000000
0.000000 1.000000 0.000000
0.000000 1.000000 0.000000
0.294118 1.000000 0.007843
0.725490 1.000000 0.054902
1.000000 0.996078 0.000000
1.000000 0.984314 0.000000
0.000000 0.000000 0.623529
0.000000 0.000000 0.619608
0.192157 0.000000 0.556863
0.478431 0.000000 0.525490
0.803922 0.000000 0.537255
1.000000 0.000000 0.584314
1.000000 0.000000 0.596078
1.000000 0.000000 0.603922
0.000000 0.003922 0.592157
0.000000 0.000000 0.600000
0.164706 0.000000 0.576471
0.498039 0.000000 0.549020
0.870588 0.000000 0.549020
1.000000 0.000000 0.592157
1.000000 0.000000 0.592157
1.000000 0.000000 0.564706
0.000000 0.227451 0.556863
0.000000 0.192157 0.568627
0.078431 0.133333 0.529412
0.423529 0.086275 0.470588
0.784314 0.035294 0.447059
1.000000 0.007843 0.415686
1.000000 0.000000 0.388235
1.000000 0.000000 0.364706
0.000000 0.505882 0.447059
0.000000 0.482353 0.423529
0.000000 0.431373 0.403922
0.337255 0.360784 0.384314
0.729412 0.301961 0.341176
1.000000 0.262745 0.317647
1.000000 0.243137 0.313725
1.000000 0.231373 0.321569
0.000000 0.772549 0.270588
0.000000 0.741176 0.247059
0.000000 0.682353 0.223529
0.235294 0.639216 0.223529
0.623529 0.580392 0.278431
1.000000 0.513725 0.290196
1.000000 0.478431 0.290196
1.000000 0.466667 0.301961
0.050980 0.992157 0.188235
0.054902 0.964706 0.196078
0.050980 0.898039 0.203922
0.278431 0.862745 0.231373
0.580392 0.839216 0.188235
0.894118 0.800000 0.305882
1.000000 0.760784 0.294118
1.000000 0.729412 0.231373
0.035294 1.000000 0.141176
0.031373 1.000000 0.125490
0.019608 1.000000 0.094118
0.207843 1.000000 0.137255
0.541176 1.000000 0.125490
0.847059 1.000000 0.015686
1.000000 0.988235 0.000000
1.000000 0.988235 0.000000
0.000000 1.000000 0.000000
0.000000 1.000000 0.000000
0.000000 1.000000 0.000000
0.000000 1.000000 0.000000
0.258824 1.000000 0.007843
0.705882 1.000000 0.050980
1.000000 1.000000 0.000000
1.000000 0.988235 0.000000
0.000000 0.000000 0.843137
0.000000 0.000000 0.921569
0.180392 0.000000 0.917647
0.478431 0.000000 0.894118
0.843137 0.000000 0.905882
1.000000 0.000000 0.909804
1.000000 0.000000 0.929412
1.000000 0.000000 0.937255
0.000000 0.000000 0.874510
0.000000 0.000000 0.913725
0.152941 0.000000 1.000000
0.525490 0.000000 1.000000
0.933333 0.000000 1.000000
1.000000 0.000000 0.949020
1.000000 0.000000 0.945098
1.000000 0.000000 0.929412
0.000000 0.200000 0.913725
0.000000 0.164706 0.945098
0.039216 0.101961 0.996078
0.423529 0.043137 0.941176
0.776471 0.015686 0.847059
1.000000 0.000000 0.827451
1.000000 0.000000 0.815686
1.000000 0.000000 0.788235
0.000000 0.494118 0.843137
0.000000 0.466667 0.831373
0.000000 0.407843 0.811765
0.298039 0.341176 0.803922
0.705882 0.278431 0.768627
1.000000 0.231373 0.713725
1.000000 0.211765 0.678431
1.000000 0.200000 0.666667
0.000000 0.764706 0.694118
0.000000 0.737255 0.670588
0.000000 0.694118 0.643137
0.211765 0.623529 0.615686
0.572549 0.580392 0.607843
0.882353 0.549020 0.596078
1.000000 0.513725 0.580392
1.000000 0.498039 0.576471
0.000000 1.000000 0.505882
0.003922 0.968627 0.498039
0.027451 0.894118 0.501961
0.223529 0.866667 0.505882
0.521569 0.843137 0.521569
0.850980 0.803922 0.572549
1.000000 0.749020 0.533333
1.000000 0.713725 0.482353
0.000000 1.000000 0.403922
0.000000 1.000000 0.392157
0.000000 1.000000 0.364706
0.023529 1.000000 0.333333
0.356863 1.000000 0.309804
0.784314 1.000000 0.270588
1.000000 0.996078 0.341176
1.000000 0.996078 0.325490
0.050980 1.000000 0.325490
0.094118 1.000000 0.278431
0.062745 1.000000 0.207843
0.023529 1.000000 0.105882
0.105882 1.000000 0.043137
0.643137 1.000000 0.113725
1.000000 1.000000 0.000000
1.000000 0.992157 0.054902
0.000000 0.000000 1.000000
0.000000 0.000000 1.000000
0.172549 0.000000 1.000000
0.478431 0.000000 1.000000
0.733333 0.000000 1.000000
1.000000 0.000000 1.000000
1.000000 0.000000 1.000000
1.000000 0.000000 1.000000
0.000000 0.000000 1.000000
0.000000 0.000000 1.000000
0.176471 0.000000 1.000000
0.517647 0.000000 1.000000
0.847059 0.000000 1.000000
1.000000 0.000000 1.000000
1.000000 0.000000 1.000000
1.000000 0.000000 1.000000
0.000000 0.180392 1.000000
0.000000 0.133333 1.000000
0.019608 0.066667 1.000000
0.423529 0.011765 1.000000
0.741176 0.003922 1.000000
1.000000 0.000000 1.000000
1.000000 0.000000 1.000000
1.000000 0.000000 1.000000
0.000000 0.478431 1.000000
0.000000 0.439216 1.000000
0.000000 0.384314 1.000000
0.262745 0.317647 1.000000
0.647059 0.270588 1.000000
1.000000 0.235294 1.000000
1.000000 0.215686 1.000000
1.000000 0.196078 1.000000
0.000000 0.776471 1.000000
0.000000 0.733333 1.000000
0.000000 0.682353 1.000000
0.137255 0.619608 1.000000
0.541176 0.568627 0.976471
0.886275 0.533333 0.945098
1.000000 0.509804 0.917647
1.000000 0.494118 0.909804
0.000000 0.996078 0.905882
0.011765 0.945098 0.866667
0.019608 0.894118 0.843137
0.172549 0.866667 0.847059
0.450980 0.847059 0.862745
0.811765 0.807843 0.862745
1.000000 0.768627 0.843137
1.000000 0.721569 0.807843
0.015686 1.000000 0.780392
0.007843 1.000000 0.772549
0.000000 1.000000 0.745098
0.031373 1.000000 0.725490
0.329412 1.000000 0.709804
0.674510 1.000000 0.674510
1.000000 1.000000 0.658824
1.000000 0.996078 0.615686
0.000000 1.000000 0.690196
0.000000 1.000000 0.631373
0.007843 1.000000 0.596078
0.011765 1.000000 0.556863
0.003922 1.000000 0.470588
0.490196 1.000000 0.474510
1.000000 1.000000 0.462745
1.000000 1.000000 0.458824
0.000000 0.000000 1.000000
0.000000 0.000000 1.000000
0.172549 0.000000 1.000000
0.490196 0.000000 1.000000
0.745098 0.000000 1.000000
1.000000 0.000000 1.000000
1.000000 0.000000 1.000000
1.000000 0.000000 1.000000
0.000000 0.000000 1.000000
0.000000 0.000000 1.000000
0.188235 0.000000 1.000000
0.525490 0.000000 1.000000
0.862745 0.000000 1.000000
1.000000 0.000000 1.000000
1.000000 0.000000 1.000000
1.000000 0.000000 1.000000
0.000000 0.137255 1.000000
0.000000 0.086275 1.000000
0.027451 0.023529 1.000000
0.419608 0.000000 1.000000
0.733333 0.000000 1.000000
1.000000 0.000000 1.000000
1.000000 0.000000 1.000000
1.000000 0.000000 1.000000
0.000000 0.447059 1.000000
0.000000 0.407843 1.000000
0.000000 0.356863 1.000000
0.258824 0.286275 1.000000
0.635294 0.247059 1.000000
1.000000 0.200000 1.000000
1.000000 0.188235 1.000000
1.000000 0.188235 1.000000
0.000000 0.749020 1.000000
0.000000 0.705882 1.000000
0.000000 0.658824 1.000000
0.149020 0.600000 1.000000
0.533333 0.556863 1.000000
0.870588 0.521569 1.000000
1.000000 0.490196 1.000000
1.000000 0.470588 1.000000
0.000000 1.000000 1.000000
0.000000 0.972549 1.000000
0.000000 0.921569 1.000000
0.078431 0.874510 1.000000
0.447059 0.835294 1.000000
0.796078 0.796078 1.000000
1.000000 0.752941 1.000000
1.000000 0.690196 1.000000
0.000000 1.000000 0.972549
0.000000 1.000000 0.972549
0.000000 1.000000 0.976471
0.000000 1.000000 0.976471
0.203922 1.000000 0.988235
0.607843 1.000000 1.000000
1.000000 1.000000 1.000000
1.000000 0.992157 1.000000
0.000000 1.000000 0.972549
0.000000 1.000000 0.972549
0.000000 1.000000 0.972549
0.000000 1.000000 0.972549
0.000000 1.000000 0.980392
0.411765 1.000000 0.988235
0.905882 1.000000 0.952941
1.000000 1.000000 0.929412
0.000000 0.000000 1.000000
0.000000 0.000000 1.000000
0.184314 0.000000 1.000000
0.501961 0.000000 1.000000
0.764706 0.000000 1.000000
1.000000 0.000000 1.000000
1.000000 0.000000 1.000000
1.000000 0.000000 1.000000
0.000000 0.000000 1.000000
0.000000 0.000000 1.000000
0.200000 0.000000 1.000000
0.537255 0.000000 1.000000
0.874510 0.000000 1.000000
1.000000 0.000000 1.000000
1.000000 0.000000 1.000000
1.000000 0.000000 1.000000
0.000000 0.090196 1.000000
0.000000 0.031373 1.000000
0.031373 0.000000 1.000000
0.435294 0.000000 1.000000
0.741176 0.000000 1.000000
1.000000 0.000000 1.000000
1.000000 0.000000 1.000000
1.000000 0.000000 1.000000
0.000000 0.415686 1.000000
0.000000 0.364706 1.000000
0.000000 0.321569 1.000000
0.258824 0.250980 1.000000
0.627451 0.223529 1.000000
1.000000 0.180392 1.000000
1.000000 0.172549 1.000000
1.000000 0.172549 1.000000
0.000000 0.717647 1.000000
0.000000 0.674510 1.000000
0.000000 0.635294 1.000000
0.156863 0.580392 1.000000
0.533333 0.541176 1.000000
0.862745 0.509804 1.000000
1.000000 0.478431 1.000000
1.000000 0.454902 1.000000
0.000000 0.980392 1.000000
0.000000 0.952941 1.000000
0.000000 0.905882 1.000000
0.090196 0.862745 1.000000
0.443137 0.823529 1.000000
0.792157 0.780392 1.000000
1.000000 0.725490 1.000000
1.000000 0.654902 1.000000
0.000000 1.000000 0.972549
0.000000 1.000000 0.972549
0.000000 1.000000 0.972549
0.000000 1.000000 0.976471
0.145098 1.000000 0.988235
0.592157 1.000000 1.000000
1.000000 1.000000 1.000000
1.000000 0.964706 1.000000
0.000000 1.000000 0.972549
0.000000 1.000000 0.972549
0.000000 1.000000 0.972549
0.000000 1.000000 0.972549
0.000000 1.000000 0.976471
0.392157 1.000000 1.000000
0.894118 1.000000 1.000000
1.000000 1.000000 1.000000
