iCamera/Resource/Lut/FB LUT-Cinematic1.cube
LUT_3D_SIZE 64
0.048829 0.089693 0.089631
0.048829 0.089693 0.089631
0.048829 0.089693 0.089631
0.048829 0.089693 0.089631
0.048829 0.089693 0.089631
0.048829 0.089693 0.089631
0.048829 0.089693 0.089631
0.066987 0.089754 0.089906
0.091920 0.089448 0.089693
0.105104 0.089845 0.090181
0.115694 0.089509 0.090364
0.125856 0.089479 0.090517
0.135744 0.089723 0.090150
0.146059 0.090089 0.090150
0.155886 0.091981 0.090761
0.166537 0.093904 0.090028
0.177462 0.096132 0.090028
0.189059 0.098299 0.089937
0.200809 0.100771 0.089326
0.213748 0.103273 0.088533
0.226932 0.106264 0.087404
0.241794 0.109529 0.086732
0.264652 0.114870 0.083375
0.288640 0.120516 0.079957
0.312963 0.126528 0.074281
0.337957 0.132387 0.066377
0.362005 0.138430 0.059876
0.386419 0.143709 0.056123
0.410651 0.149325 0.051118
0.434668 0.154910 0.044068
0.457374 0.159457 0.036286
0.480476 0.164340 0.027070
0.502953 0.168765 0.019867
0.524743 0.173404 0.009705
0.545159 0.177462 0.001160
0.565972 0.181735 0.000000
0.585962 0.185458 0.000000
0.605890 0.189334 0.000000
0.623896 0.192844 0.000000
0.642145 0.196109 0.000000
0.660060 0.199405 0.000000
0.677394 0.202396 0.000000
0.693507 0.205600 0.000000
0.710384 0.208865 0.000000
0.726772 0.211765 0.000000
0.743282 0.214694 0.000000
0.759396 0.217899 0.000000
0.776516 0.221042 0.000000
0.793545 0.223819 0.000000
0.810758 0.227512 0.000000
0.827237 0.230137 0.000000
0.844083 0.233371 0.000000
0.860472 0.236576 0.000000
0.876524 0.239750 0.000000
0.891569 0.242435 0.000000
0.906462 0.245396 0.000000
0.920653 0.248417 0.000000
0.934234 0.251011 0.000000
0.948150 0.254154 0.000000
0.962371 0.257084 0.000000
0.977874 0.260777 0.000000
0.995544 0.264897 0.000000
1.000000 0.270542 0.000000
1.000000 0.277958 0.000000
0.048829 0.089693 0.089631
0.048829 0.089693 0.089631
0.048829 0.089693 0.089631
0.048829 0.089693 0.089631
0.048829 0.089693 0.089631
0.048829 0.089693 0.089631
0.048829 0.089693 0.089631
0.068971 0.089693 0.089906
0.091920 0.089448 0.089693
0.105104 0.089845 0.090181
0.115175 0.089601 0.090364
0.125460 0.089570 0.090089
0.135470 0.089357 0.090211
0.145052 0.089876 0.090211
0.154665 0.091859 0.090425
0.165042 0.093874 0.090120
0.175631 0.095827 0.090181
0.186862 0.098177 0.089662
0.198856 0.100282 0.089509
0.211063 0.103059 0.088746
0.224186 0.105470 0.087892
0.238865 0.109224 0.086488
0.260929 0.113802 0.084260
0.284276 0.119326 0.080354
0.307713 0.125460 0.075319
0.331884 0.131411 0.067811
0.355383 0.136843 0.062165
0.379858 0.142641 0.057160
0.403906 0.148043 0.052674
0.427802 0.153384 0.046143
0.450782 0.158297 0.038239
0.473945 0.163394 0.030213
0.496773 0.168093 0.021729
0.519005 0.172519 0.012818
0.539818 0.176730 0.004120
0.560845 0.180880 0.000000
0.581262 0.184848 0.000000
0.601343 0.188479 0.000000
0.619745 0.191867 0.000000
0.638331 0.195651 0.000000
0.656611 0.198947 0.000000
0.674311 0.202365 0.000000
0.690883 0.205356 0.000000
0.708125 0.208560 0.000000
0.724971 0.211368 0.000000
0.741756 0.214542 0.000000
0.758206 0.217685 0.000000
0.775296 0.220859 0.000000
0.792355 0.223911 0.000000
0.809506 0.227176 0.000000
0.825864 0.230137 0.000000
0.842527 0.233433 0.000000
0.858762 0.236332 0.000000
0.874754 0.239384 0.000000
0.889616 0.242222 0.000000
0.904417 0.245060 0.000000
0.918486 0.247990 0.000000
0.932006 0.250797 0.000000
0.945983 0.253605 0.000000
0.960266 0.256718 0.000000
0.976013 0.260166 0.000000
0.993988 0.264683 0.000000
1.000000 0.270359 0.000000
1.000000 0.277867 0.000000
0.048829 0.089693 0.089631
0.048829 0.089693 0.089631
0.048829 0.089693 0.089631
0.048829 0.089693 0.089631
0.048829 0.089693 0.089631
0.048829 0.089693 0.089631
0.048829 0.089693 0.089631
0.068971 0.089693 0.089906
0.091920 0.089448 0.089693
0.104524 0.089937 0.090181
0.114626 0.089693 0.090364
0.124514 0.089723 0.090089
0.134188 0.089601 0.090211
0.143740 0.090578 0.090181
0.153597 0.092134 0.090425
0.163394 0.094240 0.090547
0.174166 0.096223 0.090181
0.185061 0.098299 0.089754
0.196689 0.100526 0.089601
0.208713 0.103059 0.088899
0.221500 0.105989 0.088014
0.237217 0.109468 0.086641
0.258518 0.114046 0.084535
0.280858 0.119478 0.081544
0.304112 0.125002 0.076600
0.327855 0.131044 0.069306
0.351568 0.136812 0.062379
0.375402 0.142153 0.058076
0.399573 0.147677 0.054749
0.423224 0.153140 0.047303
0.446082 0.157839 0.040864
0.469337 0.162753 0.033173
0.492134 0.167453 0.024872
0.514488 0.172152 0.014710
0.535668 0.176303 0.005982
0.556786 0.180392 0.000000
0.577173 0.184482 0.000000
0.597223 0.188235 0.000000
0.615778 0.191806 0.000000
0.634699 0.195346 0.000000
0.652949 0.198734 0.000000
0.671107 0.202274 0.000000
0.688136 0.205295 0.000000
0.705715 0.208255 0.000000
0.722957 0.211490 0.000000
0.739956 0.214694 0.000000
0.756527 0.217533 0.000000
0.773770 0.220890 0.000000
0.790860 0.224186 0.000000
0.807919 0.227298 0.000000
0.824247 0.230076 0.000000
0.840848 0.233249 0.000000
0.856931 0.236484 0.000000
0.872770 0.239322 0.000000
0.887510 0.242313 0.000000
0.902220 0.244907 0.000000
0.916197 0.247654 0.000000
0.929595 0.250462 0.000000
0.943542 0.253330 0.000000
0.957916 0.256443 0.000000
0.973846 0.259983 0.000000
0.992096 0.264378 0.000000
1.000000 0.270115 0.000000
1.000000 0.277653 0.000000
0.048829 0.089693 0.089631
0.048829 0.089693 0.089631
0.048829 0.089693 0.089631
0.048829 0.089693 0.089631
0.048829 0.089693 0.089631
0.048829 0.089693 0.089631
0.048829 0.089693 0.089631
0.070954 0.089601 0.089906
0.092653 0.089357 0.089693
0.104738 0.089479 0.090242
0.114626 0.089693 0.090364
0.124514 0.089723 0.090089
0.133547 0.090150 0.090578
0.143069 0.091554 0.090059
0.152621 0.093172 0.090303
0.162509 0.095247 0.090455
0.172732 0.097353 0.090089
0.183719 0.099397 0.090059
0.195346 0.101259 0.089570
0.207370 0.104189 0.088808
0.220371 0.106661 0.087953
0.236454 0.110323 0.087160
0.257450 0.115328 0.084260
0.279271 0.120363 0.081514
0.302647 0.126070 0.076387
0.326116 0.131777 0.069429
0.349584 0.137392 0.063813
0.373510 0.143191 0.059205
0.397101 0.148379 0.054139
0.420935 0.153780 0.047822
0.443793 0.158541 0.042542
0.466773 0.163272 0.034058
0.489235 0.168185 0.024689
0.511345 0.172763 0.016022
0.532464 0.176822 0.007477
0.553460 0.180911 0.000000
0.574029 0.184817 0.000000
0.593896 0.188907 0.000000
0.612634 0.192142 0.000000
0.631769 0.195773 0.000000
0.650172 0.199130 0.000000
0.668513 0.202579 0.000000
0.686000 0.205783 0.000000
0.703944 0.209201 0.000000
0.721462 0.212161 0.000000
0.738827 0.215274 0.000000
0.755581 0.218235 0.000000
0.772854 0.221592 0.000000
0.789975 0.224735 0.000000
0.806882 0.227787 0.000000
0.823056 0.230655 0.000000
0.839384 0.233555 0.000000
0.855375 0.236545 0.000000
0.871031 0.239658 0.000000
0.885527 0.242405 0.000000
0.899901 0.245365 0.000000
0.913725 0.247959 0.000000
0.927001 0.250370 0.000000
0.940917 0.253330 0.000000
0.955322 0.256443 0.000000
0.971252 0.259922 0.000000
0.989837 0.264134 0.000000
1.000000 0.270207 0.000000
1.000000 0.277806 0.000000
0.048829 0.089693 0.089631
0.048829 0.089693 0.089631
0.048829 0.089693 0.089631
0.048829 0.089693 0.089631
0.048829 0.089693 0.089631
0.048829 0.089693 0.089631
0.052094 0.089967 0.089570
0.076204 0.089784 0.089845
0.093843 0.089631 0.089601
0.105898 0.089326 0.090242
0.115175 0.089601 0.090364
0.123934 0.091066 0.090333
0.133211 0.092317 0.090303
0.142702 0.093721 0.090211
0.151583 0.095369 0.090455
0.162020 0.096895 0.090211
0.172000 0.099092 0.089876
0.183047 0.101015 0.089845
0.194461 0.102937 0.089357
0.206607 0.105379 0.089052
0.219333 0.108309 0.088594
0.237003 0.112062 0.086580
0.257603 0.117067 0.083680
0.279240 0.122042 0.080934
0.301854 0.127687 0.075654
0.325139 0.133364 0.068727
0.348394 0.138827 0.064424
0.371649 0.144411 0.061311
0.395453 0.149722 0.056092
0.418860 0.154910 0.050141
0.441352 0.159884 0.042634
0.464179 0.164523 0.035492
0.486336 0.169100 0.027771
0.508232 0.173648 0.017029
0.529137 0.177737 0.008698
0.550134 0.181888 0.000000
0.570825 0.186099 0.000000
0.590936 0.189639 0.000000
0.609766 0.193179 0.000000
0.629053 0.196902 0.000000
0.647852 0.200198 0.000000
0.666438 0.203677 0.000000
0.684138 0.206638 0.000000
0.702510 0.210086 0.000000
0.720333 0.213107 0.000000
0.738064 0.216373 0.000000
0.754910 0.219516 0.000000
0.772305 0.222538 0.000000
0.789273 0.225803 0.000000
0.806119 0.228611 0.000000
0.822202 0.231571 0.000000
0.838315 0.234257 0.000000
0.854032 0.237461 0.000000
0.869413 0.240360 0.000000
0.883635 0.243076 0.000000
0.897826 0.245762 0.000000
0.911406 0.248447 0.000000
0.924468 0.250919 0.000000
0.938262 0.253666 0.000000
0.952544 0.256626 0.000000
0.968627 0.260075 0.000000
0.987304 0.264439 0.000000
1.000000 0.270329 0.000000
1.000000 0.277989 0.000000
0.048829 0.089693 0.089631
0.048829 0.089693 0.089631
0.048829 0.089693 0.089631
0.048829 0.089693 0.089631
0.048829 0.089693 0.089631
0.048829 0.089693 0.089631
0.057771 0.089723 0.089967
0.081880 0.089448 0.089815
0.096345 0.090578 0.090272
0.106538 0.091310 0.090364
0.115145 0.092958 0.090333
0.124575 0.093874 0.090364
0.133425 0.095064 0.089906
0.142397 0.096468 0.090639
0.151705 0.098024 0.090486
0.161471 0.099641 0.090242
0.171817 0.101625 0.089876
0.182620 0.103609 0.089448
0.194034 0.105470 0.089357
0.206271 0.107851 0.088685
0.218814 0.110689 0.088197
0.238529 0.114931 0.086213
0.258671 0.119570 0.084138
0.279850 0.124819 0.079866
0.301884 0.130220 0.075288
0.324620 0.136233 0.069368
0.347631 0.141146 0.066529
0.370703 0.146761 0.061158
0.394018 0.151980 0.057282
0.417029 0.157290 0.050233
0.439155 0.161837 0.043244
0.461707 0.166415 0.037415
0.483589 0.170932 0.028748
0.505241 0.175296 0.019532
0.525994 0.179324 0.011383
0.547021 0.183352 0.001129
0.567651 0.187625 0.000000
0.588037 0.191379 0.000000
0.607385 0.194797 0.000000
0.626917 0.198520 0.000000
0.646082 0.201907 0.000000
0.664912 0.205356 0.000000
0.683131 0.208560 0.000000
0.701747 0.211826 0.000000
0.719814 0.214939 0.000000
0.737697 0.218326 0.000000
0.754726 0.221347 0.000000
0.772122 0.224338 0.000000
0.789090 0.227420 0.000000
0.805783 0.230076 0.000000
0.821561 0.233097 0.000000
0.837461 0.236179 0.000000
0.852964 0.238834 0.000000
0.868101 0.241550 0.000000
0.882078 0.244114 0.000000
0.896117 0.246830 0.000000
0.909545 0.249332 0.000000
0.922454 0.251713 0.000000
0.936217 0.254612 0.000000
0.950683 0.257359 0.000000
0.966857 0.260960 0.000000
0.985779 0.265232 0.000000
1.000000 0.271244 0.000000
1.000000 0.278782 0.000000
0.049805 0.090059 0.089998
0.049805 0.090059 0.089998
0.049104 0.090517 0.089937
0.050080 0.090883 0.090303
0.049775 0.090883 0.090730
0.050050 0.091676 0.091035
0.063111 0.092805 0.090791
0.086549 0.093721 0.090028
0.098329 0.094820 0.090059
0.106874 0.096071 0.090089
0.115816 0.096742 0.090181
0.124636 0.097688 0.090639
0.133394 0.098909 0.090608
0.142489 0.100191 0.090517
0.151797 0.101656 0.090333
0.162081 0.102754 0.089723
0.172305 0.104677 0.089784
0.182986 0.106905 0.089296
0.194614 0.108675 0.089204
0.206668 0.111238 0.088899
0.222049 0.114717 0.087526
0.240848 0.118929 0.085328
0.260838 0.123598 0.083162
0.281498 0.128725 0.079622
0.303105 0.134005 0.073732
0.325139 0.139498 0.070436
0.347112 0.144686 0.066529
0.369940 0.149783 0.063783
0.392706 0.154910 0.058961
0.415290 0.159976 0.051118
0.437171 0.164553 0.045319
0.459297 0.169100 0.037446
0.481117 0.173648 0.029938
0.502586 0.177584 0.021210
0.523400 0.181918 0.011627
0.544366 0.185794 0.002686
0.565270 0.189761 0.000000
0.585992 0.193759 0.000000
0.605554 0.197360 0.000000
0.625757 0.200687 0.000000
0.645350 0.204349 0.000000
0.664729 0.207736 0.000000
0.683070 0.210941 0.000000
0.701747 0.214237 0.000000
0.719844 0.217258 0.000000
0.737667 0.220523 0.000000
0.754482 0.223301 0.000000
0.771511 0.226230 0.000000
0.788235 0.229465 0.000000
0.804593 0.232334 0.000000
0.820157 0.234897 0.000000
0.835721 0.237644 0.000000
0.851011 0.240330 0.000000
0.865904 0.243107 0.000000
0.879698 0.245640 0.000000
0.893614 0.248112 0.000000
0.907195 0.250614 0.000000
0.920287 0.253025 0.000000
0.934356 0.255802 0.000000
0.949218 0.258762 0.000000
0.965942 0.262333 0.000000
0.985351 0.266819 0.000000
1.000000 0.272984 0.000000
1.000000 0.280766 0.000000
0.050507 0.094850 0.093111
0.051484 0.095186 0.093477
0.052186 0.095521 0.094209
0.050752 0.096345 0.094118
0.052430 0.096254 0.094514
0.055116 0.096529 0.095216
0.058930 0.097536 0.095064
0.075196 0.099519 0.095460
0.097749 0.101228 0.091218
0.108156 0.101472 0.090517
0.116732 0.101778 0.090242
0.125673 0.102296 0.090303
0.134340 0.103395 0.090272
0.143343 0.104646 0.090181
0.152651 0.105653 0.090486
0.162356 0.107118 0.090272
0.172732 0.108583 0.089967
0.183658 0.110628 0.089448
0.194919 0.112703 0.088899
0.207797 0.115236 0.088502
0.225040 0.119173 0.087160
0.243168 0.123262 0.084962
0.262242 0.127932 0.082094
0.282322 0.132967 0.078584
0.302861 0.138125 0.075685
0.323888 0.142885 0.071931
0.345281 0.147921 0.069368
0.367224 0.152865 0.064729
0.389136 0.157900 0.060304
0.411109 0.162997 0.053864
0.432593 0.167086 0.047578
0.453986 0.171664 0.040131
0.475288 0.175814 0.033326
0.496345 0.180209 0.024537
0.516869 0.184146 0.014527
0.537865 0.187961 0.005798
0.558556 0.191867 0.000000
0.579095 0.195499 0.000000
0.598779 0.198856 0.000000
0.619226 0.203006 0.000000
0.639033 0.206394 0.000000
0.658350 0.209751 0.000000
0.676783 0.212741 0.000000
0.695064 0.215976 0.000000
0.712978 0.219120 0.000000
0.730434 0.221988 0.000000
0.746761 0.224796 0.000000
0.763302 0.227604 0.000000
0.779385 0.230320 0.000000
0.795285 0.233036 0.000000
0.809964 0.235477 0.000000
0.825040 0.237919 0.000000
0.839597 0.240513 0.000000
0.853880 0.243137 0.000000
0.867399 0.245396 0.000000
0.881102 0.247776 0.000000
0.894682 0.250156 0.000000
0.908354 0.252445 0.000000
0.921630 0.254978 0.000000
0.935729 0.257816 0.000000
0.950042 0.260410 0.000000
0.964782 0.263523 0.000000
0.979736 0.266606 0.000000
0.995483 0.270207 0.000000
0.053834 0.104738 0.100160
0.053834 0.104738 0.100160
0.053529 0.104738 0.100526
0.055207 0.104677 0.100893
0.056916 0.104616 0.101259
0.057465 0.105257 0.101137
0.065278 0.106020 0.100984
0.075441 0.106966 0.101869
0.088960 0.108919 0.102541
0.105257 0.111635 0.097383
0.121981 0.111727 0.091768
0.133913 0.111391 0.090181
0.143862 0.112062 0.090120
0.153414 0.113252 0.089967
0.164034 0.114382 0.089723
0.174441 0.115969 0.089357
0.185885 0.117464 0.088899
0.197391 0.119509 0.088289
0.209903 0.122499 0.087709
0.229068 0.126589 0.085512
0.249058 0.131502 0.082582
0.269902 0.136751 0.079683
0.291112 0.141909 0.077516
0.313451 0.147036 0.075563
0.335760 0.152499 0.072541
0.358434 0.157687 0.067597
0.381140 0.162692 0.060761
0.403784 0.167544 0.055421
0.426764 0.172274 0.046845
0.449287 0.176669 0.040131
0.470344 0.181094 0.032136
0.491737 0.184970 0.023621
0.512718 0.188968 0.015534
0.533257 0.192966 0.005768
0.552697 0.196170 0.000000
0.572595 0.199893 0.000000
0.591669 0.203037 0.000000
0.610590 0.206302 0.000000
0.627863 0.209323 0.000000
0.645686 0.212161 0.000000
0.662989 0.215091 0.000000
0.679805 0.217929 0.000000
0.695705 0.220279 0.000000
0.712123 0.222995 0.000000
0.728145 0.225589 0.000000
0.744411 0.228061 0.000000
0.760403 0.230930 0.000000
0.777279 0.233646 0.000000
0.794186 0.236393 0.000000
0.811063 0.239231 0.000000
0.827451 0.242161 0.000000
0.844236 0.245243 0.000000
0.860502 0.247868 0.000000
0.876493 0.250584 0.000000
0.891386 0.253330 0.000000
0.906188 0.256077 0.000000
0.920226 0.258824 0.000000
0.933715 0.261265 0.000000
0.947387 0.263890 0.000000
0.961395 0.266667 0.000000
0.976410 0.269963 0.000000
0.993408 0.273869 0.000000
1.000000 0.278935 0.000000
1.000000 0.285191 0.000000
0.058564 0.108797 0.104219
0.059510 0.109682 0.105104
0.061463 0.110262 0.105684
0.060151 0.110597 0.106325
0.063844 0.110445 0.106661
0.065400 0.110750 0.106264
0.069245 0.111574 0.106111
0.078309 0.112215 0.106661
0.085481 0.112795 0.106844
0.093965 0.114839 0.107759
0.109560 0.118532 0.102785
0.127077 0.119326 0.096254
0.143801 0.119203 0.090455
0.154849 0.119203 0.090028
0.165377 0.120272 0.089357
0.175998 0.121706 0.088991
0.186740 0.123201 0.088563
0.199527 0.125917 0.088106
0.216617 0.129641 0.085817
0.234531 0.134066 0.083467
0.253513 0.138705 0.081941
0.273259 0.143526 0.080598
0.293339 0.148135 0.079561
0.314488 0.153506 0.078279
0.336095 0.158083 0.073732
0.357977 0.163272 0.068849
0.379950 0.168154 0.062226
0.402289 0.172580 0.057252
0.424872 0.177493 0.048585
0.447181 0.181857 0.041901
0.468391 0.186099 0.032746
0.489662 0.190097 0.024140
0.510796 0.193790 0.015076
0.531487 0.197635 0.006439
0.550774 0.200839 0.000000
0.570764 0.204440 0.000000
0.590021 0.207584 0.000000
0.609125 0.210971 0.000000
0.626490 0.213748 0.000000
0.644648 0.216709 0.000000
0.661982 0.219455 0.000000
0.679133 0.221927 0.000000
0.695277 0.224704 0.000000
0.711849 0.227481 0.000000
0.728206 0.229923 0.000000
0.744564 0.232639 0.000000
0.760739 0.234989 0.000000
0.777554 0.237858 0.000000
0.794430 0.240574 0.000000
0.811185 0.243320 0.000000
0.827451 0.246036 0.000000
0.843961 0.248600 0.000000
0.860075 0.251316 0.000000
0.875822 0.254032 0.000000
0.890562 0.256718 0.000000
0.905241 0.259220 0.000000
0.919127 0.261631 0.000000
0.932433 0.264164 0.000000
0.946136 0.266697 0.000000
0.960113 0.269291 0.000000
0.975341 0.272587 0.000000
0.992554 0.276493 0.000000
1.000000 0.281651 0.000000
1.000000 0.288182 0.000000
0.065278 0.113191 0.108614
0.064240 0.114107 0.109438
0.067201 0.114290 0.109712
0.067872 0.114565 0.110323
0.069551 0.114504 0.110628
0.068452 0.115145 0.110231
0.071595 0.115663 0.109499
0.077821 0.116060 0.109712
0.084260 0.116945 0.110506
0.090364 0.117708 0.110964
0.097566 0.119692 0.111818
0.114931 0.123995 0.107240
0.131563 0.126070 0.100893
0.149996 0.127230 0.093599
0.164767 0.127413 0.089570
0.176669 0.127749 0.088930
0.191196 0.130922 0.087892
0.206790 0.134493 0.086427
0.222629 0.138003 0.085420
0.239597 0.142336 0.084382
0.257908 0.146670 0.083558
0.276890 0.151217 0.082918
0.296422 0.155764 0.081819
0.316930 0.160525 0.079316
0.338231 0.165255 0.075105
0.360052 0.170108 0.070222
0.381384 0.174685 0.063783
0.403326 0.179171 0.057557
0.425635 0.183902 0.050019
0.447791 0.188266 0.042084
0.468879 0.192050 0.034363
0.490028 0.196048 0.024475
0.510765 0.199893 0.016449
0.531151 0.203433 0.005890
0.550408 0.206668 0.000000
0.570092 0.209873 0.000000
0.589471 0.213138 0.000000
0.608148 0.216129 0.000000
0.625788 0.218692 0.000000
0.643793 0.221530 0.000000
0.661189 0.224277 0.000000
0.678370 0.227024 0.000000
0.694789 0.229374 0.000000
0.711452 0.231907 0.000000
0.728115 0.234714 0.000000
0.744686 0.236973 0.000000
0.760891 0.239597 0.000000
0.777798 0.242222 0.000000
0.794491 0.244755 0.000000
0.811246 0.247440 0.000000
0.827237 0.249943 0.000000
0.843595 0.252873 0.000000
0.859495 0.255436 0.000000
0.875120 0.257908 0.000000
0.889677 0.260349 0.000000
0.904112 0.262791 0.000000
0.917967 0.265324 0.000000
0.931060 0.267399 0.000000
0.944701 0.269932 0.000000
0.958679 0.272587 0.000000
0.973968 0.275639 0.000000
0.991424 0.279667 0.000000
1.000000 0.284703 0.000000
1.000000 0.291417 0.000000
0.069306 0.117159 0.112154
0.068971 0.117708 0.113039
0.071229 0.118196 0.113252
0.072206 0.118471 0.113527
0.071901 0.118441 0.113832
0.072786 0.119020 0.113436
0.072969 0.119326 0.112459
0.079408 0.119966 0.112947
0.084077 0.120577 0.113130
0.089509 0.121401 0.113558
0.094789 0.122103 0.113985
0.101778 0.124208 0.115389
0.119081 0.129274 0.110842
0.137087 0.132937 0.105135
0.157290 0.136263 0.098787
0.179599 0.139162 0.089937
0.196445 0.141573 0.087984
0.213596 0.144137 0.087343
0.228855 0.147494 0.087648
0.245609 0.151400 0.086610
0.262974 0.155459 0.086519
0.281743 0.159792 0.085054
0.300969 0.164187 0.083162
0.321477 0.168856 0.080446
0.342412 0.173587 0.076631
0.363684 0.178164 0.070619
0.385138 0.182376 0.065278
0.406744 0.186923 0.057588
0.428717 0.191592 0.048798
0.450568 0.195743 0.041993
0.471321 0.199527 0.033021
0.492317 0.203311 0.024262
0.512505 0.206760 0.014466
0.532433 0.210147 0.005249
0.551385 0.213107 0.000000
0.570672 0.216342 0.000000
0.589776 0.219089 0.000000
0.608453 0.222171 0.000000
0.625940 0.224735 0.000000
0.643824 0.227176 0.000000
0.661280 0.229801 0.000000
0.678553 0.232639 0.000000
0.694972 0.235111 0.000000
0.712093 0.237430 0.000000
0.728817 0.239872 0.000000
0.745602 0.242496 0.000000
0.761776 0.244816 0.000000
0.778683 0.247257 0.000000
0.795254 0.249973 0.000000
0.811887 0.252537 0.000000
0.827726 0.254948 0.000000
0.843748 0.257389 0.000000
0.859373 0.259983 0.000000
0.874723 0.262150 0.000000
0.888914 0.264622 0.000000
0.903105 0.266941 0.000000
0.916564 0.269078 0.000000
0.929473 0.271153 0.000000
0.943023 0.273442 0.000000
0.956909 0.276127 0.000000
0.972259 0.279026 0.000000
0.989960 0.282933 0.000000
1.000000 0.288212 0.000000
1.000000 0.294896 0.000000
0.072389 0.120668 0.115328
0.072358 0.121218 0.115846
0.074311 0.121706 0.116365
0.074006 0.121706 0.116670
0.075563 0.121950 0.116335
0.076448 0.122469 0.115938
0.075624 0.123079 0.115236
0.080446 0.123445 0.115450
0.085115 0.124025 0.115633
0.089265 0.124880 0.116365
0.093904 0.125582 0.116793
0.099275 0.126986 0.117678
0.107759 0.130312 0.119936
0.127657 0.137758 0.115999
0.147951 0.143130 0.110780
0.169955 0.147829 0.104433
0.194217 0.152224 0.096803
0.215610 0.155489 0.091463
0.233677 0.158175 0.090700
0.251835 0.161349 0.088777
0.269047 0.165347 0.088197
0.287541 0.169467 0.086824
0.306371 0.173648 0.084108
0.326543 0.177951 0.081422
0.347112 0.182498 0.078004
0.368322 0.186862 0.070680
0.389227 0.191287 0.063783
0.410651 0.195377 0.057374
0.432258 0.199802 0.048585
0.453651 0.203799 0.039521
0.473884 0.207218 0.032044
0.494423 0.210971 0.022187
0.514488 0.214084 0.013672
0.533837 0.217411 0.003510
0.552483 0.220066 0.000000
0.571649 0.223178 0.000000
0.590265 0.226017 0.000000
0.608911 0.228885 0.000000
0.626123 0.231296 0.000000
0.644343 0.233951 0.000000
0.661860 0.236362 0.000000
0.679255 0.238651 0.000000
0.696071 0.241184 0.000000
0.713191 0.243626 0.000000
0.730098 0.245945 0.000000
0.746975 0.248508 0.000000
0.763302 0.250736 0.000000
0.780026 0.253086 0.000000
0.796475 0.255558 0.000000
0.812833 0.257908 0.000000
0.828519 0.260227 0.000000
0.844297 0.262425 0.000000
0.859678 0.264897 0.000000
0.874662 0.267247 0.000000
0.888548 0.269291 0.000000
0.902342 0.271427 0.000000
0.915587 0.273381 0.000000
0.928130 0.275212 0.000000
0.941344 0.277501 0.000000
0.955169 0.279911 0.000000
0.970520 0.283055 0.000000
0.988342 0.286595 0.000000
1.000000 0.291997 0.000000
1.000000 0.298802 0.000000
0.076448 0.123781 0.118105
0.077394 0.124544 0.118868
0.077363 0.125063 0.119356
0.078431 0.125307 0.119326
0.077211 0.125856 0.119265
0.078553 0.126101 0.118929
0.079255 0.126619 0.118257
0.080415 0.127352 0.118135
0.085359 0.127657 0.118624
0.089601 0.129458 0.119753
0.094545 0.130831 0.120912
0.100160 0.132845 0.122469
0.106569 0.134737 0.124025
0.116335 0.138766 0.126711
0.137697 0.147036 0.122225
0.159548 0.153628 0.116396
0.183291 0.159091 0.109712
0.208408 0.164492 0.101778
0.234653 0.169467 0.093843
0.253971 0.172610 0.091737
0.275242 0.175723 0.089693
0.293767 0.179568 0.087831
0.312352 0.183383 0.084382
0.332006 0.187839 0.081392
0.352209 0.191897 0.076967
0.372992 0.196262 0.071626
0.393500 0.200412 0.063600
0.414466 0.204593 0.055756
0.435645 0.208377 0.047456
0.456397 0.212161 0.039734
0.476478 0.215671 0.030793
0.496559 0.219059 0.021271
0.516381 0.222202 0.011505
0.535546 0.225132 0.002808
0.553918 0.227878 0.000000
0.572808 0.230594 0.000000
0.591333 0.233310 0.000000
0.609888 0.235966 0.000000
0.627283 0.238102 0.000000
0.645319 0.240696 0.000000
0.663203 0.243351 0.000000
0.680720 0.245579 0.000000
0.697749 0.247776 0.000000
0.715053 0.250309 0.000000
0.732143 0.252537 0.000000
0.748928 0.255039 0.000000
0.765255 0.257267 0.000000
0.781949 0.259403 0.000000
0.798276 0.261723 0.000000
0.814450 0.263981 0.000000
0.829709 0.266087 0.000000
0.845212 0.268345 0.000000
0.860227 0.270573 0.000000
0.874937 0.272618 0.000000
0.888457 0.274388 0.000000
0.902007 0.276371 0.000000
