iCamera/Resource/Lut/FB LUT-Cinematic1.cube
LUT_3D_SIZE 8
0.048829 0.089693 0.089631
0.105104 0.089845 0.090181
0.200809 0.100771 0.089326
0.386419 0.143709 0.056123
0.585962 0.185458 0.000000
0.743282 0.214694 0.000000
0.891569 0.242435 0.000000
1.000000 0.277958 0.000000
0.058564 0.108797 0.104219
0.093965 0.114839 0.107759
0.216617 0.129641 0.085817
0.402289 0.172580 0.057252
0.590021 0.207584 0.000000
0.744564 0.232639 0.000000
0.890562 0.256718 0.000000
1.000000 0.288182 0.000000
0.097353 0.162417 0.151247
0.104097 0.175418 0.155825
0.175051 0.196048 0.168521
0.457252 0.268070 0.043366
0.622126 0.284154 0.000000
0.762356 0.295232 0.000000
0.900481 0.309972 0.000000
1.000000 0.331243 0.000000
0.115206 0.208316 0.189578
0.122286 0.226047 0.200015
0.156924 0.240940 0.204685
0.270634 0.283818 0.232914
0.605158 0.381720 0.092256
0.793759 0.388128 0.000000
0.921508 0.393225 0.000000
1.000000 0.400641 0.000000
0.125917 0.238804 0.214542
0.130709 0.250523 0.221653
0.143832 0.268528 0.225437
0.223423 0.308934 0.254459
0.372656 0.372290 0.301884
0.716701 0.480354 0.206394
0.942046 0.496437 0.108644
1.000000 0.491035 0.146578
0.134127 0.270054 0.239506
0.136385 0.275547 0.242283
0.146883 0.296513 0.250645
0.202304 0.340459 0.277134
0.323430 0.402777 0.326452
0.519493 0.493599 0.406195
0.842649 0.600183 0.360906
1.000000 0.604486 0.271244
0.141329 0.322057 0.278996
0.141390 0.320134 0.276951
0.154177 0.342718 0.288151
0.191379 0.393805 0.312932
0.320012 0.464881 0.371344
0.507897 0.562310 0.460883
0.711116 0.657801 0.572259
0.951171 0.742123 0.564233
0.321691 0.583703 0.497780
0.328923 0.588220 0.502770
0.353979 0.604028 0.513512
0.429603 0.652705 0.547570
0.548547 0.708797 0.598749
0.711116 0.776425 0.681239
0.851408 0.836881 0.759243
0.971649 0.895140 0.816861
0.045106 0.098726 0.108980
0.092988 0.093416 0.113649
0.192935 0.108339 0.114443
0.375280 0.146456 0.115999
0.548821 0.177890 0.093935
0.707637 0.206790 0.015625
0.867857 0.236088 0.000000
1.000000 0.269352 0.000000
0.071168 0.119326 0.114321
0.103243 0.128267 0.125307
0.218601 0.143221 0.125154
0.394018 0.173251 0.116732
0.559869 0.200168 0.092103
0.716945 0.224857 0.010834
0.872526 0.251316 0.000000
1.000000 0.282444 0.000000
0.115297 0.184543 0.173007
0.122316 0.192935 0.179171
0.188937 0.212131 0.186191
0.445136 0.261814 0.115663
0.594507 0.274235 0.082918
0.741665 0.288029 0.000000
0.887510 0.305760 0.000000
1.000000 0.328008 0.000000
0.126589 0.222080 0.203342
0.134493 0.235172 0.212985
0.165316 0.251560 0.217411
0.278843 0.292576 0.243107
0.598627 0.377020 0.122927
0.780636 0.383215 0.008484
0.913207 0.390600 0.001160
1.000000 0.400671 0.091951
0.134157 0.248936 0.224857
0.139742 0.259831 0.232700
0.151400 0.279454 0.236576
0.231296 0.318151 0.264897
0.377203 0.377111 0.308537
0.717830 0.481422 0.220462
0.939544 0.495613 0.148013
1.000000 0.494270 0.181979
0.140780 0.280400 0.248997
0.143862 0.285710 0.252781
0.155398 0.307134 0.261692
0.209201 0.349065 0.285863
0.329290 0.408850 0.333959
0.525353 0.499306 0.413489
0.843229 0.601709 0.368780
1.000000 0.610712 0.298497
0.148135 0.334630 0.289250
0.148684 0.333410 0.288853
0.161501 0.352972 0.298344
0.196933 0.401587 0.320592
0.325231 0.470924 0.377844
0.513573 0.567651 0.467689
0.712856 0.659876 0.575586
0.955383 0.747982 0.574304
0.339757 0.597833 0.511101
0.359350 0.610864 0.524773
0.370489 0.615167 0.526726
0.437263 0.657038 0.554314
0.551751 0.712184 0.603021
0.713954 0.779294 0.685145
0.851957 0.837797 0.760739
0.972381 0.896178 0.818326
0.022522 0.141421 0.175082
0.059724 0.134798 0.178775
0.173159 0.140108 0.198550
0.356725 0.124788 0.223789
0.524010 0.135012 0.178714
0.693111 0.189761 0.170932
0.860868 0.227268 0.165011
1.000000 0.268833 0.177310
0.070741 0.170047 0.190372
0.104555 0.176089 0.204166
0.191257 0.170260 0.215366
0.378454 0.142367 0.213718
0.530449 0.179995 0.184604
0.702235 0.212863 0.175051
0.865232 0.243992 0.166995
1.000000 0.282780 0.181399
0.137484 0.236393 0.214664
0.166018 0.255833 0.234379
0.234897 0.258915 0.243412
0.409705 0.257603 0.215946
0.564233 0.264225 0.194766
0.727962 0.282322 0.181308
0.879332 0.302739 0.175967
1.000000 0.331151 0.192844
0.177188 0.283391 0.260014
0.190860 0.296941 0.274540
0.193606 0.287175 0.262486
0.313359 0.328893 0.286107
0.605890 0.378729 0.215854
0.768582 0.383978 0.200748
0.904936 0.393286 0.201602
1.000000 0.408118 0.220188
0.173404 0.298924 0.270451
0.181247 0.307683 0.279271
0.185702 0.305608 0.274418
0.254459 0.344762 0.299565
0.405341 0.405005 0.342687
0.738277 0.496468 0.281926
0.937591 0.502464 0.256046
1.000000 0.504448 0.274022
0.172244 0.322362 0.286412
0.175723 0.325628 0.289982
0.179812 0.324041 0.287083
0.224430 0.366278 0.308629
0.347601 0.428412 0.360754
0.549554 0.522362 0.442725
0.853330 0.613550 0.406073
1.000000 0.621820 0.367315
0.173953 0.368048 0.318242
0.174990 0.367803 0.318547
0.174441 0.357794 0.311192
0.211978 0.406622 0.335729
0.332616 0.480476 0.392401
0.525750 0.580255 0.486732
0.721431 0.669551 0.589776
0.960815 0.756191 0.592554
0.367712 0.617639 0.529778
0.385748 0.628962 0.542138
0.376379 0.617700 0.533898
0.432349 0.651240 0.556481
0.546532 0.713252 0.606195
0.714473 0.782681 0.690913
0.853361 0.840879 0.766110
0.974517 0.899474 0.823270
0.000000 0.236667 0.325078
0.000000 0.234592 0.333013
0.168490 0.210788 0.339544
0.301884 0.194491 0.324254
0.461677 0.194827 0.342718
0.695827 0.000000 0.308537
0.851408 0.173098 0.283879
1.000000 0.286046 0.315648
0.000000 0.276249 0.351568
0.010651 0.281773 0.366461
0.185702 0.240146 0.353277
0.309758 0.214817 0.329992
0.477058 0.206241 0.344549
0.701015 0.000000 0.299626
0.847807 0.228946 0.290776
1.000000 0.300908 0.319493
0.100618 0.338018 0.361517
0.163302 0.359258 0.387060
0.236576 0.325200 0.371374
0.338415 0.287877 0.349615
0.534600 0.249363 0.330724
0.701076 0.282780 0.306554
0.859007 0.309026 0.307286
1.000000 0.349096 0.327703
0.209384 0.363195 0.322820
0.246036 0.391485 0.350439
0.289097 0.385962 0.360632
0.380407 0.390143 0.365759
0.575799 0.387488 0.340887
0.742061 0.398322 0.337652
0.885039 0.406836 0.334264
1.000000 0.428809 0.349706
0.272770 0.405310 0.366918
0.298863 0.424720 0.388952
0.285130 0.395972 0.370611
0.300328 0.393133 0.363897
0.462348 0.459205 0.408728
0.769680 0.522850 0.385473
0.918181 0.520317 0.380072
1.000000 0.527398 0.391547
0.261601 0.415381 0.372168
0.268711 0.421607 0.378882
0.255589 0.397650 0.361486
0.261204 0.394720 0.353857
0.382177 0.464851 0.410529
0.590143 0.561883 0.494057
0.872007 0.634394 0.468391
1.000000 0.641749 0.464607
0.244724 0.443854 0.385229
0.247288 0.445777 0.387549
0.235264 0.424018 0.371649
0.232883 0.408881 0.358068
0.339086 0.493751 0.415106
0.540764 0.597894 0.516411
0.735775 0.686091 0.614252
0.972015 0.770413 0.623194
0.425635 0.656001 0.567285
0.439185 0.663966 0.576532
0.427802 0.652705 0.567803
0.419989 0.639063 0.559991
0.534447 0.711269 0.611658
0.709071 0.785733 0.697597
0.854154 0.845518 0.774594
0.978424 0.905364 0.832059
0.000000 0.383154 0.522454
0.000000 0.376989 0.519738
0.108919 0.322423 0.499977
0.302403 0.276158 0.462104
0.433509 0.252750 0.444068
0.609125 0.291051 0.479988
0.822599 0.236606 0.478767
1.000000 0.222141 0.454170
0.000000 0.393774 0.513298
0.042512 0.402380 0.527886
0.164981 0.347234 0.502403
0.309331 0.293675 0.464881
0.440162 0.269841 0.448585
0.612726 0.307744 0.482368
0.824765 0.246677 0.474189
1.000000 0.241764 0.450813
0.184451 0.445655 0.515038
0.230228 0.460670 0.533806
0.276158 0.424384 0.510002
0.335119 0.356573 0.476387
0.462409 0.331365 0.462531
0.642451 0.354192 0.490791
0.844022 0.293736 0.461250
0.998657 0.339025 0.454597
0.224094 0.483223 0.491493
0.273594 0.505791 0.515709
0.331945 0.490303 0.508049
0.384985 0.449928 0.492531
0.500847 0.432959 0.486610
0.706691 0.413886 0.479866
0.846983 0.423407 0.457710
0.993408 0.461555 0.476173
0.324285 0.494514 0.441810
0.355535 0.514977 0.462776
0.384955 0.512139 0.466712
0.431403 0.506035 0.486275
0.548028 0.533532 0.505577
0.750484 0.545922 0.505272
0.884092 0.539055 0.492805
1.000000 0.550164 0.500084
0.389014 0.541405 0.480415
0.407843 0.553063 0.494697
0.419043 0.543664 0.497932
0.403662 0.509636 0.479255
0.428717 0.513909 0.478859
0.642023 0.614343 0.564538
0.900816 0.662318 0.551751
1.000000 0.667781 0.563348
0.415473 0.582177 0.516960
0.418372 0.584222 0.519585
0.392981 0.560693 0.499428
0.351873 0.515770 0.463355
0.348791 0.500542 0.445930
0.552483 0.616602 0.552361
0.757473 0.710994 0.650416
0.991394 0.791165 0.667109
0.527031 0.720272 0.632532
0.532738 0.723598 0.636805
0.525536 0.716121 0.631739
0.518151 0.705287 0.626246
0.522515 0.697658 0.624292
0.689876 0.786007 0.702174
0.853574 0.852354 0.787106
0.984710 0.915190 0.846769
0.171237 0.500481 0.650996
0.198306 0.495064 0.647700
0.240177 0.463539 0.636896
0.323705 0.411872 0.622309
0.468910 0.370397 0.602167
0.609491 0.353460 0.595697
0.750240 0.397620 0.609552
0.928099 0.451240 0.646815
0.201450 0.505303 0.643732
0.241489 0.510185 0.650324
0.273625 0.479316 0.637537
0.337621 0.427527 0.624994
0.474311 0.384253 0.604334
0.611261 0.365362 0.596246
0.748440 0.406317 0.608301
0.929778 0.455329 0.645594
0.297887 0.545098 0.644739
0.329747 0.553552 0.654383
0.362921 0.533959 0.643885
0.386419 0.482368 0.634180
0.495155 0.436683 0.613062
0.624201 0.414588 0.603662
0.753750 0.450874 0.614252
0.940459 0.476844 0.643824
0.367407 0.593133 0.641779
0.403815 0.606439 0.655299
0.449897 0.602167 0.655726
0.487861 0.576593 0.646601
0.530907 0.518486 0.627192
0.646662 0.494942 0.617426
0.775021 0.516289 0.627619
0.963745 0.510399 0.635248
0.396063 0.633539 0.627588
0.427619 0.645441 0.640589
0.466468 0.642847 0.643122
0.534722 0.642664 0.652979
0.580560 0.613275 0.648707
0.674952 0.591852 0.638209
0.837522 0.568475 0.625788
0.983093 0.580804 0.623072
0.481727 0.642115 0.583673
0.502800 0.653132 0.596582
0.526513 0.656519 0.604303
0.572107 0.665126 0.621485
0.618524 0.664271 0.643091
0.717525 0.685603 0.661524
0.883207 0.689387 0.658015
1.000000 0.697780 0.664607
0.563256 0.707485 0.627253
0.575708 0.713985 0.636469
0.585321 0.711421 0.641779
0.601831 0.704677 0.650477
0.585046 0.668147 0.632013
0.563439 0.637659 0.596918
0.796170 0.754726 0.710842
1.000000 0.821347 0.733974
0.683589 0.819120 0.739010
0.689082 0.821836 0.743191
0.691371 0.818723 0.744228
0.693080 0.811215 0.744381
0.652216 0.784543 0.717617
0.650355 0.771969 0.705409
0.849180 0.862028 0.804746
0.994202 0.931029 0.870726
0.460700 0.648432 0.781521
0.469642 0.647364 0.781216
0.492744 0.638331 0.779660
0.497230 0.600977 0.775326
0.558465 0.563867 0.762570
0.648493 0.505852 0.739834
0.768734 0.494301 0.735988
0.887846 0.557671 0.753017
0.470741 0.654017 0.780453
0.491279 0.660182 0.785916
0.512596 0.650660 0.782467
0.513207 0.613184 0.777279
0.564935 0.573114 0.763577
0.650172 0.513603 0.739803
0.769009 0.501457 0.735866
0.889647 0.566491 0.755367
0.515190 0.682612 0.784726
0.535637 0.690089 0.791409
0.555200 0.682429 0.788052
0.563867 0.653712 0.782254
0.589471 0.607721 0.768215
0.660914 0.548150 0.743282
0.774289 0.533379 0.739132
0.893370 0.594995 0.761013
0.571527 0.725246 0.792264
0.590784 0.733211 0.799680
0.605707 0.726894 0.797024
0.631800 0.712764 0.791806
0.629755 0.663325 0.778531
0.680476 0.604700 0.752041
0.785245 0.585199 0.746670
0.901274 0.640803 0.771420
0.592340 0.759792 0.788754
0.613031 0.768429 0.797513
0.635126 0.767605 0.799893
0.676081 0.766964 0.805661
0.697353 0.740749 0.794369
0.707424 0.675837 0.767819
0.801816 0.650538 0.759121
0.915526 0.701747 0.788724
0.612238 0.798581 0.785000
0.630976 0.806149 0.793606
0.650080 0.805509 0.796262
0.684627 0.803616 0.800870
0.729122 0.797665 0.805173
0.756100 0.766384 0.795651
0.825467 0.736538 0.780606
0.971710 0.749905 0.800076
0.674281 0.803464 0.749233
0.687465 0.810330 0.757656
0.699672 0.811582 0.761715
0.722316 0.813687 0.769070
0.752316 0.814633 0.777890
0.787259 0.812741 0.789670
0.866484 0.831601 0.814115
1.000000 0.856687 0.834806
0.781643 0.894255 0.811948
0.786618 0.896910 0.816068
0.792020 0.897215 0.820157
0.801572 0.897185 0.827420
0.812680 0.894041 0.835447
0.821225 0.881621 0.840238
0.822446 0.871580 0.825864
1.000000 0.955657 0.913664
0.691127 0.794705 0.897215
0.695033 0.794583 0.897276
0.711849 0.794553 0.898039
0.715908 0.779629 0.898558
0.728878 0.756954 0.898466
0.774228 0.736202 0.895140
0.839414 0.697475 0.888090
0.929961 0.699733 0.893034
0.691432 0.795865 0.895995
0.695827 0.796078 0.896300
0.711391 0.795285 0.896574
0.718288 0.782101 0.897398
0.729763 0.759091 0.897704
0.774838 0.738827 0.894713
0.838773 0.699489 0.887297
0.929625 0.701717 0.892607
0.703548 0.808469 0.897734
0.708186 0.808988 0.898344
0.722683 0.808164 0.898711
0.739528 0.801328 0.899962
0.742977 0.775692 0.900420
0.782834 0.755032 0.897154
0.842130 0.715053 0.889128
0.931823 0.715358 0.894591
0.719448 0.829648 0.901579
0.724605 0.830686 0.902617
0.738613 0.830198 0.903319
0.764828 0.829557 0.905547
0.774258 0.810941 0.906340
0.797635 0.784665 0.903319
0.849607 0.744961 0.894896
0.937285 0.741146 0.900053
0.727443 0.854917 0.904387
0.732204 0.855833 0.905730
0.745266 0.855528 0.907744
0.776761 0.857755 0.912413
0.810941 0.855650 0.915953
0.818540 0.825772 0.914427
0.861814 0.788724 0.906126
0.947784 0.780270 0.910918
0.747066 0.890288 0.908721
0.750546 0.890593 0.909575
0.762325 0.890532 0.911803
0.786740 0.891264 0.917113
0.823148 0.892454 0.925536
0.864225 0.889220 0.932036
0.882902 0.849912 0.926146
0.962066 0.830381 0.926360
0.777249 0.936584 0.921386
0.779294 0.936431 0.921721
0.789548 0.936522 0.923949
0.810330 0.937163 0.928862
0.841306 0.937652 0.936217
0.883879 0.938933 0.947234
0.925475 0.933104 0.956481
0.980224 0.899535 0.948974
0.835233 0.953338 0.905577
0.835966 0.953094 0.905608
0.842374 0.954131 0.908232
0.855955 0.956725 0.914153
0.878355 0.961120 0.924224
0.911772 0.969421 0.940826
0.955749 0.981933 0.964599
1.000000 1.000000 1.000000
