iCamera/Resource/Lut/FB LUT-Cinematic1.cube
LUT_3D_SIZE 4
0.048829 0.089693 0.089631
0.241794 0.109529 0.086732
0.693507 0.205600 0.000000
1.000000 0.277958 0.000000
0.103304 0.176730 0.163272
0.204929 0.224216 0.189181
0.725795 0.320897 0.000000
1.000000 0.352270 0.000000
0.132418 0.259892 0.231601
0.155001 0.298466 0.246616
0.470710 0.453803 0.370916
1.000000 0.571191 0.247074
0.321691 0.583703 0.497780
0.375769 0.618585 0.523705
0.657313 0.753628 0.652827
0.971649 0.895140 0.816861
0.000000 0.162539 0.209384
0.217288 0.159640 0.242832
0.630152 0.136843 0.203769
1.000000 0.270481 0.222629
0.154482 0.273289 0.245426
0.280247 0.300694 0.281559
0.678584 0.308476 0.231479
1.000000 0.357610 0.242863
0.196506 0.340642 0.305211
0.208042 0.342870 0.306065
0.514702 0.496101 0.424445
1.000000 0.593072 0.379309
0.383185 0.628138 0.539971
0.387518 0.622766 0.540276
0.659113 0.761379 0.665095
0.975647 0.901152 0.825742
0.000000 0.462440 0.612116
0.199893 0.390051 0.584985
0.551385 0.316991 0.546105
0.960540 0.381689 0.593896
0.277317 0.522484 0.596582
0.366918 0.505638 0.596704
0.576898 0.408576 0.560082
0.973449 0.417182 0.574517
0.432929 0.599115 0.540887
0.492561 0.611933 0.563439
0.669612 0.642054 0.616663
1.000000 0.652094 0.614649
0.643458 0.788479 0.709377
0.637018 0.781491 0.705684
0.606989 0.747250 0.678065
0.990661 0.924956 0.861448
0.691127 0.794705 0.897215
0.714107 0.791196 0.898222
0.757198 0.744564 0.896513
0.929961 0.699733 0.893034
0.706722 0.813321 0.897673
0.735714 0.814542 0.900542
0.769345 0.768734 0.898009
0.930907 0.718990 0.893553
0.744656 0.880369 0.909361
0.767788 0.881102 0.914122
0.848875 0.879850 0.928252
0.959075 0.815763 0.923186
0.835233 0.953338 0.905577
0.846036 0.954833 0.909819
0.899413 0.966278 0.934539
1.000000 1.000000 1.000000
