iCamera/Resource/Lut/From_SLog2SGumut_To_SLog2-709_.cube
LUT_3D_SIZE 5
0.000000 0.000000 0.000000
0.362423 0.011112 0.044602
0.725514 0.021571 0.076230
0.969407 0.030592 0.145207
0.965673 0.034327 0.299880
0.000778 0.287026 0.000326
0.250166 0.271145 0.000464
0.707821 0.213965 0.001324
0.972365 0.027635 0.077409
0.966656 0.033344 0.245762
0.001568 0.574060 0.000659
0.001548 0.568447 0.000651
0.501208 0.543189 0.000934
0.998138 0.453770 0.001862
0.998138 0.394980 0.001862
0.002367 0.861097 0.000988
0.002356 0.857929 0.000984
0.002309 0.844188 0.000963
0.751834 0.814785 0.001407
0.998192 0.747677 0.001808
0.002747 0.998856 0.001144
0.002747 0.998856 0.001144
0.002747 0.998856 0.001144
0.002747 0.998856 0.001144
0.996484 0.992502 0.001740
0.029476 0.000000 0.278601
0.359164 0.014684 0.282114
0.720222 0.026981 0.307335
0.964966 0.035034 0.344289
0.964094 0.035906 0.399747
0.000025 0.266820 0.243671
0.249989 0.249989 0.249989
0.692917 0.160035 0.225330
0.965555 0.034444 0.307252
0.964411 0.035589 0.380483
0.001542 0.566694 0.000648
0.001524 0.560978 0.000640
0.501390 0.535227 0.000922
0.998408 0.491745 0.147422
0.999669 0.437462 0.264882
0.002353 0.856946 0.000982
0.002342 0.853756 0.000977
0.002296 0.839917 0.000959
0.751937 0.810299 0.001402
0.998190 0.742432 0.001810
0.002747 0.998856 0.001144
0.002747 0.998856 0.001144
0.002747 0.998856 0.001144
0.002747 0.998856 0.001144
0.996548 0.992486 0.001740
0.058952 0.000000 0.557216
0.378113 0.000000 0.559338
0.718317 0.029394 0.564665
0.961387 0.038612 0.574285
0.961147 0.038853 0.598871
0.000000 0.127787 0.544823
0.254662 0.062688 0.547729
0.681910 0.027909 0.554775
0.961511 0.038489 0.563666
0.961237 0.038763 0.588903
0.000047 0.534105 0.487813
0.000038 0.527791 0.490311
0.499992 0.499992 0.499992
0.982966 0.452323 0.466801
0.974719 0.312655 0.552706
0.000629 0.839185 0.321173
0.000621 0.835901 0.325745
0.000589 0.821643 0.344365
0.750732 0.791373 0.378713
0.998937 0.717886 0.425822
0.002747 0.998856 0.001144
0.002747 0.998856 0.001144
0.002747 0.998856 0.001144
0.002747 0.998856 0.001144
0.996821 0.992419 0.001740
0.088437 0.000000 0.835833
0.382182 0.000000 0.837037
0.745825 0.000000 0.842163
0.961217 0.038783 0.851204
0.962214 0.037786 0.866775
0.003986 0.000000 0.828876
0.261191 0.000000 0.830095
0.711352 0.000000 0.835281
0.960798 0.039203 0.844653
0.961805 0.038195 0.860395
0.000000 0.452901 0.798148
0.000000 0.445064 0.799432
0.503478 0.411755 0.805439
0.973345 0.348172 0.808809
0.960678 0.039323 0.832322
0.000074 0.801161 0.731732
0.000067 0.797652 0.733201
0.000035 0.782388 0.739445
0.749996 0.749996 0.749996
0.990290 0.703352 0.748911
0.000498 0.999502 0.598361
0.000495 0.999504 0.600294
0.000483 0.999516 0.608469
0.000460 0.999540 0.624615
0.998366 0.997283 0.648799
0.117362 0.000000 1.000000
0.387256 0.000000 1.000000
0.755624 0.000000 1.000000
0.978805 0.001022 0.998978
0.978805 0.001022 0.998978
0.004822 0.000000 1.000000
0.269229 0.000000 1.000000
0.717955 0.000000 1.000000
0.978805 0.001022 0.998978
0.978805 0.001022 0.998978
0.000000 0.256013 1.000000
0.000000 0.238235 1.000000
0.509163 0.126824 1.000000
0.978805 0.001022 0.998978
0.978805 0.001022 0.998978
0.000000 0.730143 1.000000
0.000000 0.726153 1.000000
0.000000 0.708718 1.000000
0.753266 0.674844 1.000000
0.991702 0.608793 0.999603
0.000013 0.999619 0.975414
0.000013 0.999542 0.976313
0.000011 0.999214 0.980144
0.000006 0.998553 0.987856
1.000000 1.000000 1.000000
