iCamera/Resource/Lut/From_SLog2SGumut_To_SLog2-709_.cube
LUT_3D_SIZE 33
0.000000 0.000000 0.000000
0.046207 0.004752 0.009800
0.091319 0.006777 0.019399
0.136132 0.004965 0.016609
0.181221 0.005538 0.024627
0.225848 0.007605 0.032809
0.271667 0.008481 0.031001
0.317401 0.009440 0.037157
0.362423 0.011112 0.044602
0.407696 0.012532 0.046077
0.453441 0.013481 0.049771
0.498686 0.014929 0.057143
0.543909 0.016400 0.059960
0.589467 0.017536 0.062989
0.634751 0.018946 0.070098
0.680072 0.020319 0.074022
0.725514 0.021571 0.076230
0.770811 0.022968 0.083547
0.816137 0.024334 0.087842
0.861555 0.025611 0.089998
0.906857 0.027002 0.097034
0.952188 0.028364 0.101902
0.970739 0.029260 0.110117
0.970081 0.029918 0.127066
0.969407 0.030592 0.145207
0.968734 0.031266 0.163348
0.968158 0.031842 0.183140
0.967638 0.032362 0.203866
0.967118 0.032881 0.224592
0.966680 0.033320 0.244455
0.966333 0.033667 0.263337
0.965986 0.034013 0.282220
0.965673 0.034327 0.299880
0.000092 0.035868 0.000037
0.031133 0.033763 0.000064
0.088511 0.028013 0.000119
0.134311 0.007661 0.013811
0.179673 0.005342 0.018961
0.224613 0.007567 0.030023
0.270604 0.008558 0.029807
0.316715 0.009333 0.034518
0.361841 0.011036 0.043018
0.407140 0.012530 0.045233
0.453028 0.013413 0.048187
0.498324 0.014871 0.056052
0.543570 0.016367 0.059285
0.589183 0.017487 0.061900
0.634494 0.018903 0.069298
0.679834 0.020284 0.073455
0.725302 0.021534 0.075428
0.770615 0.022934 0.082919
0.815955 0.024306 0.087375
0.861381 0.025589 0.089648
0.906702 0.026976 0.096530
0.952042 0.028341 0.101503
0.970758 0.029242 0.109741
0.970101 0.029898 0.126528
0.969426 0.030573 0.144700
0.968751 0.031248 0.162869
0.968171 0.031829 0.182622
0.967651 0.032349 0.203375
0.967130 0.032870 0.224125
0.966687 0.033313 0.244050
0.966340 0.033660 0.262951
0.965993 0.034006 0.281851
0.965677 0.034322 0.299604
0.000206 0.071741 0.000085
0.000204 0.071039 0.000085
0.062329 0.067562 0.000115
0.125075 0.056826 0.000230
0.176944 0.054589 0.000331
0.219316 0.007302 0.013064
0.265986 0.008906 0.023298
0.313449 0.009405 0.025042
0.359362 0.010683 0.035532
0.404767 0.012506 0.041301
0.451222 0.013154 0.041457
0.496777 0.014612 0.051174
0.542121 0.016218 0.056271
0.587936 0.017306 0.057475
0.633395 0.018715 0.065789
0.678817 0.020134 0.070969
0.724346 0.021423 0.072916
0.769780 0.022790 0.080195
0.815173 0.024183 0.085348
0.860638 0.025494 0.088129
0.906037 0.026861 0.094349
0.951414 0.028240 0.099781
0.970838 0.029161 0.108123
0.970187 0.029813 0.124214
0.969507 0.030493 0.142521
0.968828 0.031172 0.160813
0.968227 0.031773 0.180398
0.967704 0.032296 0.201266
0.967180 0.032819 0.222122
0.966719 0.033281 0.242313
0.966371 0.033629 0.261295
0.966022 0.033977 0.280270
0.965696 0.034303 0.298420
0.000294 0.107627 0.000120
0.000293 0.107231 0.000120
0.000288 0.105512 0.000118
0.093546 0.101407 0.000180
0.159599 0.090000 0.000296
0.214289 0.086538 0.000404
0.265418 0.080251 0.000502
0.315798 0.063899 0.031555
0.353658 0.011733 0.021423
0.399988 0.012357 0.031297
0.446468 0.013672 0.036468
0.493653 0.014040 0.040057
0.539203 0.015872 0.049445
0.584989 0.017339 0.053370
0.631168 0.018319 0.058203
0.676758 0.019813 0.065625
0.722328 0.021269 0.069352
0.768085 0.022490 0.074445
0.813589 0.023928 0.081074
0.859132 0.025294 0.084940
0.904688 0.026623 0.089803
0.950142 0.028031 0.096198
0.971004 0.028996 0.104793
0.970364 0.029636 0.119458
0.969673 0.030326 0.138048
0.968985 0.031015 0.156595
0.968341 0.031659 0.175843
0.967812 0.032188 0.196950
0.967283 0.032717 0.218024
0.966784 0.033216 0.238762
0.966433 0.033567 0.257911
0.966081 0.033918 0.277040
0.965735 0.034265 0.296003
0.000400 0.143503 0.000165
0.000399 0.143239 0.000164
0.000395 0.142100 0.000163
0.000387 0.139747 0.000159
0.124809 0.135291 0.000230
0.193079 0.124515 0.000347
0.250165 0.114136 0.000460
0.303075 0.116248 0.000563
0.353903 0.107147 0.000662
0.408613 0.112577 0.039173
0.438744 0.014509 0.024896
0.486535 0.015171 0.031299
0.534628 0.015170 0.036073
0.580322 0.017306 0.045597
0.626979 0.018282 0.049408
0.673490 0.019252 0.056149
0.719132 0.020973 0.063052
0.765229 0.022143 0.066142
0.811062 0.023500 0.073779
0.856738 0.024952 0.079526
0.902506 0.026261 0.082646
0.948110 0.027687 0.090217
0.971275 0.028725 0.099339
0.970649 0.029350 0.111933
0.969944 0.030056 0.130758
0.969239 0.030760 0.149732
0.968538 0.031462 0.168626
0.967987 0.032013 0.189950
0.967450 0.032550 0.211386
0.966914 0.033086 0.232762
0.966533 0.033467 0.252441
0.966177 0.033822 0.271823
0.965822 0.034177 0.291167
0.000500 0.179383 0.000206
0.000499 0.179190 0.000206
0.000497 0.178359 0.000205
0.000493 0.176655 0.000203
0.000486 0.173881 0.000201
0.156095 0.169202 0.000295
0.225923 0.159073 0.000412
0.285037 0.145876 0.000527
0.339582 0.143977 0.000634
0.391707 0.145473 0.000736
0.442376 0.134520 0.000833
0.496661 0.144519 0.043496
0.524405 0.017774 0.025471
0.573266 0.017787 0.032647
0.620140 0.019050 0.041318
0.667791 0.019461 0.045540
0.714673 0.020430 0.052583
0.760589 0.022200 0.059417
0.807468 0.022873 0.062453
0.853369 0.024414 0.071095
0.899109 0.026025 0.076707
0.945235 0.027174 0.081144
0.971675 0.028325 0.091294
0.971022 0.028978 0.104439
0.970340 0.029659 0.120087
0.969611 0.030388 0.139718
0.968888 0.031112 0.159199
0.968242 0.031758 0.179783
0.967691 0.032309 0.201765
0.967142 0.032857 0.223635
0.966678 0.033322 0.244538
0.966315 0.033684 0.264296
0.965954 0.034046 0.283986
0.000587 0.215269 0.000241
0.000587 0.215119 0.000241
0.000585 0.214477 0.000240
0.000582 0.213163 0.000239
0.000577 0.211040 0.000237
0.060988 0.207916 0.000288
0.187423 0.203147 0.000345
0.258373 0.193438 0.000470
0.319214 0.179889 0.000592
0.375242 0.171183 0.000703
0.428602 0.175226 0.000801
0.480295 0.174296 0.000894
0.530862 0.161065 0.000993
0.584213 0.172178 0.047254
0.628529 0.128092 0.066979
0.658291 0.021596 0.036721
0.706829 0.021580 0.042157
0.754529 0.022135 0.048594
0.801074 0.023632 0.055683
0.848811 0.023762 0.058978
0.894683 0.025613 0.067772
0.940833 0.027066 0.073128
0.972235 0.027765 0.080033
0.971539 0.028460 0.094021
0.970857 0.029143 0.107758
0.970123 0.029876 0.125936
0.969368 0.030632 0.146277
0.968621 0.031379 0.166394
0.968020 0.031980 0.188658
0.967454 0.032546 0.211234
0.966891 0.033109 0.233647
0.966502 0.033497 0.254111
0.966132 0.033868 0.274286
0.000690 0.251140 0.000291
0.000690 0.251019 0.000291
0.000689 0.250502 0.000291
0.000686 0.249447 0.000290
0.000681 0.247747 0.000287
0.000674 0.245304 0.000283
0.108954 0.241933 0.000362
0.218778 0.237125 0.000410
0.290555 0.227675 0.000523
0.352887 0.214379 0.000645
0.410262 0.202087 0.000757
0.464767 0.200962 0.000864
0.517432 0.205966 0.000967
0.568835 0.201589 0.001067
0.619333 0.187316 0.001166
0.671607 0.197233 0.050187
0.728539 0.186848 0.073795
0.743892 0.024936 0.037932
0.792744 0.024764 0.044911
0.840323 0.025604 0.052152
0.888519 0.025613 0.056449
0.935031 0.027127 0.064176
0.972049 0.027950 0.070113
0.972241 0.027759 0.079904
0.971503 0.028496 0.094744
0.970784 0.029216 0.109218
0.970004 0.029996 0.129145
0.969216 0.030784 0.150356
0.968452 0.031548 0.171441
0.967861 0.032139 0.195005
0.967276 0.032724 0.218303
0.966746 0.033254 0.240861
0.966363 0.033637 0.261696
0.000778 0.287026 0.000326
0.000778 0.286926 0.000326
0.000777 0.286497 0.000326
0.000774 0.285623 0.000325
0.000771 0.284218 0.000324
0.000766 0.282205 0.000322
0.000760 0.279510 0.000319
0.147244 0.275941 0.000426
0.250166 0.271145 0.000464
0.322537 0.261813 0.000580
0.386158 0.249107 0.000710
0.444752 0.235588 0.000825
0.500332 0.227895 0.000933
0.553931 0.232621 0.001038
0.606156 0.236140 0.001133
0.657373 0.228735 0.001225
0.707821 0.213965 0.001324
0.758565 0.219276 0.052579
0.819834 0.234390 0.075767
0.835017 0.103261 0.078286
0.877885 0.028637 0.048667
0.926576 0.028504 0.054066
0.971089 0.028911 0.060542
0.971879 0.028121 0.068409
0.972365 0.027635 0.077409
0.971574 0.028426 0.093322
0.970809 0.029190 0.108712
0.969988 0.030012 0.129581
0.969161 0.030839 0.151851
0.968382 0.031618 0.174221
0.967767 0.032233 0.198742
0.967161 0.032839 0.222903
0.966656 0.033344 0.245762
0.000876 0.322906 0.000367
0.000876 0.322821 0.000367
0.000875 0.322458 0.000366
0.000872 0.321718 0.000365
0.000868 0.320530 0.000363
0.000862 0.318833 0.000361
0.000854 0.316565 0.000357
0.000844 0.313668 0.000353
0.182638 0.309941 0.000483
0.281581 0.305184 0.000524
0.354372 0.295894 0.000638
0.419130 0.283834 0.000768
0.478833 0.269702 0.000884
0.535422 0.258525 0.000988
0.589911 0.257504 0.001094
0.642914 0.264370 0.001197
0.694817 0.264665 0.001299
0.745882 0.256050 0.001399
0.796293 0.241097 0.001497
0.846567 0.240923 0.052902
0.908033 0.269250 0.080222
0.943893 0.180278 0.100878
0.963374 0.032097 0.050262
0.970474 0.029525 0.056845
0.971570 0.028430 0.065331
0.972396 0.027604 0.073565
0.971762 0.028238 0.089547
0.970940 0.029060 0.106081
0.970082 0.029918 0.127058
0.969207 0.030793 0.150614
0.968385 0.031615 0.174096
0.967741 0.032259 0.199759
0.967110 0.032890 0.224940
0.000984 0.358781 0.000412
0.000984 0.358708 0.000412
0.000983 0.358395 0.000411
0.000981 0.357756 0.000411
0.000979 0.356733 0.000410
0.000975 0.355272 0.000408
0.000970 0.353324 0.000406
0.000964 0.350843 0.000404
0.000957 0.347778 0.000401
0.216669 0.343925 0.000549
0.313034 0.339259 0.000589
0.386098 0.329940 0.000694
0.451861 0.318448 0.000823
0.512574 0.304165 0.000942
0.570091 0.291519 0.001055
0.625422 0.284473 0.001163
0.679179 0.289186 0.001268
0.731758 0.295657 0.001371
0.783430 0.292812 0.001471
0.834396 0.283552 0.001560
0.884780 0.267735 0.001655
0.934967 0.264992 0.051673
0.989568 0.301292 0.090776
1.000000 0.260671 0.121308
0.968702 0.031298 0.052644
0.971093 0.028906 0.060587
0.972024 0.027976 0.069855
0.972082 0.027918 0.083111
0.971188 0.028812 0.101097
0.970295 0.029705 0.121313
0.969362 0.030638 0.146440
0.968466 0.031534 0.170880
0.967788 0.032212 0.197905
0.001091 0.394658 0.000457
0.001091 0.394593 0.000457
0.001090 0.394319 0.000456
0.001088 0.393761 0.000455
0.001085 0.392867 0.000454
0.001081 0.391592 0.000452
0.001075 0.389895 0.000450
0.001067 0.387736 0.000447
0.001058 0.385076 0.000443
0.001047 0.381873 0.000438
0.249942 0.377901 0.000613
0.344522 0.373380 0.000639
0.417744 0.363957 0.000744
0.484397 0.352929 0.000877
0.546031 0.338889 0.001001
0.604415 0.325374 0.001119
0.660542 0.314928 0.001232
0.715031 0.313724 0.001330
0.768267 0.321445 0.001431
0.820535 0.325118 0.001529
0.872027 0.320926 0.001630
0.922896 0.310437 0.001730
0.973252 0.294156 0.001828
0.998215 0.284915 0.049084
0.999868 0.309661 0.097265
1.000000 0.302290 0.126123
0.974018 0.150782 0.118047
0.971480 0.028519 0.064442
0.972454 0.027546 0.074142
0.971569 0.028431 0.093429
0.970640 0.029360 0.112119
0.969636 0.030363 0.139044
0.968672 0.031328 0.165017
0.001190 0.430538 0.000497
0.001190 0.430481 0.000497
0.001189 0.430238 0.000497
0.001188 0.429745 0.000496
0.001186 0.428953 0.000496
0.001183 0.427826 0.000495
0.001179 0.426327 0.000493
0.001175 0.424422 0.000491
0.001169 0.422079 0.000489
0.001162 0.419264 0.000486
0.121984 0.415847 0.000577
0.282751 0.411885 0.000665
0.375910 0.407384 0.000704
0.449312 0.397974 0.000803
0.516767 0.387258 0.000935
0.579252 0.373740 0.001057
0.638454 0.359478 0.001173
0.695339 0.347572 0.001284
0.750513 0.341025 0.001392
0.804379 0.345275 0.001498
0.857219 0.353550 0.001601
0.909239 0.354132 0.001703
0.960590 0.348986 0.001803
0.998123 0.336462 0.001877
0.998123 0.317703 0.001877
0.998206 0.299299 0.044278
0.999434 0.310584 0.100055
1.000000 0.325135 0.130519
0.991542 0.208948 0.141422
0.971845 0.028154 0.068080
0.972108 0.027891 0.082574
0.971080 0.028920 0.103268
0.970046 0.029954 0.128026
0.001277 0.466424 0.000532
0.001277 0.466373 0.000532
0.001277 0.466156 0.000532
0.001276 0.465715 0.000532
0.001274 0.465008 0.000531
0.001271 0.464001 0.000530
0.001268 0.462663 0.000529
0.001264 0.460966 0.000527
0.001259 0.458880 0.000525
0.001253 0.456378 0.000523
0.001246 0.453430 0.000520
0.174583 0.449871 0.000650
0.315235 0.445855 0.000726
0.407239 0.441343 0.000754
0.480836 0.431985 0.000849
0.548995 0.421455 0.000998
0.612262 0.408610 0.001122
0.672225 0.393880 0.001239
0.729826 0.381245 0.001352
0.785662 0.371404 0.001461
0.840138 0.370022 0.001568
0.893541 0.377735 0.001671
0.946079 0.383860 0.001771
0.997915 0.382968 0.001861
0.998136 0.371593 0.001864
0.998127 0.357322 0.001872
0.998123 0.339613 0.001877
0.998190 0.317710 0.036273
0.998534 0.313606 0.102828
1.000000 0.336823 0.134523
0.998965 0.283839 0.158556
0.968584 0.100851 0.109725
0.971681 0.028318 0.091163
0.001396 0.502295 0.000583
0.001396 0.502249 0.000583
0.001395 0.502053 0.000582
0.001394 0.501655 0.000582
0.001392 0.501019 0.000581
0.001390 0.500112 0.000581
0.001387 0.498908 0.000579
0.001382 0.497382 0.000577
0.001375 0.495509 0.000574
0.001368 0.493265 0.000571
0.001358 0.490624 0.000567
0.001348 0.487561 0.000562
0.217911 0.483883 0.000723
0.347489 0.479830 0.000781
0.438566 0.475287 0.000819
0.512301 0.465890 0.000910
0.581124 0.455589 0.001047
0.645109 0.443393 0.001175
0.705782 0.428569 0.001298
0.764057 0.415129 0.001415
0.820538 0.403804 0.001515
0.875598 0.397556 0.001627
0.929549 0.401147 0.001727
0.982587 0.410168 0.001831
0.998138 0.407104 0.001862
0.998138 0.399412 0.001862
0.998138 0.388821 0.001862
0.998138 0.376282 0.001862
0.998129 0.359966 0.001871
0.998155 0.339681 0.018431
0.998380 0.325478 0.104378
0.999693 0.340381 0.138461
1.000000 0.327206 0.165031
0.001480 0.538180 0.000618
0.001480 0.538138 0.000618
0.001479 0.537960 0.000618
0.001478 0.537599 0.000617
0.001477 0.537021 0.000617
0.001476 0.536199 0.000616
0.001474 0.535107 0.000615
0.001471 0.533723 0.000613
0.001468 0.532026 0.000612
0.001463 0.529994 0.000610
0.001457 0.527606 0.000607
0.001451 0.524840 0.000605
0.001443 0.521674 0.000602
0.257295 0.517896 0.000785
0.379585 0.513790 0.000847
0.469894 0.509235 0.000879
0.543734 0.499798 0.000963
0.613143 0.489681 0.001108
0.677800 0.478051 0.001235
0.739146 0.463413 0.001355
0.798068 0.449229 0.001470
0.855143 0.437238 0.001582
0.910774 0.427888 0.001691
0.965247 0.426239 0.001797
0.998138 0.427844 0.001862
0.998138 0.423195 0.001862
0.998138 0.418449 0.001862
0.998138 0.412459 0.001862
0.998138 0.403698 0.001862
0.998138 0.392823 0.001862
0.998138 0.378501 0.001862
0.998129 0.360091 0.001871
0.998325 0.341213 0.105348
0.001568 0.574060 0.000659
0.001568 0.574022 0.000659
0.001567 0.573859 0.000658
0.001566 0.573530 0.000658
0.001564 0.573002 0.000657
0.001561 0.572251 0.000656
0.001558 0.571255 0.000655
0.001554 0.569994 0.000653
0.001548 0.568447 0.000651
0.001542 0.566597 0.000648
0.001535 0.564424 0.000645
0.001526 0.561910 0.000641
0.001520 0.559033 0.000638
0.001514 0.555776 0.000635
0.294507 0.551899 0.000850
0.411563 0.547757 0.000904
0.501208 0.543189 0.000934
0.575135 0.533690 0.001016
0.645093 0.523758 0.001155
0.710358 0.512555 0.001295
0.772331 0.498361 0.001420
0.831862 0.483597 0.001536
0.889521 0.470988 0.001646
0.945694 0.460081 0.001759
0.998138 0.453770 0.001862
0.998138 0.446399 0.001862
0.998138 0.439014 0.001862
0.998138 0.433516 0.001862
0.998138 0.427491 0.001862
0.998138 0.421855 0.001862
0.998138 0.415931 0.001862
0.998138 0.406662 0.001862
0.998138 0.394980 0.001862
0.001682 0.609936 0.000703
0.001682 0.609901 0.000703
0.001682 0.609752 0.000703
0.001681 0.609449 0.000703
0.001679 0.608965 0.000702
0.001677 0.608275 0.000702
0.001675 0.607360 0.000701
0.001671 0.606202 0.000700
0.001667 0.604783 0.000698
0.001662 0.603086 0.000696
0.001656 0.601095 0.000695
0.001650 0.598792 0.000692
0.001642 0.596163 0.000690
0.001633 0.593188 0.000687
0.102042 0.589768 0.000766
0.330360 0.585896 0.000913
0.443417 0.581721 0.000962
0.532537 0.577133 0.000999
0.606503 0.567572 0.001075
0.676958 0.557811 0.001215
0.742810 0.546936 0.001347
0.805376 0.533339 0.001473
0.865489 0.518183 0.001589
0.923701 0.504876 0.001701
0.980402 0.493265 0.001812
0.998150 0.484031 0.001850
0.998145 0.474894 0.001855
0.998139 0.464977 0.001860
0.998138 0.456114 0.001862
0.998138 0.447059 0.001862
0.998138 0.438282 0.001862
0.998138 0.431526 0.001862
0.998138 0.424474 0.001862
0.001777 0.645822 0.000738
0.001777 0.645790 0.000738
0.001777 0.645652 0.000738
0.001776 0.645373 0.000738
0.001775 0.644925 0.000737
0.001773 0.644289 0.000737
0.001771 0.643445 0.000736
0.001768 0.642377 0.000735
0.001765 0.641069 0.000734
0.001761 0.639505 0.000732
0.001757 0.637671 0.000730
0.001752 0.635552 0.000728
0.001746 0.633134 0.000726
0.001739 0.630401 0.000723
0.001732 0.627337 0.000720
0.182968 0.623781 0.000863
0.365298 0.619890 0.000975
0.475215 0.615678 0.001026
0.563874 0.611091 0.001049
0.637856 0.601428 0.001126
0.708763 0.591882 0.001273
0.775151 0.581142 0.001409
0.838277 0.568243 0.001533
0.898939 0.553023 0.001652
0.957681 0.538985 0.001767
0.998154 0.527783 0.001846
0.998154 0.518835 0.001846
0.998154 0.509304 0.001846
0.998154 0.499010 0.001846
0.998152 0.488181 0.001848
0.998146 0.477078 0.001854
0.998139 0.465045 0.001860
0.998138 0.454391 0.001862
0.001877 0.681695 0.000786
0.001877 0.681666 0.000786
0.001877 0.681538 0.000786
0.001876 0.681279 0.000786
0.001875 0.680864 0.000785
0.001873 0.680275 0.000784
0.001871 0.679493 0.000783
0.001868 0.678504 0.000781
0.001865 0.677293 0.000780
0.001860 0.675846 0.000778
0.001855 0.674150 0.000775
0.001850 0.672192 0.000772
0.001843 0.669958 0.000769
0.001836 0.667435 0.000765
0.001827 0.664609 0.000761
0.001818 0.661466 0.000756
0.237887 0.657801 0.000942
0.399564 0.653883 0.001032
0.506963 0.649645 0.001077
0.595183 0.645035 0.001114
0.669186 0.635284 0.001179
0.740515 0.625940 0.001327
0.807414 0.615255 0.001458
0.871069 0.603028 0.001583
0.932253 0.587953 0.001706
0.991500 0.573280 0.001826
0.998158 0.564117 0.001843
0.998154 0.554979 0.001846
0.998154 0.545520 0.001846
0.998154 0.535348 0.001846
0.998154 0.524404 0.001846
0.998154 0.512900 0.001846
0.998154 0.500532 0.001846
0.001968 0.717579 0.000824
0.001968 0.717551 0.000824
0.001967 0.717432 0.000824
0.001967 0.717191 0.000823
0.001966 0.716805 0.000823
0.001964 0.716256 0.000822
0.001963 0.715529 0.000822
0.001960 0.714608 0.000821
0.001958 0.713482 0.000820
0.001954 0.712136 0.000818
0.001950 0.710560 0.000817
0.001946 0.708740 0.000815
0.001941 0.706665 0.000813
0.001935 0.704323 0.000811
0.001929 0.701702 0.000808
0.001922 0.698789 0.000805
0.001914 0.695571 0.000802
0.284501 0.691821 0.001013
0.433343 0.687865 0.001097
0.538655 0.683599 0.001143
0.626506 0.678994 0.001164
0.700495 0.669143 0.001236
0.772218 0.659979 0.001382
0.839587 0.649352 0.001517
0.903738 0.637647 0.001646
0.965425 0.622993 0.001767
0.998169 0.610794 0.001831
0.998169 0.602091 0.001831
0.998169 0.592762 0.001831
0.998166 0.583057 0.001834
0.998162 0.572819 0.001839
0.998157 0.561846 0.001844
0.998154 0.550305 0.001846
0.002057 0.753462 0.000861
0.002057 0.753436 0.000861
0.002057 0.753326 0.000861
0.002056 0.753100 0.000860
0.002055 0.752740 0.000860
0.002054 0.752228 0.000859
0.002052 0.751549 0.000858
0.002049 0.750691 0.000857
0.002046 0.749640 0.000855
0.002043 0.748384 0.000854
0.002039 0.746914 0.000852
0.002035 0.745217 0.000851
0.002030 0.743284 0.000849
0.002025 0.741102 0.000847
0.002019 0.738662 0.000844
0.002012 0.735952 0.000842
0.002005 0.732960 0.000839
0.001997 0.729676 0.000835
0.326883 0.725835 0.001082
0.466775 0.721845 0.001159
0.570290 0.717567 0.001193
0.657849 0.712938 0.001229
0.731797 0.702974 0.001284
0.803880 0.694023 0.001436
0.871686 0.683441 0.001578
0.936310 0.672057 0.001708
0.998169 0.658050 0.001831
0.998169 0.649984 0.001831
0.998169 0.641359 0.001831
0.998169 0.632144 0.001831
0.998169 0.622331 0.001831
0.998169 0.611950 0.001831
0.998169 0.600863 0.001831
0.002158 0.789334 0.000909
0.002158 0.789310 0.000909
0.002158 0.789206 0.000909
0.002157 0.788995 0.000909
0.002157 0.788657 0.000908
0.002155 0.788177 0.000908
0.002154 0.787541 0.000907
0.002152 0.786737 0.000907
0.002149 0.785752 0.000906
0.002147 0.784577 0.000904
0.002143 0.783201 0.000903
0.002139 0.781613 0.000902
0.002135 0.779805 0.000899
0.002129 0.777767 0.000896
0.002122 0.775488 0.000893
0.002115 0.772958 0.000889
0.002106 0.770168 0.000885
0.002097 0.767106 0.000881
0.002088 0.763761 0.000876
0.366713 0.759848 0.001146
0.499888 0.755830 0.001214
0.601916 0.751518 0.001258
0.689178 0.746894 0.001280
0.763076 0.736818 0.001342
0.835504 0.728061 0.001488
0.903728 0.717503 0.001631
0.968805 0.706370 0.001758
0.998184 0.696639 0.001816
0.998181 0.688858 0.001819
0.998178 0.680532 0.001822
0.998174 0.671661 0.001826
0.998170 0.662212 0.001830
0.998169 0.652023 0.001831
0.002253 0.825220 0.000944
0.002253 0.825197 0.000944
0.002252 0.825100 0.000944
0.002252 0.824901 0.000944
0.002251 0.824584 0.000944
0.002249 0.824133 0.000943
0.002248 0.823536 0.000943
0.002245 0.822780 0.000942
0.002243 0.821855 0.000941
0.002239 0.820752 0.000940
0.002236 0.819460 0.000939
0.002231 0.817970 0.000937
0.002226 0.816274 0.000935
0.002221 0.814361 0.000934
0.002214 0.812223 0.000931
0.002208 0.809852 0.000929
0.002202 0.807237 0.000927
0.002195 0.804369 0.000924
0.002187 0.801239 0.000921
0.170583 0.797698 0.001056
0.404838 0.793856 0.001208
0.532794 0.789806 0.001275
0.633488 0.785473 0.001318
0.720491 0.780840 0.001343
0.794349 0.770662 0.001394
0.867086 0.762084 0.001548
0.935711 0.751572 0.001686
0.998189 0.740883 0.001811
0.998186 0.734024 0.001814
0.998184 0.726648 0.001816
0.998184 0.718698 0.001816
0.998184 0.710249 0.001816
0.998184 0.701274 0.001816
0.002367 0.861097 0.000988
0.002367 0.861076 0.000988
0.002366 0.860984 0.000988
0.002366 0.860797 0.000988
0.002365 0.860498 0.000987
0.002363 0.860074 0.000987
0.002361 0.859511 0.000986
0.002359 0.858800 0.000985
0.002356 0.857929 0.000984
0.002352 0.856891 0.000982
0.002348 0.855675 0.000980
0.002343 0.854274 0.000978
0.002338 0.852678 0.000976
0.002332 0.850880 0.000973
0.002325 0.848871 0.000970
0.002317 0.846644 0.000967
0.002309 0.844188 0.000963
0.002300 0.841496 0.000960
0.002292 0.838558 0.000957
0.002282 0.835366 0.000954
0.243963 0.831711 0.001152
0.441760 0.827855 0.001276
0.565493 0.823786 0.001331
0.665051 0.819434 0.001373
0.751834 0.814785 0.001407
0.825610 0.804482 0.001448
0.898642 0.796120 0.001603
0.967640 0.785640 0.001741
0.998199 0.777272 0.001801
0.998199 0.770546 0.001801
0.998199 0.763405 0.001801
0.998196 0.755772 0.001804
0.998192 0.747677 0.001808
0.002456 0.896977 0.001030
0.002456 0.896957 0.001030
0.002456 0.896870 0.001029
0.002455 0.896693 0.001029
0.002455 0.896411 0.001029
0.002454 0.896010 0.001029
0.002453 0.895478 0.001028
0.002452 0.894806 0.001027
0.002450 0.893984 0.001027
0.002448 0.893004 0.001026
0.002446 0.891856 0.001025
0.002443 0.890533 0.001023
0.002440 0.889027 0.001022
0.002437 0.887330 0.001020
0.002433 0.885436 0.001018
0.002429 0.883335 0.001016
0.002425 0.881020 0.001014
0.002420 0.878484 0.001011
0.002414 0.875719 0.001009
0.002407 0.872717 0.001005
0.002395 0.869470 0.001000
0.300275 0.865729 0.001234
0.477796 0.861857 0.001336
0.598061 0.857752 0.001396
0.696583 0.853385 0.001437
0.783160 0.848743 0.001458
0.856992 0.838413 0.001509
0.930175 0.830136 0.001654
0.998210 0.819793 0.001790
0.998207 0.813508 0.001793
0.998204 0.806842 0.001796
0.998201 0.799782 0.001799
0.998199 0.792315 0.001801
0.002540 0.932863 0.001065
0.002539 0.932844 0.001065
0.002539 0.932761 0.001065
0.002539 0.932594 0.001064
0.002538 0.932327 0.001064
0.002537 0.931947 0.001064
0.002536 0.931444 0.001063
0.002535 0.930808 0.001063
0.002533 0.930031 0.001062
0.002530 0.929103 0.001061
0.002528 0.928017 0.001060
0.002525 0.926766 0.001059
0.002521 0.925342 0.001057
0.002517 0.923738 0.001056
0.002513 0.921947 0.001054
0.002508 0.919962 0.001052
0.002503 0.917776 0.001050
0.002497 0.915381 0.001048
0.002490 0.912771 0.001045
0.002484 0.909938 0.001042
0.002476 0.906875 0.001039
0.002469 0.903573 0.001036
0.349194 0.899751 0.001306
0.513141 0.895851 0.001400
0.630465 0.891727 0.001453
0.728105 0.887348 0.001488
0.814501 0.882686 0.001523
0.888502 0.872462 0.001558
0.961673 0.864107 0.001714
0.998215 0.856004 0.001785
