iCamera/Resource/Lut/From_SLog2SGumut_To_SLog2-709_.cube
LUT_3D_SIZE 9
0.000000 0.000000 0.000000
0.181221 0.005538 0.024627
0.362423 0.011112 0.044602
0.543909 0.016400 0.059960
0.725514 0.021571 0.076230
0.906857 0.027002 0.097034
0.969407 0.030592 0.145207
0.967118 0.032881 0.224592
0.965673 0.034327 0.299880
0.000400 0.143503 0.000165
0.124809 0.135291 0.000230
0.353903 0.107147 0.000662
0.534628 0.015170 0.036073
0.719132 0.020973 0.063052
0.902506 0.026261 0.082646
0.969944 0.030056 0.130758
0.967450 0.032550 0.211386
0.965822 0.034177 0.291167
0.000778 0.287026 0.000326
0.000771 0.284218 0.000324
0.250166 0.271145 0.000464
0.500332 0.227895 0.000933
0.707821 0.213965 0.001324
0.877885 0.028637 0.048667
0.972365 0.027635 0.077409
0.969161 0.030839 0.151851
0.966656 0.033344 0.245762
0.001190 0.430538 0.000497
0.001186 0.428953 0.000496
0.001169 0.422079 0.000489
0.375910 0.407384 0.000704
0.638454 0.359478 0.001173
0.857219 0.353550 0.001601
0.998123 0.317703 0.001877
0.991542 0.208948 0.141422
0.970046 0.029954 0.128026
0.001568 0.574060 0.000659
0.001564 0.573002 0.000657
0.001548 0.568447 0.000651
0.001520 0.559033 0.000638
0.501208 0.543189 0.000934
0.772331 0.498361 0.001420
0.998138 0.453770 0.001862
0.998138 0.427491 0.001862
0.998138 0.394980 0.001862
0.001968 0.717579 0.000824
0.001966 0.716805 0.000823
0.001958 0.713482 0.000820
0.001941 0.706665 0.000813
0.001914 0.695571 0.000802
0.626506 0.678994 0.001164
0.903738 0.637647 0.001646
0.998169 0.592762 0.001831
0.998154 0.550305 0.001846
0.002367 0.861097 0.000988
0.002365 0.860498 0.000987
0.002356 0.857929 0.000984
0.002338 0.852678 0.000976
0.002309 0.844188 0.000963
0.243963 0.831711 0.001152
0.751834 0.814785 0.001407
0.998199 0.777272 0.001801
0.998192 0.747677 0.001808
0.002747 0.998856 0.001144
0.002747 0.998856 0.001144
0.002747 0.998856 0.001144
0.002744 0.997846 0.001143
0.002728 0.991045 0.001137
0.002704 0.981269 0.001127
0.435850 0.967783 0.001445
0.877140 0.950589 0.001638
0.998230 0.921541 0.001770
0.002747 0.998856 0.001144
0.002747 0.998856 0.001144
0.002747 0.998856 0.001144
0.002747 0.998856 0.001144
0.002747 0.998856 0.001144
0.002747 0.998856 0.001144
0.002747 0.998856 0.001144
0.588689 0.998433 0.001567
0.996484 0.992502 0.001740
0.014731 0.000000 0.139293
0.179610 0.007274 0.140639
0.360108 0.013486 0.153273
0.541304 0.019039 0.158488
0.722966 0.024141 0.151892
0.904790 0.029086 0.150975
0.967844 0.032156 0.195672
0.966283 0.033717 0.266069
0.965248 0.034752 0.326540
0.000012 0.133306 0.121740
0.124987 0.124987 0.124987
0.346051 0.080410 0.117346
0.531425 0.018407 0.139389
0.716606 0.023521 0.133212
0.900272 0.028510 0.135835
0.968200 0.031800 0.181456
0.966482 0.033518 0.255247
0.965362 0.034637 0.319348
0.000769 0.283341 0.000323
0.000762 0.280482 0.000320
0.250062 0.266967 0.000460
0.500505 0.244690 0.073707
0.715142 0.257737 0.126295
0.880939 0.025600 0.079245
0.970320 0.029680 0.120637
0.967679 0.032321 0.202258
0.965947 0.034052 0.284353
0.001185 0.428461 0.000495
0.001181 0.426866 0.000494
0.001164 0.419944 0.000487
0.375933 0.405113 0.000701
0.638482 0.356817 0.001173
0.857237 0.351846 0.001601
0.998509 0.331339 0.120897
0.970130 0.169566 0.152364
0.968267 0.031733 0.178786
0.001563 0.572674 0.000657
0.001559 0.571613 0.000655
0.001544 0.567042 0.000648
0.001518 0.557595 0.000637
0.501243 0.541693 0.000932
0.772352 0.496540 0.001420
0.998138 0.452513 0.001862
0.998138 0.426585 0.001862
0.998305 0.403078 0.095134
0.001965 0.716565 0.000823
0.001963 0.715790 0.000822
0.001955 0.712460 0.000819
0.001938 0.705630 0.000812
0.001911 0.694512 0.000801
0.626532 0.677900 0.001163
0.903755 0.636398 0.001646
0.998169 0.591378 0.001831
0.998154 0.548914 0.001846
0.002364 0.860313 0.000987
0.002362 0.859713 0.000986
0.002353 0.857141 0.000982
0.002335 0.851883 0.000975
0.002306 0.843381 0.000962
0.244071 0.830887 0.001151
0.751854 0.813938 0.001406
0.998199 0.776337 0.001801
0.998192 0.746687 0.001808
0.002747 0.998856 0.001144
0.002747 0.998856 0.001144
0.002747 0.998856 0.001144
0.002743 0.997208 0.001143
0.002726 0.990400 0.001136
0.002702 0.980615 0.001127
0.435896 0.967117 0.001444
0.877155 0.949906 0.001637
0.998230 0.920807 0.001770
0.002747 0.998856 0.001144
0.002747 0.998856 0.001144
0.002747 0.998856 0.001144
0.002747 0.998856 0.001144
0.002747 0.998856 0.001144
0.002747 0.998856 0.001144
0.002747 0.998856 0.001144
0.588721 0.998433 0.001567
0.996496 0.992499 0.001740
0.029476 0.000000 0.278601
0.189055 0.000000 0.279661
0.359164 0.014684 0.282114
0.539287 0.021200 0.289180
0.720222 0.026981 0.307335
0.901221 0.032726 0.322167
0.964966 0.035034 0.344289
0.964531 0.035469 0.372780
0.964094 0.035906 0.399747
0.000000 0.063882 0.272404
0.127320 0.031336 0.273857
0.340949 0.013952 0.276935
0.529185 0.020796 0.283510
0.713536 0.026688 0.302054
0.896366 0.032488 0.316544
0.965064 0.034936 0.338044
0.964604 0.035396 0.368021
0.964152 0.035847 0.396204
0.000025 0.266820 0.243671
0.000020 0.263644 0.244901
0.249989 0.249989 0.249989
0.492229 0.226943 0.236476
0.692917 0.160035 0.225330
0.875253 0.031359 0.286959
0.965555 0.034444 0.307252
0.964929 0.035072 0.346753
0.964411 0.035589 0.380483
0.000314 0.419585 0.160573
0.000311 0.417943 0.162860
0.000295 0.410814 0.172173
0.375001 0.395312 0.189343
0.638973 0.379444 0.213173
0.859843 0.386261 0.239499
0.992311 0.335004 0.262709
0.966002 0.033997 0.281349
0.965085 0.034915 0.336775
0.001542 0.566694 0.000648
0.001539 0.565617 0.000646
0.001524 0.560978 0.000640
0.001505 0.551381 0.000631
0.501390 0.535227 0.000922
0.772443 0.488661 0.001420
0.998408 0.491745 0.147422
0.998520 0.460933 0.212581
0.999669 0.437462 0.264882
0.001954 0.712207 0.000818
0.001953 0.711425 0.000818
0.001944 0.708067 0.000814
0.001927 0.701176 0.000808
0.001900 0.689958 0.000797
0.626639 0.673193 0.001156
0.903829 0.630860 0.001646
0.998167 0.585588 0.001833
0.998154 0.542914 0.001846
0.002353 0.856946 0.000982
0.002351 0.856343 0.000981
0.002342 0.853756 0.000977
0.002324 0.848469 0.000970
0.002296 0.839917 0.000959
0.244531 0.827352 0.001146
0.751937 0.810299 0.001402
0.998199 0.772322 0.001801
0.998190 0.742432 0.001810
0.002747 0.998856 0.001144
0.002747 0.998856 0.001144
0.002746 0.998711 0.001144
0.002736 0.994470 0.001140
0.002719 0.987636 0.001133
0.002695 0.977813 0.001124
0.436094 0.964261 0.001440
0.877221 0.946979 0.001633
0.998230 0.917656 0.001770
0.002747 0.998856 0.001144
0.002747 0.998856 0.001144
0.002747 0.998856 0.001144
0.002747 0.998856 0.001144
0.002747 0.998856 0.001144
0.002747 0.998856 0.001144
0.002747 0.998856 0.001144
0.588857 0.998433 0.001567
0.996548 0.992486 0.001740
0.044212 0.000000 0.417908
0.191091 0.000000 0.418511
0.372662 0.000000 0.421074
0.538741 0.022038 0.423340
0.718578 0.028821 0.425872
0.899388 0.034701 0.442291
0.963112 0.036888 0.457436
0.962850 0.037150 0.473187
0.962552 0.037447 0.491389
0.001993 0.000000 0.414430
0.130589 0.000000 0.415040
0.355295 0.000000 0.417632
0.528652 0.021629 0.420286
0.711870 0.028553 0.422594
0.894497 0.034501 0.439186
0.963159 0.036841 0.454610
0.962894 0.037106 0.470510
0.962594 0.037406 0.488861
0.000000 0.226445 0.399066
0.000000 0.222525 0.399708
0.251730 0.205875 0.402706
0.488995 0.173570 0.404449
0.682095 0.027387 0.408168
0.873134 0.033627 0.425526
0.963368 0.036632 0.442212
0.963089 0.036911 0.458771
0.962774 0.037225 0.477819
0.000039 0.400455 0.365741
0.000036 0.398658 0.366434
0.000023 0.390815 0.369345
0.374990 0.374990 0.374990
0.631180 0.358810 0.361923
0.843000 0.316252 0.340550
0.975222 0.240305 0.354342
0.963519 0.036482 0.433391
0.963168 0.036832 0.454088
0.000316 0.554583 0.299116
0.000314 0.553473 0.300083
0.000303 0.548689 0.304169
0.000283 0.538785 0.312240
0.500003 0.522018 0.324423
0.773235 0.508866 0.341300
0.999118 0.512839 0.361510
1.000000 0.505704 0.384014
0.977436 0.359458 0.361890
0.000688 0.703361 0.124604
0.000684 0.702568 0.127829
0.000668 0.699161 0.140492
0.000638 0.692167 0.162219
0.000586 0.680777 0.190305
0.625898 0.663876 0.223000
0.904431 0.617067 0.257776
0.998684 0.598405 0.293721
0.998751 0.587333 0.330435
0.002329 0.850049 0.000972
0.002327 0.849439 0.000971
0.002318 0.846823 0.000967
0.002300 0.841474 0.000960
0.002275 0.832819 0.000952
0.245462 0.820105 0.001137
0.752107 0.802841 0.001391
0.998199 0.764083 0.001801
0.998394 0.733346 0.116609
0.002739 0.995737 0.001141
0.002738 0.995248 0.001141
0.002733 0.993153 0.001139
0.002722 0.988878 0.001135
0.002705 0.981989 0.001128
0.002681 0.972086 0.001118
0.436495 0.958425 0.001433
0.877355 0.940995 0.001624
0.998230 0.911213 0.001770
0.002747 0.998856 0.001144
0.002747 0.998856 0.001144
0.002747 0.998856 0.001144
0.002747 0.998856 0.001144
0.002747 0.998856 0.001144
0.002747 0.998856 0.001144
0.002747 0.998856 0.001144
0.589132 0.998432 0.001568
0.996653 0.992460 0.001740
0.058952 0.000000 0.557216
0.193890 0.000000 0.557619
0.378113 0.000000 0.559338
0.549583 0.000551 0.562254
0.718317 0.029394 0.564665
0.897997 0.036320 0.562900
0.961387 0.038612 0.574285
0.961267 0.038733 0.585540
0.961147 0.038853 0.598871
0.002664 0.000000 0.554898
0.134877 0.000000 0.555303
0.359256 0.000000 0.557032
0.540838 0.000683 0.560423
0.711619 0.029120 0.562863
0.893098 0.036130 0.560714
0.961411 0.038589 0.572296
0.961284 0.038716 0.583606
0.961164 0.038836 0.597002
0.000000 0.127787 0.544823
0.000000 0.118898 0.545239
0.254662 0.062688 0.547729
0.498507 0.000015 0.550574
0.681910 0.027909 0.554775
0.871687 0.035313 0.551050
0.961511 0.038489 0.563666
0.961376 0.038623 0.575228
0.961237 0.038763 0.588903
0.000000 0.364936 0.523517
0.000000 0.362937 0.523956
0.000000 0.354209 0.525831
0.376613 0.337159 0.529865
0.627806 0.316793 0.531294
0.837504 0.267483 0.541421
0.966127 0.132823 0.549762
0.961582 0.038418 0.557630
0.961415 0.038585 0.571929
0.000047 0.534105 0.487813
0.000045 0.532933 0.488305
0.000038 0.527791 0.490311
0.000023 0.516960 0.494175
0.499992 0.499992 0.499992
0.765795 0.487469 0.487250
0.982966 0.452323 0.466801
0.980413 0.398323 0.487477
0.974719 0.312655 0.552706
0.000324 0.689031 0.427057
0.000322 0.688212 0.427645
0.000314 0.684694 0.430151
0.000300 0.677468 0.435179
0.000278 0.665683 0.443058
0.625009 0.648080 0.453456
0.905037 0.636650 0.467720
0.999054 0.618600 0.484460
1.000000 0.615352 0.502791
0.000629 0.839185 0.321173
0.000627 0.838565 0.322046
0.000621 0.835901 0.325745
0.000609 0.830455 0.333082
0.000589 0.821643 0.344365
0.244651 0.808919 0.359157
0.750732 0.791373 0.378713
0.998900 0.747771 0.401097
0.998937 0.717886 0.425822
0.002717 0.986791 0.001133
0.002716 0.986296 0.001132
0.002711 0.984174 0.001130
0.002700 0.979844 0.001126
0.002683 0.972866 0.001119
0.001002 0.962937 0.109197
0.436288 0.949324 0.180031
0.876550 0.931724 0.233721
0.998717 0.902251 0.281886
0.002747 0.998856 0.001144
0.002747 0.998856 0.001144
0.002747 0.998856 0.001144
0.002747 0.998856 0.001144
0.002747 0.998856 0.001144
0.002747 0.998856 0.001144
0.002747 0.998856 0.001144
0.589573 0.998432 0.001568
0.996821 0.992419 0.001740
0.073699 0.000000 0.696524
0.197546 0.000000 0.696819
0.379979 0.000000 0.698078
0.564583 0.000000 0.700626
0.735257 0.012427 0.711910
0.897897 0.036745 0.706035
0.960724 0.039275 0.705562
0.960715 0.039285 0.716507
0.960704 0.039296 0.729699
0.003343 0.000000 0.694830
0.140453 0.000000 0.695126
0.361205 0.000000 0.696389
0.554362 0.000000 0.698946
0.728206 0.010954 0.709399
0.893011 0.036544 0.704628
0.960727 0.039273 0.703744
0.960717 0.039283 0.714607
0.960706 0.039294 0.727839
0.003311 0.000000 0.687516
0.003313 0.000000 0.687816
0.257877 0.000000 0.689098
0.506750 0.000000 0.691692
0.699777 0.004236 0.701208
0.871666 0.035672 0.698982
0.960737 0.039263 0.695898
0.960723 0.039276 0.706425
0.960712 0.039288 0.719820
0.000000 0.306609 0.672316
0.000000 0.304070 0.672625
0.000000 0.292860 0.673948
0.378748 0.270309 0.677191
0.638219 0.222234 0.681616
0.831194 0.130900 0.685279
0.960758 0.039241 0.679621
0.960744 0.039256 0.690453
0.960727 0.039273 0.703409
0.000000 0.500487 0.646963
0.000000 0.499203 0.647289
0.000000 0.493658 0.648685
0.000000 0.482126 0.651507
0.501560 0.464836 0.656235
0.762090 0.448411 0.657708
0.977588 0.414400 0.669312
0.974397 0.349985 0.675871
0.968724 0.226992 0.681467
0.000056 0.667637 0.609767
0.000055 0.666780 0.610127
0.000047 0.663099 0.611662
0.000032 0.655511 0.614741
0.000016 0.642652 0.619162
0.624994 0.624994 0.624994
0.897793 0.614715 0.612408
0.986934 0.578895 0.601688
0.983999 0.535233 0.637895
0.000336 0.823187 0.552172
0.000335 0.822549 0.552582
0.000329 0.819811 0.554335
0.000316 0.814210 0.557872
0.000295 0.805144 0.563467
0.246507 0.792001 0.570729
0.750015 0.773808 0.580652
0.999236 0.757701 0.593466
0.999264 0.735668 0.608087
0.000625 0.974377 0.464936
0.000624 0.973874 0.465458
0.000618 0.971716 0.467680
0.000607 0.967312 0.472147
0.000592 0.960209 0.479168
0.000568 0.949991 0.488907
0.435024 0.936241 0.500630
0.875646 0.918219 0.516576
0.999160 0.887827 0.534401
0.000842 0.999158 0.309917
0.000841 0.999159 0.310833
0.000836 0.999164 0.314714
0.000825 0.999175 0.322400
0.000808 0.999193 0.334181
0.000788 0.999213 0.349980
0.000769 0.999231 0.369471
0.588400 0.999145 0.392774
0.997662 0.995559 0.418363
0.088437 0.000000 0.835833
0.202043 0.000000 0.836061
0.382182 0.000000 0.837037
0.567187 0.000000 0.839015
0.745825 0.000000 0.842163
0.906821 0.028251 0.847912
0.961217 0.038783 0.851204
0.961669 0.038331 0.858263
0.962214 0.037786 0.866775
0.004014 0.000000 0.834521
0.147259 0.000000 0.834750
0.363518 0.000000 0.835728
0.556730 0.000000 0.837710
0.739491 0.000000 0.840865
0.903153 0.026834 0.847425
0.961138 0.038863 0.849968
0.961591 0.038409 0.857043
0.962137 0.037863 0.865572
0.003986 0.000000 0.828876
0.003987 0.000000 0.829107
0.261191 0.000000 0.830095
0.508497 0.000000 0.832096
0.711352 0.000000 0.835281
0.887259 0.020526 0.845472
0.960798 0.039203 0.844653
0.961254 0.038746 0.851791
0.961805 0.038195 0.860395
0.000000 0.191680 0.817243
0.000000 0.186793 0.817479
0.000000 0.163583 0.818486
0.381992 0.094039 0.821602
0.645442 0.000000 0.823774
0.847580 0.008506 0.836730
0.960678 0.039323 0.833729
0.960678 0.039323 0.840983
0.961123 0.038877 0.849741
0.000000 0.452901 0.798148
0.000000 0.451431 0.798391
0.000000 0.445064 0.799432
0.000000 0.431728 0.801541
0.503478 0.411755 0.805439
0.772312 0.376256 0.810351
0.973345 0.348172 0.808809
0.969425 0.252886 0.821247
0.960678 0.039323 0.832322
0.000000 0.635046 0.769867
0.000000 0.634126 0.770123
0.000000 0.630170 0.771218
0.000000 0.622028 0.773435
0.000000 0.608686 0.776962
0.626531 0.591329 0.782183
0.893860 0.576950 0.783729
0.981815 0.544789 0.791658
0.979538 0.495367 0.798488
0.000074 0.801161 0.731732
0.000072 0.800498 0.732010
0.000067 0.797652 0.733201
0.000054 0.791827 0.735612
0.000035 0.782388 0.739445
0.249010 0.768293 0.743812
0.749996 0.749996 0.749996
0.992042 0.738600 0.739291
0.990290 0.703352 0.748911
0.000341 0.957180 0.676075
0.000340 0.956663 0.676385
0.000336 0.954447 0.677708
0.000327 0.949926 0.680384
0.000315 0.942632 0.684633
0.000295 0.932134 0.690611
0.436034 0.917971 0.697422
0.875021 0.899338 0.707037
0.999480 0.865750 0.718747
0.000498 0.999502 0.598361
0.000498 0.999502 0.598728
0.000495 0.999504 0.600294
0.000491 0.999509 0.603458
0.000483 0.999516 0.608469
0.000473 0.999527 0.615489
0.000460 0.999540 0.624615
0.587513 0.999567 0.634733
0.998366 0.997283 0.648799
0.103181 0.000000 0.975141
0.207410 0.000000 0.975325
0.384810 0.000000 0.976112
0.568981 0.000000 0.977707
0.754405 0.000000 0.980251
0.922916 0.000000 0.983848
0.984191 0.003007 0.994228
0.981391 0.001975 0.996697
0.978805 0.001022 0.998978
0.004695 0.000000 0.974084
0.155181 0.000000 0.974268
0.366284 0.000000 0.975056
0.558561 0.000000 0.976654
0.747497 0.000000 0.979202
0.918499 0.000000 0.982804
0.984680 0.003187 0.993797
0.981876 0.002154 0.996269
0.978805 0.001022 0.998978
0.004673 0.000000 0.969545
0.004674 0.000000 0.969730
0.265150 0.000000 0.970524
0.510484 0.000000 0.972132
0.716861 0.000000 0.974696
0.899232 0.000000 0.978322
0.986780 0.003961 0.991944
0.983958 0.002921 0.994433
0.980544 0.001663 0.997445
0.004619 0.000000 0.960233
0.004620 0.000000 0.960421
0.004625 0.000000 0.961225
0.385361 0.000000 0.962855
0.647660 0.000000 0.965454
0.857457 0.000000 0.969128
0.991086 0.005548 0.988146
0.988228 0.004495 0.990667
0.984769 0.003220 0.993717
0.000000 0.381268 0.945077
0.000000 0.379403 0.945269
0.000000 0.371279 0.946092
0.000000 0.354010 0.947758
0.505864 0.326863 0.951291
0.780097 0.275287 0.955299
0.989222 0.185277 0.969643
0.992287 0.007712 0.981670
0.991639 0.005752 0.987658
0.000000 0.592683 0.922943
0.000000 0.591673 0.923142
0.000000 0.587325 0.923992
0.000000 0.578353 0.925715
0.000000 0.563597 0.928460
0.628336 0.544634 0.932871
0.903896 0.513470 0.938163
0.982908 0.487971 0.944233
0.985333 0.423578 0.954601
0.000000 0.769148 0.892445
0.000000 0.768444 0.892653
0.000000 0.765422 0.893544
0.000000 0.759234 0.895350
0.000000 0.749192 0.898225
0.252177 0.735363 0.902524
0.751513 0.717283 0.907878
0.987878 0.703402 0.910865
0.986525 0.670659 0.920614
0.000081 0.934696 0.853684
0.000080 0.934161 0.853909
0.000076 0.931869 0.854867
0.000069 0.927189 0.856809
0.000056 0.919638 0.859902
0.000037 0.908760 0.864273
0.437358 0.893730 0.868591
0.874998 0.874998 0.874998
0.996101 0.857589 0.873151
0.000235 0.999765 0.799529
0.000235 0.999765 0.799773
0.000233 0.999767 0.800819
0.000230 0.999770 0.802936
0.000225 0.999775 0.806304
0.000218 0.999781 0.811055
0.000211 0.999789 0.817288
0.588338 0.999782 0.823656
0.999125 0.998692 0.832956
0.117362 0.000000 1.000000
0.213059 0.000000 1.000000
0.387256 0.000000 1.000000
0.570433 0.000000 1.000000
0.755624 0.000000 1.000000
0.925726 0.000000 1.000000
0.978805 0.001022 0.998978
0.978805 0.001022 0.998978
0.978805 0.001022 0.998978
0.004822 0.000000 1.000000
0.163535 0.000000 1.000000
0.368909 0.000000 1.000000
0.560047 0.000000 1.000000
0.748698 0.000000 1.000000
0.921449 0.000000 1.000000
0.978805 0.001022 0.998978
0.978805 0.001022 0.998978
0.978805 0.001022 0.998978
0.004822 0.000000 1.000000
0.004822 0.000000 1.000000
0.269229 0.000000 1.000000
0.512190 0.000000 1.000000
0.717955 0.000000 1.000000
0.902772 0.000000 1.000000
0.978805 0.001022 0.998978
0.978805 0.001022 0.998978
0.978805 0.001022 0.998978
0.004822 0.000000 1.000000
0.004822 0.000000 1.000000
0.004822 0.000000 1.000000
0.387867 0.000000 1.000000
0.648954 0.000000 1.000000
0.861187 0.000000 1.000000
0.978805 0.001022 0.998978
0.978805 0.001022 0.998978
0.978805 0.001022 0.998978
0.000000 0.256013 1.000000
0.000000 0.252776 1.000000
0.000000 0.238235 1.000000
0.000000 0.204192 1.000000
0.509163 0.126824 1.000000
0.781681 0.000000 1.000000
0.978805 0.001022 0.998978
0.978805 0.001022 0.998978
0.978805 0.001022 0.998978
0.000000 0.535320 1.000000
0.000000 0.534160 1.000000
0.000000 0.529156 1.000000
0.000000 0.518780 1.000000
0.000000 0.501566 1.000000
0.630487 0.479619 1.000000
0.909016 0.441979 1.000000
0.987010 0.387460 0.999371
0.985147 0.299844 0.999285
0.000000 0.730143 1.000000
0.000000 0.729390 1.000000
0.000000 0.726153 1.000000
0.000000 0.719517 1.000000
0.000000 0.708718 1.000000
0.256510 0.693657 1.000000
0.753266 0.674844 1.000000
0.992504 0.646478 0.999639
0.991702 0.608793 0.999603
0.000000 0.903086 1.000000
0.000000 0.902525 1.000000
0.000000 0.900117 1.000000
0.000000 0.895200 1.000000
0.000000 0.887259 1.000000
0.000000 0.875805 1.000000
0.439248 0.861422 1.000000
0.876506 0.843194 1.000000
0.996129 0.817903 0.999822
0.000013 0.999619 0.975414
0.000013 0.999605 0.975584
0.000013 0.999542 0.976313
0.000012 0.999416 0.977790
0.000011 0.999214 0.980144
0.000009 0.998929 0.983474
0.000006 0.998553 0.987856
0.589393 0.999198 0.993005
1.000000 1.000000 1.000000
